; generated by Slic3r 0.9.3 on 2012-11-24 at 10:46:19

; layer_height = 0.3
; perimeters = 1
; solid_layers = 3
; fill_density = 0.25
; perimeter_speed = 30
; infill_speed = 50
; travel_speed = 100
; scale = 1
; nozzle_diameter = 0.4
; filament_diameter = 2.82
; extrusion_multiplier = 1
; single wall width = 0.42mm

M107 ; disable fan
M104 S175 ; set temperature

M109 S175 ; wait for temperature to be reached
G90 ; use absolute coordinates
G21 ; set units to millimeters
G92 E0 ; reset extrusion distance
M82 ; use absolute distances for extrusion
G1 F1800.000 E-3.00000 ; retract
G92 E0 ; reset extrusion distance
G1 Z0.300 F6000.000 ; move to next layer (0)
G1 X40.940 Y31.700 ; move to first skirt point
G1 F1800.000 E3.00000 ; compensate retraction
G1 X41.300 Y31.300 F540.000 E3.01083 ; skirt
G1 X41.900 Y30.770 E3.02693 ; skirt
G1 X42.120 Y30.600 E3.03253 ; skirt
G1 X42.560 Y30.310 E3.04313 ; skirt
G1 X43.030 Y30.040 E3.05404 ; skirt
G1 X43.770 Y29.720 E3.07026 ; skirt
G1 X44.280 Y29.550 E3.08107 ; skirt
G1 X45.070 Y29.380 E3.09733 ; skirt
G1 X45.340 Y29.340 E3.10282 ; skirt
G1 X45.870 Y29.300 E3.11352 ; skirt
G1 X74.110 Y29.300 E3.68170 ; skirt
G1 X74.640 Y29.340 E3.69239 ; skirt
G1 X75.700 Y29.550 E3.71413 ; skirt
G1 X76.210 Y29.720 E3.72495 ; skirt
G1 X76.950 Y30.040 E3.74117 ; skirt
G1 X77.640 Y30.450 E3.75732 ; skirt
G1 X77.860 Y30.600 E3.76268 ; skirt
G1 X78.680 Y31.300 E3.78437 ; skirt
G1 X79.210 Y31.900 E3.80048 ; skirt
G1 X79.380 Y32.120 E3.80607 ; skirt
G1 X79.670 Y32.560 E3.81667 ; skirt
G1 X79.940 Y33.030 E3.82758 ; skirt
G1 X80.260 Y33.770 E3.84380 ; skirt
G1 X80.430 Y34.280 E3.85461 ; skirt
G1 X80.600 Y35.070 E3.87087 ; skirt
G1 X80.640 Y35.340 E3.87636 ; skirt
G1 X80.680 Y35.870 E3.88706 ; skirt
G1 X80.680 Y64.120 E4.45544 ; skirt
G1 X80.640 Y64.650 E4.46613 ; skirt
G1 X80.430 Y65.710 E4.48788 ; skirt
G1 X80.260 Y66.220 E4.49869 ; skirt
G1 X79.940 Y66.960 E4.51491 ; skirt
G1 X79.530 Y67.650 E4.53106 ; skirt
G1 X79.380 Y67.870 E4.53642 ; skirt
G1 X78.680 Y68.690 E4.55811 ; skirt
G1 X78.080 Y69.220 E4.57422 ; skirt
G1 X77.860 Y69.390 E4.57981 ; skirt
G1 X77.420 Y69.680 E4.59041 ; skirt
G1 X76.950 Y69.950 E4.60132 ; skirt
G1 X76.210 Y70.270 E4.61754 ; skirt
G1 X75.700 Y70.440 E4.62836 ; skirt
G1 X74.910 Y70.610 E4.64461 ; skirt
G1 X74.640 Y70.650 E4.65011 ; skirt
G1 X74.110 Y70.690 E4.66080 ; skirt
G1 X45.870 Y70.690 E5.22898 ; skirt
G1 X45.340 Y70.650 E5.23967 ; skirt
G1 X44.280 Y70.440 E5.26142 ; skirt
G1 X43.770 Y70.270 E5.27223 ; skirt
G1 X43.030 Y69.950 E5.28845 ; skirt
G1 X42.340 Y69.540 E5.30460 ; skirt
G1 X42.120 Y69.390 E5.30996 ; skirt
G1 X41.300 Y68.690 E5.33165 ; skirt
G1 X40.770 Y68.090 E5.34776 ; skirt
G1 X40.600 Y67.870 E5.35335 ; skirt
G1 X40.310 Y67.430 E5.36395 ; skirt
G1 X40.040 Y66.960 E5.37486 ; skirt
G1 X39.720 Y66.220 E5.39108 ; skirt
G1 X39.550 Y65.710 E5.40190 ; skirt
G1 X39.380 Y64.920 E5.41816 ; skirt
G1 X39.340 Y64.650 E5.42365 ; skirt
G1 X39.300 Y64.120 E5.43434 ; skirt
G1 X39.300 Y35.870 E6.00272 ; skirt
G1 X39.340 Y35.340 E6.01342 ; skirt
G1 X39.550 Y34.280 E6.03516 ; skirt
G1 X39.720 Y33.770 E6.04597 ; skirt
G1 X40.040 Y33.030 E6.06219 ; skirt
G1 X40.450 Y32.340 E6.07834 ; skirt
G1 X40.600 Y32.120 E6.08370 ; skirt
G1 X40.671 Y32.028 E6.08604 ; skirt
G1 X41.070 Y32.200 F6000.000 ; move to first skirt point
G1 X41.600 Y31.600 F540.000 E6.10215 ; skirt
G1 X41.990 Y31.240 E6.11283 ; skirt
G1 X42.410 Y30.910 E6.12358 ; skirt
G1 X42.850 Y30.620 E6.13418 ; skirt
G1 X43.320 Y30.370 E6.14489 ; skirt
G1 X44.050 Y30.070 E6.16077 ; skirt
G1 X44.560 Y29.920 E6.17146 ; skirt
G1 X45.080 Y29.810 E6.18216 ; skirt
G1 X45.610 Y29.740 E6.19291 ; skirt
G1 X45.870 Y29.720 E6.19816 ; skirt
G1 X74.110 Y29.720 E6.76634 ; skirt
G1 X74.900 Y29.810 E6.78234 ; skirt
G1 X75.420 Y29.920 E6.79303 ; skirt
G1 X75.930 Y30.070 E6.80373 ; skirt
G1 X76.420 Y30.260 E6.81430 ; skirt
G1 X76.900 Y30.490 E6.82501 ; skirt
G1 X77.350 Y30.760 E6.83557 ; skirt
G1 X77.570 Y30.910 E6.84093 ; skirt
G1 X77.990 Y31.240 E6.85167 ; skirt
G1 X78.380 Y31.600 E6.86235 ; skirt
G1 X78.740 Y31.990 E6.87303 ; skirt
G1 X79.070 Y32.410 E6.88378 ; skirt
G1 X79.360 Y32.850 E6.89438 ; skirt
G1 X79.610 Y33.320 E6.90509 ; skirt
G1 X79.910 Y34.050 E6.92097 ; skirt
G1 X80.060 Y34.560 E6.93167 ; skirt
G1 X80.170 Y35.080 E6.94236 ; skirt
G1 X80.240 Y35.610 E6.95312 ; skirt
G1 X80.260 Y35.870 E6.95836 ; skirt
G1 X80.260 Y64.120 E7.52674 ; skirt
G1 X80.170 Y64.910 E7.54274 ; skirt
G1 X80.060 Y65.430 E7.55344 ; skirt
G1 X79.910 Y65.940 E7.56413 ; skirt
G1 X79.720 Y66.430 E7.57471 ; skirt
G1 X79.490 Y66.910 E7.58541 ; skirt
G1 X79.220 Y67.360 E7.59597 ; skirt
G1 X79.070 Y67.580 E7.60133 ; skirt
G1 X78.740 Y68.000 E7.61208 ; skirt
G1 X78.380 Y68.390 E7.62276 ; skirt
G1 X77.990 Y68.750 E7.63343 ; skirt
G1 X77.570 Y69.080 E7.64418 ; skirt
G1 X77.130 Y69.370 E7.65478 ; skirt
G1 X76.660 Y69.620 E7.66549 ; skirt
G1 X75.930 Y69.920 E7.68137 ; skirt
G1 X75.420 Y70.070 E7.69207 ; skirt
G1 X74.900 Y70.180 E7.70276 ; skirt
G1 X74.370 Y70.250 E7.71352 ; skirt
G1 X74.110 Y70.270 E7.71876 ; skirt
G1 X45.870 Y70.270 E8.28695 ; skirt
G1 X45.080 Y70.180 E8.30294 ; skirt
G1 X44.560 Y70.070 E8.31364 ; skirt
G1 X44.050 Y69.920 E8.32433 ; skirt
G1 X43.560 Y69.730 E8.33491 ; skirt
G1 X43.080 Y69.500 E8.34562 ; skirt
G1 X42.630 Y69.230 E8.35617 ; skirt
G1 X42.410 Y69.080 E8.36153 ; skirt
G1 X41.990 Y68.750 E8.37228 ; skirt
G1 X41.600 Y68.390 E8.38296 ; skirt
G1 X41.240 Y68.000 E8.39363 ; skirt
G1 X40.910 Y67.580 E8.40438 ; skirt
G1 X40.620 Y67.140 E8.41498 ; skirt
G1 X40.370 Y66.670 E8.42569 ; skirt
G1 X40.070 Y65.940 E8.44157 ; skirt
G1 X39.920 Y65.430 E8.45227 ; skirt
G1 X39.810 Y64.910 E8.46296 ; skirt
G1 X39.740 Y64.380 E8.47372 ; skirt
G1 X39.720 Y64.120 E8.47897 ; skirt
G1 X39.720 Y35.870 E9.04735 ; skirt
G1 X39.810 Y35.080 E9.06335 ; skirt
G1 X39.920 Y34.560 E9.07404 ; skirt
G1 X40.070 Y34.050 E9.08473 ; skirt
G1 X40.260 Y33.560 E9.09531 ; skirt
G1 X40.490 Y33.080 E9.10602 ; skirt
G1 X40.760 Y32.630 E9.11658 ; skirt
G1 X40.820 Y32.542 E9.11871 ; skirt
G1 F1800.000 E6.11871 ; retract
G92 E0 ; reset extrusion distance
G1 X49.537 Y39.539 F6000.000 ; move to first perimeter point
G1 F1800.000 E3.00000 ; compensate retraction
G1 X70.459 Y39.539 F540.000 E3.32304 ; perimeter
G1 X70.459 Y47.461 E3.44535 ; perimeter
G1 X68.037 Y47.461 E3.48274 ; perimeter
G1 X68.037 Y44.743 E3.52470 ; perimeter
G1 X67.689 Y44.743 E3.53009 ; perimeter
G1 X64.911 Y47.515 E3.59069 ; perimeter
G1 X64.911 Y52.475 E3.66727 ; perimeter
G1 X67.691 Y55.255 E3.72798 ; perimeter
G1 X68.039 Y55.255 E3.73336 ; perimeter
G1 X68.039 Y52.539 E3.77529 ; perimeter
G1 X70.461 Y52.539 E3.81268 ; perimeter
G1 X70.461 Y60.461 E3.93499 ; perimeter
G1 X62.539 Y60.461 E4.05730 ; perimeter
G1 X62.539 Y58.039 E4.09469 ; perimeter
G1 X65.255 Y58.039 E4.13663 ; perimeter
G1 X65.255 Y57.690 E4.14202 ; perimeter
G1 X62.485 Y54.911 E4.20261 ; perimeter
G1 X57.523 Y54.911 E4.27923 ; perimeter
G1 X54.743 Y57.691 E4.33993 ; perimeter
G1 X54.743 Y58.039 E4.34531 ; perimeter
G1 X57.461 Y58.039 E4.38728 ; perimeter
G1 X57.461 Y60.461 E4.42467 ; perimeter
G1 X49.537 Y60.461 E4.54701 ; perimeter
G1 X49.537 Y39.963 E4.86350 ; perimeter
G1 X49.848 Y39.850 F6000.000 ; move to first perimeter point
G1 X70.148 Y39.850 F405.000 E5.17694 ; perimeter
G1 X70.148 Y47.150 E5.28966 ; perimeter
G1 X68.348 Y47.150 E5.31745 ; perimeter
G1 X68.348 Y44.432 E5.35942 ; perimeter
G1 X67.560 Y44.432 E5.37158 ; perimeter
G1 X64.600 Y47.386 E5.43616 ; perimeter
G1 X64.600 Y52.604 E5.51672 ; perimeter
G1 X67.562 Y55.566 E5.58140 ; perimeter
G1 X68.350 Y55.566 E5.59357 ; perimeter
G1 X68.350 Y52.850 E5.63550 ; perimeter
G1 X70.150 Y52.850 E5.66330 ; perimeter
G1 X70.150 Y60.150 E5.77601 ; perimeter
G1 X62.850 Y60.150 E5.88873 ; perimeter
G1 X62.850 Y58.350 E5.91652 ; perimeter
G1 X65.566 Y58.350 E5.95846 ; perimeter
G1 X65.566 Y57.562 E5.97062 ; perimeter
G1 X62.614 Y54.600 E6.03519 ; perimeter
G1 X57.394 Y54.600 E6.11579 ; perimeter
G1 X54.432 Y57.562 E6.18047 ; perimeter
G1 X54.432 Y58.350 E6.19263 ; perimeter
G1 X57.150 Y58.350 E6.23460 ; perimeter
G1 X57.150 Y60.150 E6.26239 ; perimeter
G1 X49.848 Y60.150 E6.37514 ; perimeter
G1 X49.848 Y40.274 E6.68203 ; perimeter
G1 F1800.000 E3.68203 ; retract
G92 E0 ; reset extrusion distance
G1 X46.461 Y36.461 F6000.000 ; move to first perimeter point
G1 F1800.000 E3.00000 ; compensate retraction
G1 X73.537 Y36.461 F540.000 E3.41807 ; perimeter
G1 X73.539 Y63.539 E3.83618 ; perimeter
G1 X46.461 Y63.539 E4.25428 ; perimeter
G1 X46.461 Y36.885 E4.66584 ; perimeter
G1 X46.150 Y36.150 F6000.000 ; move to first perimeter point
G1 X73.848 Y36.150 F405.000 E5.09351 ; perimeter
G1 X73.850 Y63.850 E5.52121 ; perimeter
G1 X46.150 Y63.850 E5.94891 ; perimeter
G1 X46.150 Y36.574 E6.37007 ; perimeter
G1 X46.472 Y36.473 F6000.000 ; move to first fill point
G1 X49.527 Y39.528 F630.000 E6.43699 ; fill
G1 X49.526 Y39.968 F6000.000 ; move to first fill point
G1 X46.472 Y36.913 F630.000 E6.50389 ; fill
G1 X46.472 Y37.354 F6000.000 ; move to first fill point
G1 X49.526 Y40.409 F630.000 E6.57079 ; fill
G1 X49.526 Y40.850 F6000.000 ; move to first fill point
G1 X46.471 Y37.795 F630.000 E6.63770 ; fill
G1 X46.472 Y38.236 F6000.000 ; move to first fill point
G1 X49.527 Y41.291 F630.000 E6.70460 ; fill
G1 X49.526 Y41.732 F6000.000 ; move to first fill point
G1 X46.472 Y38.677 F630.000 E6.77150 ; fill
G1 X46.472 Y39.118 F6000.000 ; move to first fill point
G1 X49.526 Y42.173 F630.000 E6.83840 ; fill
G1 X49.526 Y42.614 F6000.000 ; move to first fill point
G1 X46.472 Y39.559 F630.000 E6.90531 ; fill
G1 X46.472 Y40.000 F6000.000 ; move to first fill point
G1 X49.526 Y43.055 F630.000 E6.97221 ; fill
G1 X49.526 Y43.496 F6000.000 ; move to first fill point
G1 X46.472 Y40.441 F630.000 E7.03911 ; fill
G1 X46.472 Y40.882 F6000.000 ; move to first fill point
G1 X49.526 Y43.937 F630.000 E7.10601 ; fill
G1 X49.526 Y44.378 F6000.000 ; move to first fill point
G1 X46.472 Y41.323 F630.000 E7.17291 ; fill
G1 X46.472 Y41.764 F6000.000 ; move to first fill point
G1 X49.527 Y44.819 F630.000 E7.23982 ; fill
G1 X49.526 Y45.260 F6000.000 ; move to first fill point
G1 X46.472 Y42.205 F630.000 E7.30672 ; fill
G1 X46.472 Y42.646 F6000.000 ; move to first fill point
G1 X49.526 Y45.701 F630.000 E7.37362 ; fill
G1 X49.526 Y46.141 F6000.000 ; move to first fill point
G1 X46.472 Y43.087 F630.000 E7.44052 ; fill
G1 X46.472 Y43.527 F6000.000 ; move to first fill point
G1 X49.526 Y46.582 F630.000 E7.50742 ; fill
G1 X49.526 Y47.023 F6000.000 ; move to first fill point
G1 X46.472 Y43.968 F630.000 E7.57433 ; fill
G1 X46.472 Y44.409 F6000.000 ; move to first fill point
G1 X49.526 Y47.464 F630.000 E7.64123 ; fill
G1 X49.526 Y47.905 F6000.000 ; move to first fill point
G1 X46.472 Y44.850 F630.000 E7.70813 ; fill
G1 X46.471 Y45.291 F6000.000 ; move to first fill point
G1 X49.526 Y48.346 F630.000 E7.77503 ; fill
G1 X49.527 Y48.787 F6000.000 ; move to first fill point
G1 X46.472 Y45.732 F630.000 E7.84194 ; fill
G1 X46.472 Y46.173 F6000.000 ; move to first fill point
G1 X49.526 Y49.228 F630.000 E7.90884 ; fill
G1 X49.526 Y49.669 F6000.000 ; move to first fill point
G1 X46.472 Y46.614 F630.000 E7.97574 ; fill
G1 X46.472 Y47.055 F6000.000 ; move to first fill point
G1 X49.526 Y50.110 F630.000 E8.04264 ; fill
G1 X49.526 Y50.551 F6000.000 ; move to first fill point
G1 X46.472 Y47.496 F630.000 E8.10954 ; fill
G1 X46.472 Y47.937 F6000.000 ; move to first fill point
G1 X49.526 Y50.992 F630.000 E8.17645 ; fill
G1 X49.526 Y51.433 F6000.000 ; move to first fill point
G1 X46.472 Y48.378 F630.000 E8.24335 ; fill
G1 X46.472 Y48.819 F6000.000 ; move to first fill point
G1 X49.526 Y51.874 F630.000 E8.31025 ; fill
G1 X49.527 Y52.315 F6000.000 ; move to first fill point
G1 X46.472 Y49.260 F630.000 E8.37715 ; fill
G1 X46.472 Y49.701 F6000.000 ; move to first fill point
G1 X49.526 Y52.755 F630.000 E8.44405 ; fill
G1 X49.526 Y53.196 F6000.000 ; move to first fill point
G1 X46.472 Y50.141 F630.000 E8.51096 ; fill
G1 X46.472 Y50.582 F6000.000 ; move to first fill point
G1 X49.526 Y53.637 F630.000 E8.57786 ; fill
G1 X49.526 Y54.078 F6000.000 ; move to first fill point
G1 X46.472 Y51.023 F630.000 E8.64476 ; fill
G1 X46.472 Y51.464 F6000.000 ; move to first fill point
G1 X49.526 Y54.519 F630.000 E8.71166 ; fill
G1 X49.526 Y54.960 F6000.000 ; move to first fill point
G1 X46.472 Y51.905 F630.000 E8.77856 ; fill
G1 X46.472 Y52.346 F6000.000 ; move to first fill point
G1 X49.526 Y55.401 F630.000 E8.84546 ; fill
G1 X49.526 Y55.842 F6000.000 ; move to first fill point
G1 X46.471 Y52.787 F630.000 E8.91237 ; fill
G1 X46.472 Y53.228 F6000.000 ; move to first fill point
G1 X49.527 Y56.283 F630.000 E8.97927 ; fill
G1 X49.526 Y56.724 F6000.000 ; move to first fill point
G1 X46.472 Y53.669 F630.000 E9.04617 ; fill
G1 X46.472 Y54.110 F6000.000 ; move to first fill point
G1 X49.526 Y57.165 F630.000 E9.11307 ; fill
G1 X49.526 Y57.606 F6000.000 ; move to first fill point
G1 X46.472 Y54.551 F630.000 E9.17998 ; fill
G1 X46.472 Y54.992 F6000.000 ; move to first fill point
G1 X49.526 Y58.047 F630.000 E9.24688 ; fill
G1 X49.526 Y58.488 F6000.000 ; move to first fill point
G1 X46.472 Y55.433 F630.000 E9.31378 ; fill
G1 X46.472 Y55.874 F6000.000 ; move to first fill point
G1 X49.526 Y58.929 F630.000 E9.38068 ; fill
G1 X49.526 Y59.370 F6000.000 ; move to first fill point
G1 X46.472 Y56.315 F630.000 E9.44758 ; fill
G1 X46.472 Y56.755 F6000.000 ; move to first fill point
G1 X49.527 Y59.810 F630.000 E9.51449 ; fill
G1 X49.526 Y60.251 F6000.000 ; move to first fill point
G1 X46.472 Y57.196 F630.000 E9.58139 ; fill
G1 X46.472 Y57.637 F6000.000 ; move to first fill point
G1 X49.526 Y60.692 F630.000 E9.64829 ; fill
G1 X49.747 Y60.471 F6000.000 ; move to first fill point
G1 X52.804 Y63.528 F630.000 E9.71524 ; fill
G1 X52.363 Y63.528 F6000.000 ; move to first fill point
G1 X49.306 Y60.472 F630.000 E9.78218 ; fill
G1 X50.188 Y60.471 F6000.000 ; move to first fill point
G1 X53.245 Y63.528 F630.000 E9.84913 ; fill
G1 X53.685 Y63.529 F6000.000 ; move to first fill point
G1 X50.628 Y60.472 F630.000 E9.91608 ; fill
G1 X51.069 Y60.472 F6000.000 ; move to first fill point
G1 X54.126 Y63.529 F630.000 E9.98302 ; fill
G1 X54.567 Y63.529 F6000.000 ; move to first fill point
G1 X51.510 Y60.472 F630.000 E10.04997 ; fill
G1 X51.951 Y60.472 F6000.000 ; move to first fill point
G1 X55.008 Y63.528 F630.000 E10.11691 ; fill
G1 X55.449 Y63.528 F6000.000 ; move to first fill point
G1 X52.392 Y60.472 F630.000 E10.18386 ; fill
G1 X52.833 Y60.472 F6000.000 ; move to first fill point
G1 X55.890 Y63.528 F630.000 E10.25080 ; fill
G1 X56.331 Y63.528 F6000.000 ; move to first fill point
G1 X53.274 Y60.472 F630.000 E10.31775 ; fill
G1 X53.715 Y60.471 F6000.000 ; move to first fill point
G1 X56.772 Y63.528 F630.000 E10.38470 ; fill
G1 X57.213 Y63.529 F6000.000 ; move to first fill point
G1 X54.156 Y60.472 F630.000 E10.45164 ; fill
G1 X54.597 Y60.472 F6000.000 ; move to first fill point
G1 X57.654 Y63.529 F630.000 E10.51859 ; fill
G1 X58.095 Y63.529 F6000.000 ; move to first fill point
G1 X55.038 Y60.472 F630.000 E10.58554 ; fill
G1 X55.479 Y60.472 F6000.000 ; move to first fill point
G1 X58.536 Y63.529 F630.000 E10.65248 ; fill
G1 X58.977 Y63.528 F6000.000 ; move to first fill point
G1 X55.920 Y60.472 F630.000 E10.71943 ; fill
G1 X56.361 Y60.472 F6000.000 ; move to first fill point
G1 X59.418 Y63.528 F630.000 E10.78637 ; fill
G1 X59.859 Y63.528 F6000.000 ; move to first fill point
G1 X56.802 Y60.472 F630.000 E10.85332 ; fill
G1 X57.242 Y60.471 F6000.000 ; move to first fill point
G1 X60.299 Y63.528 F630.000 E10.92027 ; fill
G1 X60.740 Y63.528 F6000.000 ; move to first fill point
G1 X57.472 Y60.260 F630.000 E10.99185 ; fill
G1 X57.471 Y59.819 F6000.000 ; move to first fill point
G1 X61.181 Y63.529 F630.000 E11.07309 ; fill
G1 X61.622 Y63.529 F6000.000 ; move to first fill point
G1 X57.471 Y59.378 F630.000 E11.16399 ; fill
G1 X57.471 Y58.937 F6000.000 ; move to first fill point
G1 X62.063 Y63.529 F630.000 E11.26455 ; fill
