; generated by Slic3r 0.9.5 on 2012-11-24 at 15:25:13

; layer_height = 0.3
; perimeters = 1
; top_solid_layers = 3
; bottom_solid_layers = 3
; fill_density = 0.25
; perimeter_speed = 30
; infill_speed = 50
; travel_speed = 100
; scale = 1
; nozzle_diameter = 0.4
; filament_diameter = 2.82
; extrusion_multiplier = 1
; perimeters extrusion width = 0.42mm
; infill extrusion width = 0.42mm
; first layer extrusion width = 0.30mm

M107 ; disable fan
M104 S175 ; set temperature

M109 S175 ; wait for temperature to be reached
G90 ; use absolute coordinates
G21 ; set units to millimeters
G92 E0 ; reset extrusion distance
M82 ; use absolute distances for extrusion
G1 F1800.000 E-3.00000 ; retract
G92 E0 ; reset extrusion distance
G1 Z0.300 F6000.000 ; move to next layer (0)
G1 X16.170 Y50.860 ; move to first skirt point
G1 F1800.000 E3.00000 ; compensate retraction
G1 X16.390 Y50.700 F540.000 E3.00420 ; skirt
G1 X16.610 Y50.550 E3.00831 ; skirt
G1 X17.070 Y50.290 E3.01647 ; skirt
G1 X17.310 Y50.170 E3.02061 ; skirt
G1 X17.550 Y50.060 E3.02469 ; skirt
G1 X17.800 Y49.960 E3.02885 ; skirt
G1 X18.050 Y49.870 E3.03295 ; skirt
G1 X18.310 Y49.790 E3.03715 ; skirt
G1 X18.570 Y49.720 E3.04131 ; skirt
G1 X18.830 Y49.660 E3.04543 ; skirt
G1 X19.090 Y49.610 E3.04952 ; skirt
G1 X19.350 Y49.580 E3.05356 ; skirt
G1 X19.620 Y49.550 E3.05775 ; skirt
G1 X19.880 Y49.530 E3.06178 ; skirt
G1 X48.110 Y49.530 E3.49766 ; skirt
G1 X48.370 Y49.550 E3.50169 ; skirt
G1 X48.640 Y49.580 E3.50588 ; skirt
G1 X48.900 Y49.610 E3.50992 ; skirt
G1 X49.160 Y49.660 E3.51401 ; skirt
G1 X49.420 Y49.720 E3.51813 ; skirt
G1 X49.680 Y49.790 E3.52229 ; skirt
G1 X49.940 Y49.870 E3.52649 ; skirt
G1 X50.190 Y49.960 E3.53059 ; skirt
G1 X50.440 Y50.060 E3.53475 ; skirt
G1 X50.680 Y50.170 E3.53883 ; skirt
G1 X50.920 Y50.290 E3.54297 ; skirt
G1 X51.380 Y50.550 E3.55113 ; skirt
G1 X51.600 Y50.700 E3.55524 ; skirt
G1 X51.820 Y50.860 E3.55944 ; skirt
G1 X52.030 Y51.020 E3.56352 ; skirt
G1 X52.230 Y51.190 E3.56757 ; skirt
G1 X52.430 Y51.370 E3.57172 ; skirt
G1 X52.620 Y51.560 E3.57587 ; skirt
G1 X52.800 Y51.760 E3.58003 ; skirt
G1 X52.970 Y51.960 E3.58408 ; skirt
G1 X53.130 Y52.170 E3.58816 ; skirt
G1 X53.290 Y52.390 E3.59236 ; skirt
G1 X53.440 Y52.610 E3.59647 ; skirt
G1 X53.700 Y53.070 E3.60463 ; skirt
G1 X53.820 Y53.310 E3.60877 ; skirt
G1 X53.930 Y53.550 E3.61285 ; skirt
G1 X54.030 Y53.800 E3.61700 ; skirt
G1 X54.120 Y54.050 E3.62111 ; skirt
G1 X54.200 Y54.310 E3.62531 ; skirt
G1 X54.270 Y54.570 E3.62946 ; skirt
G1 X54.330 Y54.830 E3.63358 ; skirt
G1 X54.380 Y55.090 E3.63767 ; skirt
G1 X54.410 Y55.350 E3.64171 ; skirt
G1 X54.440 Y55.620 E3.64591 ; skirt
G1 X54.460 Y55.880 E3.64993 ; skirt
G1 X54.460 Y84.120 E4.08597 ; skirt
G1 X54.440 Y84.380 E4.09000 ; skirt
G1 X54.410 Y84.650 E4.09419 ; skirt
G1 X54.380 Y84.910 E4.09824 ; skirt
G1 X54.330 Y85.170 E4.10232 ; skirt
G1 X54.270 Y85.430 E4.10644 ; skirt
G1 X54.200 Y85.690 E4.11060 ; skirt
G1 X54.120 Y85.950 E4.11480 ; skirt
G1 X54.030 Y86.200 E4.11890 ; skirt
G1 X53.930 Y86.450 E4.12306 ; skirt
G1 X53.820 Y86.690 E4.12714 ; skirt
G1 X53.700 Y86.930 E4.13128 ; skirt
G1 X53.440 Y87.390 E4.13944 ; skirt
G1 X53.290 Y87.610 E4.14355 ; skirt
G1 X53.130 Y87.830 E4.14775 ; skirt
G1 X52.970 Y88.040 E4.15183 ; skirt
G1 X52.800 Y88.240 E4.15588 ; skirt
G1 X52.620 Y88.440 E4.16003 ; skirt
G1 X52.430 Y88.630 E4.16418 ; skirt
G1 X52.230 Y88.810 E4.16834 ; skirt
G1 X52.030 Y88.980 E4.17239 ; skirt
G1 X51.820 Y89.140 E4.17647 ; skirt
G1 X51.600 Y89.300 E4.18067 ; skirt
G1 X51.380 Y89.450 E4.18478 ; skirt
G1 X50.920 Y89.710 E4.19294 ; skirt
G1 X50.680 Y89.830 E4.19708 ; skirt
G1 X50.440 Y89.940 E4.20116 ; skirt
G1 X50.190 Y90.040 E4.20532 ; skirt
G1 X49.940 Y90.130 E4.20942 ; skirt
G1 X49.680 Y90.210 E4.21362 ; skirt
G1 X49.420 Y90.280 E4.21778 ; skirt
G1 X49.160 Y90.340 E4.22190 ; skirt
G1 X48.900 Y90.390 E4.22598 ; skirt
G1 X48.640 Y90.420 E4.23002 ; skirt
G1 X48.370 Y90.450 E4.23422 ; skirt
G1 X48.110 Y90.470 E4.23825 ; skirt
G1 X19.880 Y90.470 E4.67413 ; skirt
G1 X19.620 Y90.450 E4.67816 ; skirt
G1 X19.350 Y90.420 E4.68235 ; skirt
G1 X19.090 Y90.390 E4.68639 ; skirt
G1 X18.830 Y90.340 E4.69048 ; skirt
G1 X18.570 Y90.280 E4.69460 ; skirt
G1 X18.310 Y90.210 E4.69876 ; skirt
G1 X18.050 Y90.130 E4.70296 ; skirt
G1 X17.800 Y90.040 E4.70706 ; skirt
G1 X17.550 Y89.940 E4.71122 ; skirt
G1 X17.310 Y89.830 E4.71529 ; skirt
G1 X17.070 Y89.710 E4.71944 ; skirt
G1 X16.610 Y89.450 E4.72760 ; skirt
G1 X16.390 Y89.300 E4.73171 ; skirt
G1 X16.170 Y89.140 E4.73591 ; skirt
G1 X15.960 Y88.980 E4.73998 ; skirt
G1 X15.760 Y88.810 E4.74404 ; skirt
G1 X15.560 Y88.630 E4.74819 ; skirt
G1 X15.370 Y88.440 E4.75234 ; skirt
G1 X15.190 Y88.240 E4.75650 ; skirt
G1 X15.020 Y88.040 E4.76055 ; skirt
G1 X14.860 Y87.830 E4.76462 ; skirt
G1 X14.700 Y87.610 E4.76882 ; skirt
G1 X14.550 Y87.390 E4.77294 ; skirt
G1 X14.290 Y86.930 E4.78109 ; skirt
G1 X14.170 Y86.690 E4.78524 ; skirt
G1 X14.060 Y86.450 E4.78931 ; skirt
G1 X13.960 Y86.200 E4.79347 ; skirt
G1 X13.870 Y85.950 E4.79757 ; skirt
G1 X13.790 Y85.690 E4.80177 ; skirt
G1 X13.720 Y85.430 E4.80593 ; skirt
G1 X13.660 Y85.170 E4.81005 ; skirt
G1 X13.610 Y84.910 E4.81414 ; skirt
G1 X13.580 Y84.650 E4.81818 ; skirt
G1 X13.550 Y84.380 E4.82238 ; skirt
G1 X13.530 Y84.120 E4.82640 ; skirt
G1 X13.530 Y55.880 E5.26244 ; skirt
G1 X13.550 Y55.620 E5.26647 ; skirt
G1 X13.580 Y55.350 E5.27066 ; skirt
G1 X13.610 Y55.090 E5.27470 ; skirt
G1 X13.660 Y54.830 E5.27879 ; skirt
G1 X13.720 Y54.570 E5.28291 ; skirt
G1 X13.790 Y54.310 E5.28707 ; skirt
G1 X13.870 Y54.050 E5.29127 ; skirt
G1 X13.960 Y53.800 E5.29537 ; skirt
G1 X14.060 Y53.550 E5.29953 ; skirt
G1 X14.170 Y53.310 E5.30361 ; skirt
G1 X14.290 Y53.070 E5.30775 ; skirt
G1 X14.550 Y52.610 E5.31591 ; skirt
G1 X14.700 Y52.390 E5.32002 ; skirt
G1 X14.860 Y52.170 E5.32422 ; skirt
G1 X15.020 Y51.960 E5.32830 ; skirt
G1 X15.190 Y51.760 E5.33235 ; skirt
G1 X15.370 Y51.560 E5.33650 ; skirt
G1 X15.560 Y51.370 E5.34065 ; skirt
G1 X15.760 Y51.190 E5.34481 ; skirt
G1 X15.960 Y51.020 E5.34886 ; skirt
G1 X16.170 Y50.860 E5.35294 ; skirt
G1 X16.270 Y51.170 F6000.000 ; move to first skirt point
G1 X16.480 Y51.010 F540.000 E5.35701 ; skirt
G1 X16.920 Y50.730 E5.36506 ; skirt
G1 X17.150 Y50.600 E5.36914 ; skirt
G1 X17.380 Y50.480 E5.37315 ; skirt
G1 X17.620 Y50.370 E5.37723 ; skirt
G1 X17.860 Y50.270 E5.38124 ; skirt
G1 X18.100 Y50.180 E5.38520 ; skirt
G1 X18.350 Y50.100 E5.38925 ; skirt
G1 X18.600 Y50.030 E5.39326 ; skirt
G1 X18.850 Y49.970 E5.39723 ; skirt
G1 X19.370 Y49.890 E5.40535 ; skirt
G1 X19.630 Y49.860 E5.40939 ; skirt
G1 X19.890 Y49.840 E5.41342 ; skirt
G1 X48.100 Y49.840 E5.84900 ; skirt
G1 X48.360 Y49.860 E5.85302 ; skirt
G1 X48.620 Y49.890 E5.85706 ; skirt
G1 X49.140 Y49.970 E5.86519 ; skirt
G1 X49.390 Y50.030 E5.86916 ; skirt
G1 X49.640 Y50.100 E5.87317 ; skirt
G1 X49.890 Y50.180 E5.87722 ; skirt
G1 X50.130 Y50.270 E5.88118 ; skirt
G1 X50.370 Y50.370 E5.88519 ; skirt
G1 X50.610 Y50.480 E5.88927 ; skirt
G1 X50.840 Y50.600 E5.89327 ; skirt
G1 X51.070 Y50.730 E5.89735 ; skirt
G1 X51.510 Y51.010 E5.90540 ; skirt
G1 X51.720 Y51.170 E5.90948 ; skirt
G1 X51.920 Y51.330 E5.91344 ; skirt
G1 X52.300 Y51.690 E5.92152 ; skirt
G1 X52.660 Y52.070 E5.92960 ; skirt
G1 X52.820 Y52.270 E5.93356 ; skirt
G1 X52.980 Y52.480 E5.93763 ; skirt
G1 X53.260 Y52.920 E5.94568 ; skirt
G1 X53.390 Y53.150 E5.94976 ; skirt
G1 X53.510 Y53.380 E5.95377 ; skirt
G1 X53.620 Y53.620 E5.95785 ; skirt
G1 X53.720 Y53.860 E5.96186 ; skirt
G1 X53.810 Y54.100 E5.96582 ; skirt
G1 X53.890 Y54.350 E5.96987 ; skirt
G1 X53.960 Y54.600 E5.97388 ; skirt
G1 X54.020 Y54.850 E5.97785 ; skirt
G1 X54.100 Y55.370 E5.98597 ; skirt
G1 X54.130 Y55.630 E5.99001 ; skirt
G1 X54.150 Y55.890 E5.99404 ; skirt
G1 X54.150 Y84.110 E6.42977 ; skirt
G1 X54.130 Y84.370 E6.43380 ; skirt
G1 X54.100 Y84.630 E6.43784 ; skirt
G1 X54.020 Y85.150 E6.44596 ; skirt
G1 X53.960 Y85.400 E6.44993 ; skirt
G1 X53.890 Y85.650 E6.45394 ; skirt
G1 X53.810 Y85.900 E6.45799 ; skirt
G1 X53.720 Y86.140 E6.46195 ; skirt
G1 X53.620 Y86.380 E6.46596 ; skirt
G1 X53.510 Y86.620 E6.47004 ; skirt
G1 X53.390 Y86.850 E6.47405 ; skirt
G1 X53.260 Y87.080 E6.47813 ; skirt
G1 X52.980 Y87.520 E6.48618 ; skirt
G1 X52.820 Y87.730 E6.49025 ; skirt
G1 X52.660 Y87.930 E6.49421 ; skirt
G1 X52.300 Y88.310 E6.50229 ; skirt
G1 X51.920 Y88.670 E6.51037 ; skirt
G1 X51.720 Y88.830 E6.51433 ; skirt
G1 X51.510 Y88.990 E6.51841 ; skirt
G1 X51.070 Y89.270 E6.52646 ; skirt
G1 X50.840 Y89.400 E6.53054 ; skirt
G1 X50.610 Y89.520 E6.53454 ; skirt
G1 X50.370 Y89.630 E6.53862 ; skirt
G1 X50.130 Y89.730 E6.54263 ; skirt
G1 X49.890 Y89.820 E6.54659 ; skirt
G1 X49.640 Y89.900 E6.55064 ; skirt
G1 X49.390 Y89.970 E6.55465 ; skirt
G1 X49.140 Y90.030 E6.55862 ; skirt
G1 X48.620 Y90.110 E6.56675 ; skirt
G1 X48.360 Y90.140 E6.57079 ; skirt
G1 X48.100 Y90.160 E6.57481 ; skirt
G1 X19.890 Y90.160 E7.01039 ; skirt
G1 X19.630 Y90.140 E7.01442 ; skirt
G1 X19.370 Y90.110 E7.01846 ; skirt
G1 X18.850 Y90.030 E7.02658 ; skirt
G1 X18.600 Y89.970 E7.03055 ; skirt
G1 X18.350 Y89.900 E7.03456 ; skirt
G1 X18.100 Y89.820 E7.03861 ; skirt
G1 X17.860 Y89.730 E7.04257 ; skirt
G1 X17.620 Y89.630 E7.04658 ; skirt
G1 X17.380 Y89.520 E7.05066 ; skirt
G1 X17.150 Y89.400 E7.05467 ; skirt
G1 X16.920 Y89.270 E7.05875 ; skirt
G1 X16.480 Y88.990 E7.06680 ; skirt
G1 X16.270 Y88.830 E7.07087 ; skirt
G1 X16.070 Y88.670 E7.07483 ; skirt
G1 X15.690 Y88.310 E7.08291 ; skirt
G1 X15.330 Y87.930 E7.09099 ; skirt
G1 X15.170 Y87.730 E7.09495 ; skirt
G1 X15.010 Y87.520 E7.09902 ; skirt
G1 X14.730 Y87.080 E7.10708 ; skirt
G1 X14.600 Y86.850 E7.11116 ; skirt
G1 X14.480 Y86.620 E7.11516 ; skirt
G1 X14.370 Y86.380 E7.11924 ; skirt
G1 X14.270 Y86.140 E7.12325 ; skirt
G1 X14.180 Y85.900 E7.12721 ; skirt
G1 X14.100 Y85.650 E7.13126 ; skirt
G1 X14.030 Y85.400 E7.13527 ; skirt
G1 X13.970 Y85.150 E7.13924 ; skirt
G1 X13.890 Y84.630 E7.14737 ; skirt
G1 X13.860 Y84.370 E7.15141 ; skirt
G1 X13.840 Y84.110 E7.15543 ; skirt
G1 X13.840 Y55.890 E7.59116 ; skirt
G1 X13.860 Y55.630 E7.59519 ; skirt
G1 X13.890 Y55.370 E7.59923 ; skirt
G1 X13.970 Y54.850 E7.60735 ; skirt
G1 X14.030 Y54.600 E7.61132 ; skirt
G1 X14.100 Y54.350 E7.61533 ; skirt
G1 X14.180 Y54.100 E7.61939 ; skirt
G1 X14.270 Y53.860 E7.62334 ; skirt
G1 X14.370 Y53.620 E7.62736 ; skirt
G1 X14.480 Y53.380 E7.63143 ; skirt
G1 X14.600 Y53.150 E7.63544 ; skirt
G1 X14.730 Y52.920 E7.63952 ; skirt
G1 X15.010 Y52.480 E7.64757 ; skirt
G1 X15.170 Y52.270 E7.65165 ; skirt
G1 X15.330 Y52.070 E7.65560 ; skirt
G1 X15.690 Y51.690 E7.66369 ; skirt
G1 X16.070 Y51.330 E7.67177 ; skirt
G1 X16.270 Y51.170 E7.67572 ; skirt
G1 F1800.000 E4.67572 ; retract
G92 E0 ; reset extrusion distance
G1 X23.537 Y59.539 F6000.000 ; move to first perimeter point
G1 F1800.000 E3.00000 ; compensate retraction
G1 X44.459 Y59.539 F540.000 E3.32304 ; perimeter
G1 X44.459 Y67.461 E3.44535 ; perimeter
G1 X42.037 Y67.461 E3.48274 ; perimeter
G1 X42.037 Y64.743 E3.52470 ; perimeter
G1 X41.689 Y64.743 E3.53009 ; perimeter
G1 X38.911 Y67.515 E3.59069 ; perimeter
G1 X38.911 Y72.475 E3.66727 ; perimeter
G1 X41.691 Y75.255 E3.72798 ; perimeter
G1 X42.039 Y75.255 E3.73336 ; perimeter
G1 X42.039 Y72.539 E3.77529 ; perimeter
G1 X44.461 Y72.539 E3.81268 ; perimeter
G1 X44.461 Y80.461 E3.93499 ; perimeter
G1 X36.539 Y80.461 E4.05730 ; perimeter
G1 X36.539 Y78.039 E4.09469 ; perimeter
G1 X39.255 Y78.039 E4.13663 ; perimeter
G1 X39.255 Y77.690 E4.14202 ; perimeter
G1 X36.485 Y74.911 E4.20261 ; perimeter
G1 X31.523 Y74.911 E4.27923 ; perimeter
G1 X28.743 Y77.691 E4.33993 ; perimeter
G1 X28.743 Y78.039 E4.34531 ; perimeter
G1 X31.461 Y78.039 E4.38728 ; perimeter
G1 X31.461 Y80.461 E4.42467 ; perimeter
G1 X23.537 Y80.461 E4.54701 ; perimeter
G1 X23.537 Y59.539 E4.87005 ; perimeter
G1 X23.848 Y59.850 F6000.000 ; move to first perimeter point
G1 X44.148 Y59.850 F405.000 E5.18349 ; perimeter
G1 X44.148 Y67.150 E5.29621 ; perimeter
G1 X42.348 Y67.150 E5.32400 ; perimeter
G1 X42.348 Y64.432 E5.36597 ; perimeter
G1 X41.560 Y64.432 E5.37813 ; perimeter
G1 X38.600 Y67.386 E5.44270 ; perimeter
G1 X38.600 Y72.604 E5.52327 ; perimeter
G1 X41.562 Y75.566 E5.58795 ; perimeter
G1 X42.350 Y75.566 E5.60011 ; perimeter
G1 X42.350 Y72.850 E5.64205 ; perimeter
G1 X44.150 Y72.850 E5.66984 ; perimeter
G1 X44.150 Y80.150 E5.78256 ; perimeter
G1 X36.850 Y80.150 E5.89527 ; perimeter
G1 X36.850 Y78.350 E5.92307 ; perimeter
G1 X39.566 Y78.350 E5.96500 ; perimeter
G1 X39.566 Y77.562 E5.97717 ; perimeter
G1 X36.614 Y74.600 E6.04174 ; perimeter
G1 X31.394 Y74.600 E6.12234 ; perimeter
G1 X28.432 Y77.562 E6.18702 ; perimeter
G1 X28.432 Y78.350 E6.19918 ; perimeter
G1 X31.150 Y78.350 E6.24115 ; perimeter
G1 X31.150 Y80.150 E6.26894 ; perimeter
G1 X23.848 Y80.150 E6.38169 ; perimeter
G1 X23.848 Y59.850 E6.69513 ; perimeter
G1 X24.003 Y59.581 F6000.000 ; move inwards before travel
G1 F1800.000 E3.69513 ; retract
G92 E0 ; reset extrusion distance
G1 X20.461 Y83.539 F6000.000 ; move to first perimeter point
G1 F1800.000 E3.00000 ; compensate retraction
G1 X20.461 Y56.461 F540.000 E3.41811 ; perimeter
G1 X47.537 Y56.461 E3.83618 ; perimeter
G1 X47.539 Y83.539 E4.25429 ; perimeter
G1 X20.461 Y83.539 E4.67239 ; perimeter
G1 X20.150 Y83.850 F6000.000 ; move to first perimeter point
G1 X20.150 Y56.150 F405.000 E5.10009 ; perimeter
G1 X47.848 Y56.150 E5.52776 ; perimeter
G1 X47.850 Y83.850 E5.95546 ; perimeter
G1 X20.150 Y83.850 E6.38316 ; perimeter
G1 X20.870 Y83.328 F6000.000 ; move to first fill point
G1 X20.672 Y83.130 F630.000 E6.38750 ; fill
G1 X20.672 Y82.689 E6.39433 ; fill
G1 X21.311 Y83.328 E6.40832 ; fill
G1 X21.752 Y83.327 E6.41514 ; fill
G1 X20.672 Y82.248 E6.43879 ; fill
G1 X20.672 Y81.807 E6.44562 ; fill
G1 X22.193 Y83.328 E6.47892 ; fill
G1 X22.634 Y83.328 E6.48575 ; fill
G1 X20.672 Y81.366 E6.52871 ; fill
G1 X20.672 Y80.925 E6.53554 ; fill
G1 X23.075 Y83.328 E6.58815 ; fill
G1 X23.516 Y83.328 E6.59498 ; fill
G1 X20.673 Y80.484 E6.65725 ; fill
G1 X20.672 Y80.043 E6.66408 ; fill
G1 X23.957 Y83.328 E6.73601 ; fill
G1 X24.398 Y83.328 E6.74284 ; fill
G1 X20.673 Y79.602 E6.82442 ; fill
G1 X20.673 Y79.161 E6.83125 ; fill
G1 X24.839 Y83.328 E6.92249 ; fill
G1 X25.280 Y83.328 E6.92932 ; fill
G1 X20.672 Y78.720 E7.03022 ; fill
G1 X20.672 Y78.279 E7.03705 ; fill
G1 X25.721 Y83.328 E7.14760 ; fill
G1 X26.162 Y83.328 E7.15443 ; fill
G1 X23.507 Y80.673 E7.21257 ; fill
G1 X23.325 Y80.491 F6000.000 ; move to first fill point
G1 X20.672 Y77.838 F630.000 E7.27067 ; fill
G1 X20.672 Y77.397 E7.27750 ; fill
G1 X23.326 Y80.051 E7.33560 ; fill
G1 X23.326 Y79.610 E7.34243 ; fill
G1 X20.672 Y76.956 E7.40053 ; fill
G1 X20.673 Y76.516 E7.40736 ; fill
G1 X23.326 Y79.169 E7.46546 ; fill
G1 X23.326 Y78.728 E7.47228 ; fill
G1 X20.673 Y76.075 E7.53038 ; fill
G1 X20.673 Y75.634 E7.53721 ; fill
G1 X23.326 Y78.287 E7.59531 ; fill
G1 X23.325 Y77.846 E7.60214 ; fill
G1 X20.672 Y75.193 E7.66024 ; fill
G1 X20.672 Y74.752 E7.66707 ; fill
G1 X23.325 Y77.405 E7.72517 ; fill
G1 X23.325 Y76.964 E7.73199 ; fill
G1 X20.672 Y74.311 E7.79009 ; fill
G1 X20.672 Y73.870 E7.79692 ; fill
G1 X23.325 Y76.523 E7.85502 ; fill
G1 X23.326 Y76.082 E7.86185 ; fill
G1 X20.672 Y73.429 E7.91995 ; fill
G1 X20.673 Y72.988 E7.92678 ; fill
G1 X23.326 Y75.641 E7.98488 ; fill
G1 X23.326 Y75.200 E7.99171 ; fill
G1 X20.673 Y72.547 E8.04981 ; fill
G1 X20.673 Y72.106 E8.05663 ; fill
G1 X23.326 Y74.759 E8.11473 ; fill
G1 X23.326 Y74.318 E8.12156 ; fill
G1 X20.673 Y71.665 E8.17966 ; fill
G1 X20.672 Y71.224 E8.18649 ; fill
G1 X23.325 Y73.877 E8.24459 ; fill
G1 X23.325 Y73.436 E8.25142 ; fill
G1 X20.672 Y70.783 E8.30952 ; fill
G1 X20.672 Y70.342 E8.31634 ; fill
G1 X23.325 Y72.995 E8.37444 ; fill
G1 X23.326 Y72.555 E8.38127 ; fill
G1 X20.672 Y69.901 E8.43937 ; fill
G1 X20.672 Y69.461 E8.44620 ; fill
G1 X23.326 Y72.114 E8.50430 ; fill
G1 X23.326 Y71.673 E8.51113 ; fill
G1 X20.673 Y69.020 E8.56923 ; fill
G1 X20.673 Y68.579 E8.57606 ; fill
G1 X23.326 Y71.232 E8.63416 ; fill
G1 X23.326 Y70.791 E8.64099 ; fill
G1 X20.673 Y68.138 E8.69909 ; fill
