; KISSlicer - FREE
; Apple 10.7.5
; version 1.0.9.7
; Built: Jun 12 2012, 19:20:56
;
; Saved: Sat Nov 24 12:28:34 2012
; 'Contest(0).gcode'
;
; *** Printer Settings ***
;
; printer_name = pbjr3
; extension = gcode
; cost_per_hour = 0
; g_code_prefix = NULL
; g_code_postfix = 4D313034205330203B207475726E206F66662074656D70657261747572650A473238205830205930203B20686F6D65205820617869730A4D383420202020203B2064697361626C65206D6F746F7273
; g_code_ext_change = NULL
; post_process = NULL
; num_extruders = 1
; firmware_type = 2
; M104_M109 = 1
; add_comments = 1
; z_speed_mm_per_s = 3.5
; z_settle_mm = 0.25
; bed_size_x_mm = 120
; bed_size_y_mm = 113
; bed_size_z_mm = 80
; bed_offset_x_mm = 60
; bed_offset_y_mm = 50
; bed_offset_z_mm = 0
; bed_roughness_mm = 0
; travel_speed_mm_per_s = 500
; first_layer_speed_mm_per_s = 25
; lo_speed_perim_mm_per_s = 4
; lo_speed_solid_mm_per_s = 15
; lo_speed_sparse_mm_per_s = 30
; hi_speed_perim_mm_per_s = 15
; hi_speed_solid_mm_per_s = 60
; hi_speed_sparse_mm_per_s = 75
; ext_mm_per_rev_1 = 1.25
; ext_material_1 = 5
; ext_axis_1 = 0
; ext_mm_per_rev_2 = 1.25
; ext_material_2 = 0
; ext_axis_2 = 0
; ext_mm_per_rev_3 = 1.25
; ext_material_3 = 0
; ext_axis_3 = 0
; model_ext = 0
; support_ext = 0
; support_body_ext = 0
; raft_ext = 0
; solid_loop_overlap_fraction = 0.75
;
; *** Material Settings for Extruder 1 ***
;
; material_name = PLA-orange-ultimachine-4043d
; fan_off_ISOs_all = 2
; temperature_C = 176
; keep_warm_C = 159
; first_layer_C = 176
; bed_C = 0
; sec_per_C_per_C = 0
; RPM_min = 3
; RPM_max = 75
; destring_suck = 3
; destring_prime = 2.88
; destring_min_mm = 0
; destring_speed_mm_per_s = 15
; min_layer_time_s = 10
; wipe_mm = 10
; cost_per_cm3 = 0.04
; flowrate_tweak = 1
; fiber_dia_mm = 2.7
; color = -157876224
;
; *** Style Settings ***
;
; style_name = g2_4
; layer_thickness_mm = 0.3
; extrusion_width_mm = 0.4
; num_loops = 1
; skin_thickness_mm = 0.4
; infill_extrusion_width = 0.3
; infill_density_denominator = 3
; stacked_layers = 1
; use_destring = 1
; loops_insideout = 0
; round_infill = 1
;
; *** Actual Slicing Settings As Used ***
;
; layer_thickness_mm = 0.3
; extrusion_width = 0.4
; num_ISOs = 1
; wall_thickness = 0.4
; infill_style = 4
; support_style = 0
; support_angle = 90
; destring_min_mm = 0
; stacked_infill_layers = 1
; ISO_wipe_mm = 10
; raft_style = 1
; extra_raft_depth = 0
; oversample_res_mm = 0.125
; crowning_threshold_mm = 1
; loops_insideout = 0
; sheathed_support = 0
; solid_loop_overlap_fraction = 0.75
; inflate_raft_mm = 4
; inflate_support_mm = 2
; model_support_gap_mm = 0.5
; round_infill = 1
; Speed vs Quality = 0.50
;
; *** Header ***
;
; fan off
M107
; [mm] mode
G21
; absolute mode
G90
; *** Main G-code ***
;
; Reset extruder pos
G92 E0
; BEGIN_LAYER_OBJECT z=0.30
;
; *** Warming Extruder 1 to 176 C ***
M109 S176
G92 E0
;
;
; 'Skirt', 19.1 [RPM], 9.5 [mm/s]
G1 F30000
G1 X93.34 Y83.5 Z0.55 E0
G1 F210
G1 X93.34 Y83.5 Z0.3 E0
G1 F570
G1 X92.71 Y84.01 E0.034
G1 X91.96 Y84.42 E0.0696
G1 X91.09 Y84.71 E0.1084
G1 X90.33 Y84.82 E0.1406
G1 X88.33 Y84.94 E0.2245
G1 X87.56 Y84.92 E0.2567
G1 X86.63 Y84.77 E0.2962
G1 X84.08 Y84.91 E0.4034
G1 X83.31 Y84.9 E0.4356
G1 X82.38 Y84.74 E0.4752
G1 X79.26 Y84.92 E0.6061
G1 X78.49 Y84.9 E0.6383
G1 X77.56 Y84.75 E0.6778
G1 X74.44 Y84.93 E0.8088
G1 X73.67 Y84.91 E0.841
G1 X72.74 Y84.76 E0.8805
G1 X69.63 Y84.94 E1.0114
G1 X68.86 Y84.92 E1.0436
G1 X67.93 Y84.76 E1.0832
G1 X65.37 Y84.91 E1.1904
G1 X64.61 Y84.89 E1.2226
G1 X63.68 Y84.74 E1.2621
G1 X62 Y84.82 E1.3326
G1 X61.48 Y84.8 E1.3541
G1 X60.58 Y84.62 E1.3929
G1 X59.79 Y84.3 E1.4285
G1 X59.1 Y83.87 E1.4625
G1 X58.5 Y83.34 E1.4961
G1 X57.99 Y82.71 E1.5301
G1 X57.58 Y81.96 E1.5657
G1 X57.29 Y81.09 E1.6045
G1 X57.18 Y80.33 E1.6367
G1 X57.06 Y78.33 E1.7205
G1 X57.08 Y77.56 E1.7527
G1 X57.23 Y76.63 E1.7923
G1 X57.09 Y74.08 E1.8995
G1 X57.1 Y73.31 E1.9317
G1 X57.26 Y72.38 E1.9712
G1 X57.08 Y69.26 E2.1022
G1 X57.1 Y68.49 E2.1344
G1 X57.25 Y67.56 E2.1739
G1 X57.07 Y64.44 E2.3048
G1 X57.09 Y63.67 E2.337
G1 X57.24 Y62.74 E2.3766
G1 X57.06 Y59.63 E2.5075
G1 X57.08 Y58.86 E2.5397
G1 X57.24 Y57.93 E2.5793
G1 X57.09 Y55.37 E2.6865
G1 X57.11 Y54.61 E2.7187
G1 X57.26 Y53.68 E2.7582
G1 X57.18 Y52 E2.8287
G1 X57.2 Y51.48 E2.8502
G1 X57.38 Y50.58 E2.889
G1 X57.7 Y49.79 E2.9246
G1 X58.13 Y49.1 E2.9586
G1 X58.66 Y48.5 E2.9922
G1 X59.29 Y47.99 E3.0262
G1 X60.04 Y47.58 E3.0618
G1 X60.91 Y47.29 E3.1006
G1 X61.67 Y47.18 E3.1328
G1 X63.67 Y47.06 E3.2166
G1 X64.44 Y47.08 E3.2488
G1 X65.37 Y47.23 E3.2884
G1 X67.92 Y47.09 E3.3956
G1 X68.69 Y47.1 E3.4278
G1 X69.62 Y47.26 E3.4673
G1 X72.74 Y47.08 E3.5982
G1 X73.51 Y47.1 E3.6304
G1 X74.44 Y47.25 E3.67
G1 X77.56 Y47.07 E3.8009
G1 X78.33 Y47.09 E3.8331
G1 X79.26 Y47.24 E3.8727
G1 X82.37 Y47.06 E4.0036
G1 X83.14 Y47.08 E4.0358
G1 X84.07 Y47.24 E4.0753
G1 X86.63 Y47.09 E4.1825
G1 X87.39 Y47.11 E4.2147
G1 X88.32 Y47.26 E4.2543
G1 X90 Y47.18 E4.3248
G1 X90.52 Y47.2 E4.3463
G1 X91.42 Y47.38 E4.3851
G1 X92.21 Y47.7 E4.4207
G1 X92.9 Y48.13 E4.4547
G1 X93.5 Y48.66 E4.4882
G1 X94.01 Y49.29 E4.5222
G1 X94.42 Y50.04 E4.5578
G1 X94.71 Y50.91 E4.5966
G1 X94.82 Y51.67 E4.6288
G1 X94.94 Y53.67 E4.7127
G1 X94.92 Y54.44 E4.7449
G1 X94.77 Y55.37 E4.7844
G1 X94.91 Y57.92 E4.8917
G1 X94.9 Y58.69 E4.9239
G1 X94.74 Y59.62 E4.9634
G1 X94.92 Y62.74 E5.0943
G1 X94.9 Y63.51 E5.1265
G1 X94.75 Y64.44 E5.1661
G1 X94.93 Y67.56 E5.297
G1 X94.91 Y68.33 E5.3292
G1 X94.76 Y69.26 E5.3687
G1 X94.94 Y72.37 E5.4997
G1 X94.92 Y73.14 E5.5319
G1 X94.76 Y74.07 E5.5714
G1 X94.91 Y76.63 E5.6786
G1 X94.89 Y77.39 E5.7108
G1 X94.74 Y78.32 E5.7504
G1 X94.82 Y80 E5.8208
G1 X94.8 Y80.52 E5.8424
G1 X94.62 Y81.42 E5.8812
G1 X94.3 Y82.21 E5.9168
G1 X93.87 Y82.9 E5.9508
G1 X93.34 Y83.5 E5.9843
;
; 'Wipe', 0.0 [RPM], 25.0 [mm/s]
G1 F900
G1 E2.9843
;
; 'Perimeter', 9.6 [RPM], 9.5 [mm/s]
G1 F30000
G1 X86.36 Y76.12 E2.9843
G1 F900
G1 E5.8643
G1 F570
G1 X86.17 Y76.08 E5.8684
G1 X85.93 Y76.22 E5.8743
G1 X84.93 Y76.23 E5.8953
G1 X84.4 Y76.23 E5.9064
G1 X79.05 Y76.23 E6.0184
G1 X78.92 Y76.17 E6.0214
G1 X78.78 Y75.94 E6.0272
G1 X78.77 Y74.51 E6.057
G1 X78.83 Y74.38 E6.06
G1 X78.97 Y74.31 E6.0634
G1 X79.18 Y74.27 E6.0678
G1 X81.32 Y74.27 E6.1126
G1 X81.49 Y74.25 E6.1162
G1 X81.49 Y73.68 E6.1281
G1 X81.43 Y73.54 E6.1312
G1 X78.6 Y70.7 E6.2152
G1 X78.45 Y70.68 E6.2186
G1 X74.53 Y70.68 E6.3006
G1 X73.44 Y70.68 E6.3235
G1 X73.34 Y70.77 E6.3263
G1 X70.51 Y73.61 E6.4103
G1 X70.51 Y74.21 E6.4229
G1 X70.63 Y74.27 E6.4258
G1 X72.95 Y74.27 E6.4743
G1 X73.08 Y74.33 E6.4773
G1 X73.23 Y74.59 E6.4836
G1 X73.23 Y76.01 E6.5134
G1 X73.17 Y76.14 E6.5164
G1 X72.86 Y76.23 E6.5231
G1 X72.46 Y76.23 E6.5315
G1 X71.93 Y76.23 E6.5427
G1 X66.23 Y76.23 E6.6622
G1 X65.92 Y76.17 E6.6687
G1 X65.78 Y75.93 E6.6746
G1 X65.77 Y74.93 E6.6956
G1 X65.77 Y74.4 E6.7068
G1 X65.77 Y73.32 E6.7292
G1 X65.77 Y72.79 E6.7404
G1 X65.77 Y71.9 E6.7591
G1 X65.77 Y56.22 E7.0876
G1 X65.83 Y55.92 E7.0942
G1 X66.07 Y55.78 E7.1001
G1 X67.07 Y55.77 E7.121
G1 X67.6 Y55.77 E7.1321
G1 X70.1 Y55.77 E7.1845
G1 X70.81 Y55.77 E7.1993
G1 X71.7 Y55.77 E7.2181
G1 X85.77 Y55.77 E7.513
G1 X86.08 Y55.83 E7.5195
G1 X86.22 Y56.07 E7.5254
G1 X86.23 Y56.89 E7.5426
G1 X86.22 Y57.6 E7.5574
G1 X86.23 Y62.95 E7.6695
G1 X86.17 Y63.08 E7.6724
G1 X85.94 Y63.22 E7.6782
G1 X84.51 Y63.23 E7.7081
G1 X84.38 Y63.17 E7.711
G1 X84.31 Y63.03 E7.7145
G1 X84.27 Y62.82 E7.7189
G1 X84.27 Y60.69 E7.7636
G1 X84.25 Y60.51 E7.7673
G1 X83.68 Y60.51 E7.7793
G1 X83.54 Y60.57 E7.7824
G1 X80.7 Y63.4 E7.8664
G1 X80.68 Y63.55 E7.8697
G1 X80.68 Y67.47 E7.9518
G1 X80.68 Y68.56 E7.9746
G1 X80.77 Y68.66 E7.9774
G1 X83.51 Y71.4 E8.0586
G1 X83.61 Y71.49 E8.0614
G1 X84.21 Y71.49 E8.074
G1 X84.27 Y71.37 E8.0768
G1 X84.27 Y69.05 E8.1254
G1 X84.33 Y68.92 E8.1283
G1 X84.59 Y68.77 E8.1346
G1 X86.01 Y68.77 E8.1645
G1 X86.14 Y68.83 E8.1674
G1 X86.23 Y69.14 E8.1741
G1 X86.23 Y69.54 E8.1826
G1 X86.23 Y70.07 E8.1937
G1 X86.23 Y75.77 E8.3132
G1 X86.17 Y76.08 E8.3198
G1 X86.24 Y76.27 E8.3239
;
; 'Perimeter', 9.6 [RPM], 9.5 [mm/s]
G1 F30000
G1 X89.64 Y79.52 E8.3239
G1 F570
G1 X89.74 Y79.77 E8.3296
G1 X83.03 Y79.77 E8.4701
G1 X82.5 Y79.77 E8.4812
G1 X81.61 Y79.77 E8.5
G1 X80.9 Y79.77 E8.5148
G1 X80.01 Y79.77 E8.5336
G1 X79.3 Y79.77 E8.5484
G1 X78.4 Y79.77 E8.5672
G1 X62.73 Y79.77 E8.8957
G1 X62.23 Y79.74 E8.9062
G1 X62.23 Y73.03 E9.0467
G1 X62.23 Y72.5 E9.0579
G1 X62.23 Y71.61 E9.0766
G1 X62.23 Y70.9 E9.0915
G1 X62.23 Y70.01 E9.1102
G1 X62.23 Y69.3 E9.1251
G1 X62.23 Y68.4 E9.1438
G1 X62.23 Y52.73 E9.4723
G1 X62.26 Y52.23 E9.4829
G1 X68.97 Y52.23 E9.6234
G1 X69.5 Y52.23 E9.6345
G1 X70.39 Y52.23 E9.6532
G1 X71.1 Y52.23 E9.6681
G1 X71.99 Y52.23 E9.6868
G1 X72.7 Y52.23 E9.7017
G1 X73.6 Y52.23 E9.7204
G1 X89.27 Y52.23 E10.049
G1 X89.77 Y52.26 E10.0595
G1 X89.77 Y58.96 E10.1999
G1 X89.77 Y59.49 E10.211
G1 X89.77 Y60.39 E10.2297
G1 X89.77 Y61.1 E10.2446
G1 X89.77 Y61.99 E10.2633
G1 X89.77 Y62.7 E10.2782
G1 X89.77 Y63.6 E10.2969
G1 X89.77 Y79.27 E10.6255
G1 X89.74 Y79.77 E10.6361
G1 X89.51 Y79.62 E10.6418
;
; 'Solid', 25.2 [RPM], 25.0 [mm/s]
G1 F30000
G1 X89.51 Y79.1 E10.6418
G1 F1500
G1 X89.19 Y79.46 E10.652
G1 X88.65 Y79.47 E10.6632
G1 X89.47 Y78.55 E10.6889
G1 X89.46 Y77.95 E10.7015
G1 X88.12 Y79.46 E10.744
G1 X87.59 Y79.46 E10.7552
G1 X89.46 Y77.34 E10.8146
G1 X89.46 Y76.74 E10.8272
G1 X87.05 Y79.47 E10.9035
G1 X86.52 Y79.46 E10.9146
G1 X89.46 Y76.14 E11.0077
G1 X89.46 Y75.54 E11.0203
G1 X85.98 Y79.46 E11.1302
G1 X85.45 Y79.46 E11.1414
G1 X89.46 Y74.93 E11.2681
G1 X89.46 Y74.33 E11.2808
G1 X84.92 Y79.46 E11.4245
G1 X84.38 Y79.46 E11.4358
G1 X89.47 Y73.72 E11.5965
G1 X89.46 Y73.12 E11.6091
G1 X83.79 Y79.52 E11.7884
;
; 'Solid', 25.2 [RPM], 25.0 [mm/s]
G1 F30000
G1 X85.96 Y76.47 E11.7884
G1 F1500
G1 X83.31 Y79.46 E11.8722
G1 X82.78 Y79.46 E11.8835
G1 X85.37 Y76.53 E11.9655
G1 X84.84 Y76.53 E11.9767
G1 X82.24 Y79.47 E12.0587
G1 X81.71 Y79.46 E12.0699
G1 X84.3 Y76.54 E12.1518
G1 X83.77 Y76.54 E12.163
G1 X81.18 Y79.46 E12.2449
G1 X80.64 Y79.46 E12.2561
G1 X83.23 Y76.54 E12.338
G1 X82.7 Y76.54 E12.3492
G1 X80.11 Y79.46 E12.4311
G1 X79.57 Y79.46 E12.4423
G1 X82.16 Y76.54 E12.5242
G1 X81.63 Y76.54 E12.5354
G1 X79.04 Y79.46 E12.6173
G1 X78.5 Y79.46 E12.6285
G1 X81.09 Y76.54 E12.7104
G1 X80.56 Y76.53 E12.7215
G1 X77.97 Y79.46 E12.8036
G1 X77.43 Y79.47 E12.8148
G1 X80.03 Y76.54 E12.8968
G1 X79.49 Y76.54 E12.9081
G1 X76.9 Y79.46 E12.9899
G1 X76.37 Y79.46 E13.0011
G1 X78.98 Y76.51 E13.0838
G1 X78.63 Y76.3 E13.0924
G1 X75.83 Y79.46 E13.1808
G1 X75.3 Y79.46 E13.1921
G1 X78.46 Y75.89 E13.2922
G1 X78.46 Y75.28 E13.3048
G1 X74.76 Y79.46 E13.4219
G1 X74.23 Y79.46 E13.433
G1 X80.19 Y72.73 E13.6215
G1 X80.47 Y73.02 E13.6299
G1 X79.63 Y73.97 E13.6565
G1 X80.17 Y73.96 E13.6678
G1 X80.76 Y73.3 E13.6864
G1 X81.04 Y73.58 E13.6948
G1 X80.65 Y74.02 E13.7071
;
; 'Solid', 25.2 [RPM], 25.0 [mm/s]
G1 F30000
G1 X79.95 Y72.4 E13.7071
G1 F1500
G1 X73.69 Y79.46 E13.9047
G1 X73.16 Y79.47 E13.916
G1 X79.62 Y72.16 E14.1204
G1 X79.34 Y71.88 E14.1288
G1 X72.62 Y79.46 E14.3412
G1 X72.09 Y79.46 E14.3523
G1 X79.06 Y71.6 E14.5725
G1 X78.77 Y71.31 E14.5809
G1 X71.56 Y79.46 E14.8091
G1 X71.02 Y79.46 E14.8203
G1 X78.48 Y71.04 E15.056
G1 X78 Y70.98 E15.0662
G1 X73.47 Y76.09 E15.2093
G1 X73.55 Y75.41 E15.2238
G1 X77.46 Y70.99 E15.3475
G1 X76.93 Y70.98 E15.3587
G1 X73.53 Y74.82 E15.466
G1 X73.46 Y74.3 E15.477
G1 X76.39 Y70.99 E15.5698
G1 X75.86 Y70.99 E15.581
G1 X73.18 Y74.01 E15.6656
G1 X72.68 Y73.97 E15.676
G1 X75.32 Y70.99 E15.7594
G1 X74.79 Y70.99 E15.7706
G1 X72.15 Y73.96 E15.8539
G1 X71.62 Y73.96 E15.8651
G1 X74.25 Y70.99 E15.9485
G1 X73.72 Y70.98 E15.9596
G1 X71.07 Y73.98 E16.0435
G1 X70.82 Y73.65 E16.052
G1 X70.95 Y73.5 E16.0562
;
; 'Wipe', 0.0 [RPM], 25.0 [mm/s]
G1 F900
G1 E13.0562
G1 F1500
G1 X70.82 Y73.65 E13.0562
G1 X71.07 Y73.98 E13.0562
G1 X73.72 Y70.98 E13.0562
G1 X74.25 Y70.99 E13.0562
G1 X71.62 Y73.96 E13.0562
G1 X72.15 Y73.96 E13.0562
G1 X74.79 Y70.99 E13.0562
;
; 'Solid', 25.2 [RPM], 25.0 [mm/s]
G1 F30000
G1 X73.19 Y76.42 E13.0562
G1 F900
G1 E15.9362
G1 F1500
G1 X70.49 Y79.46 E16.0215
G1 X69.95 Y79.47 E16.0327
G1 X72.54 Y76.54 E16.1147
G1 X72.01 Y76.54 E16.1259
G1 X69.42 Y79.46 E16.2078
G1 X68.88 Y79.46 E16.219
G1 X71.48 Y76.54 E16.3009
G1 X70.94 Y76.53 E16.3121
G1 X68.34 Y79.47 E16.3942
G1 X67.81 Y79.46 E16.4054
G1 X70.41 Y76.54 E16.4873
G1 X69.87 Y76.54 E16.4985
G1 X67.28 Y79.46 E16.5804
G1 X66.75 Y79.46 E16.5916
G1 X69.34 Y76.54 E16.6735
G1 X68.8 Y76.54 E16.6847
G1 X66.21 Y79.46 E16.7666
G1 X65.68 Y79.46 E16.7779
G1 X68.27 Y76.54 E16.8597
G1 X67.73 Y76.54 E16.8709
G1 X65.14 Y79.46 E16.9529
G1 X64.61 Y79.46 E16.964
G1 X67.2 Y76.54 E17.0459
G1 X66.67 Y76.53 E17.0571
G1 X64.07 Y79.46 E17.1391
G1 X63.54 Y79.47 E17.1503
G1 X66.14 Y76.52 E17.2327
G1 X65.71 Y76.41 E17.242
G1 X63 Y79.47 E17.3277
G1 X62.53 Y79.4 E17.3377
G1 X65.48 Y76.07 E17.431
G1 X65.46 Y75.48 E17.4433
G1 X62.54 Y78.78 E17.5358
G1 X62.53 Y78.18 E17.5484
G1 X65.46 Y74.88 E17.641
G1 X65.46 Y74.28 E17.6536
G1 X62.54 Y77.58 E17.7461
G1 X62.53 Y76.98 E17.7587
G1 X65.46 Y73.67 E17.8512
G1 X65.46 Y73.07 E17.8638
G1 X62.54 Y76.37 E17.9562
G1 X62.54 Y75.77 E17.9689
G1 X65.46 Y72.47 E18.0612
G1 X65.46 Y71.87 E18.0738
G1 X62.54 Y75.16 E18.1661
G1 X62.54 Y74.56 E18.1788
G1 X65.46 Y71.26 E18.2711
G1 X65.46 Y70.66 E18.2838
G1 X62.54 Y73.96 E18.3763
G1 X62.54 Y73.36 E18.3889
G1 X65.46 Y70.05 E18.4814
G1 X65.46 Y69.45 E18.4941
G1 X62.54 Y72.75 E18.5866
G1 X62.53 Y72.15 E18.5992
G1 X65.46 Y68.85 E18.6917
G1 X65.46 Y68.25 E18.7043
G1 X62.54 Y71.55 E18.7967
G1 X62.54 Y70.94 E18.8094
G1 X65.46 Y67.64 E18.9016
G1 X65.46 Y67.04 E18.9143
G1 X62.54 Y70.34 E19.0066
G1 X62.54 Y69.73 E19.0192
G1 X65.46 Y66.44 E19.1116
G1 X65.46 Y65.83 E19.1243
G1 X62.54 Y69.13 E19.2168
G1 X62.54 Y68.53 E19.2294
G1 X65.46 Y65.23 E19.3219
G1 X65.46 Y64.62 E19.3346
G1 X62.53 Y67.93 E19.4271
G1 X62.53 Y67.33 E19.4398
G1 X65.46 Y64.02 E19.5323
G1 X65.46 Y63.42 E19.5449
G1 X62.54 Y66.72 E19.6372
G1 X62.54 Y66.11 E19.6499
G1 X65.46 Y62.82 E19.7421
G1 X65.46 Y62.21 E19.7548
G1 X62.54 Y65.51 E19.8471
G1 X62.54 Y64.91 E19.8597
G1 X65.46 Y61.61 E19.9521
G1 X65.46 Y61 E19.9649
G1 X62.54 Y64.31 E20.0574
G1 X62.54 Y63.7 E20.0701
G1 X65.46 Y60.4 E20.1626
G1 X65.46 Y59.8 E20.1752
G1 X62.53 Y63.1 E20.2678
G1 X62.54 Y62.5 E20.2805
G1 X65.46 Y59.2 E20.3729
G1 X65.46 Y58.6 E20.3855
G1 X62.54 Y61.89 E20.4778
G1 X62.54 Y61.29 E20.4905
G1 X65.46 Y57.99 E20.5828
G1 X65.46 Y57.39 E20.5954
G1 X62.54 Y60.69 E20.6877
G1 X62.54 Y60.08 E20.7004
G1 X65.46 Y56.78 E20.7927
G1 X65.48 Y56.16 E20.8058
G1 X62.48 Y59.55 E20.9007
;
; 'Solid', 25.2 [RPM], 25.0 [mm/s]
G1 F30000
G1 X62.53 Y52.86 E20.9007
G1 F1500
G1 X62.81 Y52.54 E20.9097
G1 X63.35 Y52.53 E20.9209
G1 X62.53 Y53.45 E20.9466
G1 X62.54 Y54.05 E20.9592
G1 X63.88 Y52.54 E21.0017
G1 X64.41 Y52.54 E21.0129
G1 X62.54 Y54.66 E21.0723
G1 X62.54 Y55.26 E21.0849
G1 X64.95 Y52.53 E21.1612
G1 X65.48 Y52.54 E21.1723
G1 X62.54 Y55.86 E21.2654
G1 X62.54 Y56.46 E21.278
G1 X66.02 Y52.54 E21.3879
G1 X66.55 Y52.54 E21.3991
G1 X62.54 Y57.07 E21.5259
G1 X62.54 Y57.67 E21.5386
G1 X67.08 Y52.54 E21.6823
G1 X67.62 Y52.54 E21.6935
G1 X62.53 Y58.28 E21.8543
G1 X62.54 Y58.88 E21.8669
G1 X68.16 Y52.54 E22.0445
G1 X68.69 Y52.54 E22.0557
G1 X66.09 Y55.47 E22.1378
G1 X66.63 Y55.46 E22.1491
G1 X69.22 Y52.54 E22.2311
G1 X69.76 Y52.53 E22.2424
G1 X67.16 Y55.46 E22.3244
G1 X67.7 Y55.46 E22.3357
G1 X70.29 Y52.54 E22.4176
G1 X70.82 Y52.54 E22.4287
G1 X68.23 Y55.46 E22.5106
G1 X68.77 Y55.46 E22.5218
G1 X71.36 Y52.54 E22.6037
G1 X71.89 Y52.54 E22.6149
G1 X69.3 Y55.46 E22.6968
G1 X69.84 Y55.46 E22.708
G1 X72.43 Y52.54 E22.7899
G1 X72.96 Y52.54 E22.8011
G1 X70.37 Y55.46 E22.883
G1 X70.91 Y55.46 E22.8942
G1 X73.5 Y52.54 E22.9761
G1 X74.03 Y52.54 E22.9873
G1 X71.44 Y55.47 E23.0694
G1 X71.97 Y55.46 E23.0806
G1 X74.57 Y52.53 E23.1626
G1 X75.1 Y52.54 E23.1738
G1 X72.51 Y55.46 E23.2557
G1 X73.04 Y55.46 E23.2668
G1 X75.63 Y52.54 E23.3488
G1 X76.17 Y52.54 E23.36
G1 X73.58 Y55.46 E23.4419
G1 X74.11 Y55.46 E23.4531
G1 X76.7 Y52.54 E23.535
G1 X77.24 Y52.54 E23.5462
G1 X74.65 Y55.46 E23.6281
G1 X75.18 Y55.46 E23.6393
G1 X77.77 Y52.54 E23.7212
G1 X78.31 Y52.54 E23.7324
G1 X75.72 Y55.46 E23.8143
G1 X76.25 Y55.47 E23.8255
G1 X78.85 Y52.53 E23.9076
G1 X79.38 Y52.54 E23.9188
G1 X76.78 Y55.46 E24.0007
G1 X77.32 Y55.46 E24.012
G1 X79.91 Y52.54 E24.0938
G1 X80.44 Y52.54 E24.105
G1 X77.85 Y55.47 E24.187
G1 X78.39 Y55.46 E24.1982
G1 X80.98 Y52.54 E24.2801
G1 X81.51 Y52.54 E24.2913
G1 X78.92 Y55.46 E24.3732
G1 X79.46 Y55.46 E24.3844
G1 X82.05 Y52.53 E24.4663
G1 X82.58 Y52.54 E24.4775
G1 X79.99 Y55.46 E24.5594
G1 X80.52 Y55.46 E24.5705
G1 X83.12 Y52.54 E24.6525
G1 X83.65 Y52.53 E24.6638
G1 X81.06 Y55.47 E24.7459
G1 X81.59 Y55.46 E24.7571
G1 X84.19 Y52.54 E24.8391
G1 X84.72 Y52.54 E24.8502
G1 X82.13 Y55.46 E24.9321
G1 X82.66 Y55.47 E24.9433
G1 X85.25 Y52.54 E25.0252
G1 X85.79 Y52.54 E25.0364
G1 X83.2 Y55.46 E25.1183
G1 X83.73 Y55.46 E25.1295
G1 X86.32 Y52.54 E25.2114
G1 X86.86 Y52.54 E25.2226
G1 X84.27 Y55.46 E25.3046
G1 X84.8 Y55.46 E25.3157
G1 X87.39 Y52.54 E25.3976
G1 X87.93 Y52.54 E25.4088
G1 X85.33 Y55.46 E25.4908
G1 X85.87 Y55.47 E25.502
G1 X88.46 Y52.53 E25.5841
G1 X89 Y52.54 E25.5953
G1 X86.29 Y55.59 E25.6808
G1 X86.5 Y55.95 E25.6896
G1 X89.46 Y52.62 E25.7831
G1 X89.46 Y53.22 E25.7957
G1 X86.53 Y56.52 E25.8882
G1 X86.53 Y57.13 E25.9009
G1 X89.46 Y53.82 E25.9935
G1 X89.46 Y54.42 E26.0061
G1 X86.53 Y57.73 E26.0987
G1 X86.53 Y58.33 E26.1113
G1 X89.46 Y55.02 E26.2039
G1 X89.46 Y55.63 E26.2166
G1 X86.54 Y58.93 E26.3091
G1 X86.54 Y59.53 E26.3217
G1 X89.46 Y56.24 E26.4141
G1 X89.46 Y56.84 E26.4267
G1 X86.54 Y60.14 E26.5191
G1 X86.54 Y60.74 E26.5317
G1 X89.46 Y57.44 E26.6241
G1 X89.46 Y58.04 E26.6367
G1 X86.53 Y61.35 E26.7293
G1 X86.53 Y61.95 E26.7419
G1 X89.46 Y58.65 E26.8345
G1 X89.46 Y59.25 E26.8472
G1 X86.47 Y62.62 E26.9416
;
; 'Solid', 25.2 [RPM], 25.0 [mm/s]
G1 F30000
G1 X85.71 Y63.48 E26.9416
G1 F1500
G1 X81.17 Y68.61 E27.0854
G1 X80.97 Y68.24 E27.0944
G1 X85.13 Y63.54 E27.226
G1 X84.6 Y63.53 E27.2371
G1 X80.99 Y67.61 E27.3512
G1 X80.99 Y67 E27.3639
G1 X84.17 Y63.41 E27.4646
G1 X83.99 Y63.01 E27.4738
G1 X80.99 Y66.4 E27.5686
G1 X80.99 Y65.8 E27.5813
G1 X83.97 Y62.44 E27.6753
G1 X83.96 Y61.84 E27.6879
G1 X80.99 Y65.2 E27.7819
G1 X80.98 Y64.6 E27.7945
G1 X83.98 Y61.21 E27.8892
G1 X83.77 Y60.84 E27.8981
G1 X80.93 Y64.06 E27.9881
;
; 'Wipe', 0.0 [RPM], 25.0 [mm/s]
G1 F900
G1 E24.9881
G1 F1500
G1 X83.77 Y60.84 E24.9881
G1 X83.98 Y61.21 E24.9881
G1 X80.98 Y64.6 E24.9881
G1 X80.99 Y65.2 E24.9881
G1 X83.96 Y61.84 E24.9881
;
; 'Solid', 25.2 [RPM], 25.0 [mm/s]
G1 F30000
G1 X81.41 Y68.95 E24.9881
G1 F900
G1 E27.8681
G1 F1500
G1 X89.46 Y59.85 E28.1228
G1 X89.46 Y60.46 E28.1355
G1 X81.73 Y69.18 E28.3798
G1 X82.01 Y69.47 E28.3882
G1 X89.46 Y61.06 E28.6236
G1 X89.46 Y61.67 E28.6362
G1 X82.3 Y69.75 E28.8626
G1 X82.58 Y70.03 E28.871
G1 X89.46 Y62.27 E29.0884
G1 X89.46 Y62.87 E29.101
G1 X84.46 Y68.51 E29.2591
G1 X85.05 Y68.45 E29.2715
G1 X89.46 Y63.47 E29.4111
G1 X89.46 Y64.07 E29.4237
G1 X85.57 Y68.46 E29.5466
G1 X86.11 Y68.47 E29.5577
G1 X89.46 Y64.68 E29.6639
G1 X89.46 Y65.28 E29.6766
G1 X86.45 Y68.69 E29.7719
G1 X86.53 Y69.2 E29.7827
G1 X89.46 Y65.89 E29.8753
G1 X89.46 Y66.49 E29.888
G1 X86.54 Y69.79 E29.9803
G1 X86.54 Y70.39 E29.993
G1 X89.46 Y67.09 E30.0854
G1 X89.46 Y67.69 E30.098
G1 X86.53 Y71 E30.1906
G1 X86.54 Y71.6 E30.2032
G1 X89.46 Y68.3 E30.2958
G1 X89.47 Y68.9 E30.3083
G1 X86.54 Y72.2 E30.401
G1 X86.54 Y72.8 E30.4135
G1 X89.46 Y69.5 E30.506
G1 X89.46 Y70.11 E30.5187
G1 X86.54 Y73.41 E30.611
G1 X86.54 Y74.01 E30.6237
G1 X89.46 Y70.71 E30.716
G1 X89.46 Y71.32 E30.7286
G1 X86.54 Y74.61 E30.821
G1 X86.54 Y75.22 E30.8337
G1 X89.46 Y71.92 E30.9262
G1 X89.46 Y72.52 E30.9388
G1 X86.46 Y75.91 E31.0338
;
; 'Wipe', 0.0 [RPM], 25.0 [mm/s]
G1 F900
G1 E28.0338
G1 F1500
G1 X89.46 Y72.52 E28.0338
G1 X89.46 Y71.92 E28.0338
G1 X86.54 Y75.22 E28.0338
G1 X86.54 Y74.61 E28.0338
;
; 'Solid', 25.2 [RPM], 25.0 [mm/s]
G1 F30000
G1 X84.02 Y70.82 E28.0338
G1 F900
G1 E30.9138
G1 F1500
G1 X83.71 Y71.17 E30.9236
G1 X83.43 Y70.88 E30.932
G1 X83.96 Y70.28 E30.9489
G1 X83.96 Y69.68 E30.9615
G1 X83.15 Y70.6 E30.9872
G1 X82.86 Y70.32 E30.9956
G1 X84.05 Y68.98 E31.033
;
; 'Wipe', 0.0 [RPM], 25.0 [mm/s]
G1 F900
G1 E28.033
G1 F1500
G1 X82.86 Y70.32 E28.033
G1 X83.15 Y70.6 E28.033
G1 X83.96 Y69.68 E28.033
G1 X83.96 Y70.28 E28.033
G1 X83.43 Y70.88 E28.033
G1 X83.71 Y71.17 E28.033
G1 X84.02 Y70.82 E28.033
G1 F210
G1 X84.02 Y70.82 Z0.85 E28.033
; END_LAYER_OBJECT z=0.30
; Reset extruder pos
G92 E0
; BEGIN_LAYER_OBJECT z=0.60
; fan on
M106
;
; 'Perimeter', 9.6 [RPM], 9.5 [mm/s]
G1 F30000
G1 X86.36 Y76.12 E0
G1 F210
G1 X86.36 Y76.12 Z0.6 E0
G1 F900
G1 E2.88
G1 F570
G1 X86.17 Y76.08 E2.8841
G1 X85.93 Y76.22 E2.89
G1 X84.93 Y76.23 E2.9109
G1 X84.4 Y76.23 E2.9221
G1 X79.05 Y76.23 E3.0341
G1 X78.92 Y76.17 E3.0371
G1 X78.78 Y75.94 E3.0429
G1 X78.77 Y74.51 E3.0727
G1 X78.83 Y74.38 E3.0757
G1 X78.97 Y74.31 E3.0791
G1 X79.18 Y74.27 E3.0835
G1 X81.32 Y74.27 E3.1283
G1 X81.49 Y74.25 E3.1319
G1 X81.49 Y73.68 E3.1438
G1 X81.43 Y73.54 E3.1469
G1 X78.6 Y70.7 E3.2309
G1 X78.45 Y70.68 E3.2343
G1 X74.53 Y70.68 E3.3163
G1 X73.44 Y70.68 E3.3391
G1 X73.34 Y70.77 E3.342
G1 X70.51 Y73.61 E3.4259
G1 X70.51 Y74.21 E3.4386
G1 X70.63 Y74.27 E3.4415
G1 X72.95 Y74.27 E3.49
G1 X73.08 Y74.33 E3.493
G1 X73.23 Y74.59 E3.4993
G1 X73.23 Y76.01 E3.5291
G1 X73.17 Y76.14 E3.5321
G1 X72.86 Y76.23 E3.5387
G1 X72.46 Y76.23 E3.5472
G1 X71.93 Y76.23 E3.5584
G1 X66.23 Y76.23 E3.6779
G1 X65.92 Y76.17 E3.6844
G1 X65.78 Y75.93 E3.6903
G1 X65.77 Y74.93 E3.7113
G1 X65.77 Y74.4 E3.7224
G1 X65.77 Y73.32 E3.7449
G1 X65.77 Y72.79 E3.756
G1 X65.77 Y71.9 E3.7748
G1 X65.77 Y56.22 E4.1033
G1 X65.83 Y55.92 E4.1098
G1 X66.07 Y55.78 E4.1157
G1 X67.07 Y55.77 E4.1367
G1 X67.6 Y55.77 E4.1478
G1 X70.1 Y55.77 E4.2002
G1 X70.81 Y55.77 E4.215
G1 X71.7 Y55.77 E4.2338
G1 X85.77 Y55.77 E4.5287
G1 X86.08 Y55.83 E4.5352
G1 X86.22 Y56.07 E4.5411
G1 X86.23 Y56.89 E4.5583
G1 X86.22 Y57.6 E4.5731
G1 X86.23 Y62.95 E4.6852
G1 X86.17 Y63.08 E4.6881
G1 X85.94 Y63.22 E4.6939
G1 X84.51 Y63.23 E4.7238
G1 X84.38 Y63.17 E4.7267
G1 X84.31 Y63.03 E4.7301
G1 X84.27 Y62.82 E4.7346
G1 X84.27 Y60.69 E4.7793
G1 X84.25 Y60.51 E4.783
G1 X83.68 Y60.51 E4.795
G1 X83.54 Y60.57 E4.7981
G1 X80.7 Y63.4 E4.8821
G1 X80.68 Y63.55 E4.8854
G1 X80.68 Y67.47 E4.9675
G1 X80.68 Y68.56 E4.9903
G1 X80.77 Y68.66 E4.9931
G1 X83.51 Y71.4 E5.0743
G1 X83.61 Y71.49 E5.0771
G1 X84.21 Y71.49 E5.0897
G1 X84.27 Y71.37 E5.0925
G1 X84.27 Y69.05 E5.1411
G1 X84.33 Y68.92 E5.144
G1 X84.59 Y68.77 E5.1503
G1 X86.01 Y68.77 E5.1802
G1 X86.14 Y68.83 E5.1831
G1 X86.23 Y69.14 E5.1898
G1 X86.23 Y69.54 E5.1983
G1 X86.23 Y70.07 E5.2094
G1 X86.23 Y75.77 E5.3289
G1 X86.17 Y76.08 E5.3355
G1 X86.24 Y76.27 E5.3396
;
; 'Perimeter', 9.6 [RPM], 9.5 [mm/s]
G1 F30000
G1 X89.64 Y79.52 E5.3396
G1 F570
G1 X89.74 Y79.77 E5.3453
G1 X83.03 Y79.77 E5.4858
G1 X82.5 Y79.77 E5.4969
G1 X81.61 Y79.77 E5.5156
G1 X80.9 Y79.77 E5.5305
G1 X80.01 Y79.77 E5.5492
G1 X79.3 Y79.77 E5.5641
G1 X78.4 Y79.77 E5.5828
G1 X62.73 Y79.77 E5.9114
G1 X62.23 Y79.74 E5.9219
G1 X62.23 Y73.03 E6.0624
G1 X62.23 Y72.5 E6.0735
G1 X62.23 Y71.61 E6.0923
G1 X62.23 Y70.9 E6.1071
G1 X62.23 Y70.01 E6.1259
G1 X62.23 Y69.3 E6.1407
G1 X62.23 Y68.4 E6.1595
G1 X62.23 Y52.73 E6.488
G1 X62.26 Y52.23 E6.4986
G1 X68.97 Y52.23 E6.639
G1 X69.5 Y52.23 E6.6502
G1 X70.39 Y52.23 E6.6689
G1 X71.1 Y52.23 E6.6838
G1 X71.99 Y52.23 E6.7025
G1 X72.7 Y52.23 E6.7174
G1 X73.6 Y52.23 E6.7361
G1 X89.27 Y52.23 E7.0646
G1 X89.77 Y52.26 E7.0752
G1 X89.77 Y58.96 E7.2156
G1 X89.77 Y59.49 E7.2267
G1 X89.77 Y60.39 E7.2454
G1 X89.77 Y61.1 E7.2603
G1 X89.77 Y61.99 E7.279
G1 X89.77 Y62.7 E7.2939
G1 X89.77 Y63.6 E7.3126
G1 X89.77 Y79.27 E7.6412
G1 X89.74 Y79.77 E7.6517
G1 X89.51 Y79.62 E7.6575
;
; 'Stacked Sparse Infill', 39.6 [RPM], 52.5 [mm/s]
G1 F30000
G1 X89.25 Y78.8 E7.6575
G1 F3150
G1 X89.21 Y78.77 E7.6582
G1 X88.46 Y78.11 E7.6739
G1 X88.37 Y77.97 E7.6765
G1 X88.33 Y77.78 E7.6796
G1 X88.26 Y76.54 E7.6992
G1 X88.22 Y76.34 E7.7023
G1 X88.12 Y76.2 E7.7049
G1 X87.46 Y75.62 E7.7187
G1 X87.32 Y75.54 E7.7213
G1 X87.12 Y75.53 E7.7245
G1 X86.78 Y75.55 E7.7299
G1 X89.04 Y75.41 E7.7655
G1 X89.01 Y75.39 E7.7662
G1 X88.26 Y74.72 E7.782
G1 X88.17 Y74.59 E7.7845
G1 X88.13 Y74.39 E7.7877
G1 X88.05 Y73.15 E7.8073
G1 X88.01 Y72.95 E7.8104
G1 X87.92 Y72.82 E7.813
G1 X87.26 Y72.23 E7.8268
G1 X87.11 Y72.16 E7.8294
G1 X86.91 Y72.14 E7.8326
G1 X88.69 Y72.03 E7.8606
G1 X89.4 Y71.99 E7.8717
G1 X89.06 Y72.01 E7.8771
G1 X88.86 Y71.99 E7.8802
G1 X88.71 Y71.92 E7.8828
G1 X88.05 Y71.33 E7.8967
G1 X87.96 Y71.2 E7.8993
G1 X87.92 Y71 E7.9024
G1 X87.85 Y69.76 E7.922
G1 X87.81 Y69.56 E7.9251
G1 X87.71 Y69.43 E7.9277
G1 X87.05 Y68.84 E7.9415
G1 X86.91 Y68.77 E7.9441
G1 X86.71 Y68.75 E7.9473
G1 X86.36 Y68.77 E7.9527
G1 X86.15 Y68.58 E7.9572
G1 X85.71 Y68.41 E7.9646
G1 X85.4 Y68.48 E7.9696
G1 X84.77 Y68.42 E7.9796
G1 X84.46 Y68.15 E7.986
G1 X84.37 Y68.02 E7.9886
G1 X84.33 Y67.82 E7.9917
G1 X84.25 Y66.58 E8.0113
G1 X84.21 Y66.38 E8.0144
G1 X84.12 Y66.25 E8.017
G1 X83.46 Y65.66 E8.0309
G1 X83.31 Y65.59 E8.0335
G1 X83.11 Y65.57 E8.0366
G1 X81.87 Y65.64 E8.0562
G1 X81.67 Y65.63 E8.0593
G1 X81.53 Y65.55 E8.0619
G1 X81.04 Y65.13 E8.072
G1 X81.17 Y65.5 E8.0783
G1 X81.19 Y65.88 E8.0843
G1 X81.02 Y66.34 E8.0919
G1 X80.93 Y66.67 E8.0972
G1 X80.88 Y67.05 E8.1033
G1 X80.94 Y68.02 E8.1186
G1 X80.98 Y68.22 E8.1218
G1 X81.07 Y68.36 E8.1244
G1 X81.73 Y68.94 E8.1382
G1 X81.88 Y69.02 E8.1408
G1 X82.08 Y69.03 E8.1439
G1 X83.32 Y68.96 E8.1635
G1 X83.52 Y68.97 E8.1667
G1 X83.67 Y69.05 E8.1692
G1 X83.85 Y69.21 E8.1731
;
; 'Wipe', 0.0 [RPM], 37.5 [mm/s]
G1 F900
G1 E5.1731
G1 F2250
G1 X83.67 Y69.05 E5.1731
G1 X83.52 Y68.97 E5.1731
G1 X83.32 Y68.96 E5.1731
G1 X82.08 Y69.03 E5.1731
G1 X81.88 Y69.02 E5.1731
G1 X81.73 Y68.94 E5.1731
G1 X81.07 Y68.36 E5.1731
G1 X80.98 Y68.22 E5.1731
G1 X80.94 Y68.02 E5.1731
G1 X80.88 Y67.05 E5.1731
G1 X80.93 Y66.67 E5.1731
G1 X81.02 Y66.34 E5.1731
G1 X81.19 Y65.88 E5.1731
G1 X81.17 Y65.5 E5.1731
G1 X81.04 Y65.13 E5.1731
G1 X81.53 Y65.55 E5.1731
G1 X81.67 Y65.63 E5.1731
G1 X81.87 Y65.64 E5.1731
G1 X83.11 Y65.57 E5.1731
G1 X83.31 Y65.59 E5.1731
G1 X83.46 Y65.66 E5.1731
G1 X84.12 Y66.25 E5.1731
G1 X84.21 Y66.38 E5.1731
;
; 'Stacked Sparse Infill', 39.6 [RPM], 52.5 [mm/s]
G1 F30000
G1 X79.8 Y72.57 E5.1731
G1 F900
G1 E8.0531
G1 F3150
G1 X78.89 Y72.63 E8.0674
G1 X78.7 Y72.61 E8.0705
G1 X78.55 Y72.53 E8.0731
G1 X77.89 Y71.95 E8.087
G1 X77.8 Y71.81 E8.0896
G1 X77.76 Y71.62 E8.0927
G1 X77.74 Y71.27 E8.0981
G1 X76.98 Y71.19 E8.1101
G1 X76.6 Y71.22 E8.1161
G1 X76.22 Y71.16 E8.1221
G1 X75.84 Y71.18 E8.1281
G1 X75.46 Y71.05 E8.1344
G1 X74.7 Y71.02 E8.1464
G1 X74.31 Y70.91 E8.1526
G1 X74.37 Y71.82 E8.1669
G1 X74.41 Y72.02 E8.1701
G1 X74.5 Y72.15 E8.1727
G1 X75.16 Y72.74 E8.1865
G1 X75.31 Y72.81 E8.1891
G1 X75.51 Y72.83 E8.1923
G1 X76.75 Y72.76 E8.2118
G1 X76.95 Y72.77 E8.215
G1 X77.09 Y72.85 E8.2176
G1 X77.75 Y73.43 E8.2314
G1 X77.85 Y73.57 E8.234
G1 X77.89 Y73.76 E8.2371
G1 X77.96 Y75.01 E8.2567
G1 X78 Y75.2 E8.2598
G1 X78.1 Y75.34 E8.2624
G1 X78.43 Y75.63 E8.2695
G1 X77.39 Y79.52 E8.3327
G1 X76.71 Y79.56 E8.3434
G1 X76.38 Y79.53 E8.3486
G1 X76.06 Y79.45 E8.3538
G1 X75.71 Y79.23 E8.3602
G1 X75.39 Y79.36 E8.3656
G1 X74.91 Y78.93 E8.3757
G1 X74.82 Y78.79 E8.3783
G1 X74.78 Y78.6 E8.3814
G1 X74.7 Y77.36 E8.401
G1 X74.66 Y77.16 E8.4041
G1 X74.57 Y77.02 E8.4067
G1 X73.91 Y76.44 E8.4206
G1 X73.77 Y76.36 E8.4231
G1 X73.57 Y76.35 E8.4263
G1 X73.15 Y76.37 E8.4328
G1 X72.84 Y76.46 E8.438
G1 X72.5 Y76.49 E8.4433
G1 X72.17 Y76.43 E8.4485
G1 X72.09 Y76.43 E8.4497
G1 X72.01 Y79.56 E8.4989
G1 X71.52 Y79.14 E8.509
G1 X71.43 Y79 E8.5116
G1 X71.39 Y78.8 E8.5148
G1 X71.32 Y77.56 E8.5343
G1 X71.28 Y77.37 E8.5375
G1 X71.18 Y77.23 E8.5401
G1 X70.52 Y76.65 E8.5539
G1 X70.38 Y76.57 E8.5565
G1 X70.18 Y76.55 E8.5596
G1 X68.77 Y76.64 E8.5819
G1 X68.71 Y76.64 E8.5828
G1 X68.32 Y79.5 E8.6282
G1 X68.14 Y79.34 E8.632
G1 X68.04 Y79.2 E8.6346
G1 X68 Y79.01 E8.6378
G1 X67.93 Y77.77 E8.6573
G1 X67.89 Y77.57 E8.6605
G1 X67.79 Y77.43 E8.6631
G1 X67.14 Y76.85 E8.6769
G1 X66.99 Y76.77 E8.6795
G1 X66.79 Y76.76 E8.6826
G1 X65.55 Y76.83 E8.7022
G1 X65.35 Y76.82 E8.7053
G1 X65.2 Y76.74 E8.7079
G1 X64.54 Y76.16 E8.7218
G1 X64.45 Y76.02 E8.7244
G1 X64.41 Y75.83 E8.7275
G1 X64.33 Y74.58 E8.7471
G1 X64.29 Y74.39 E8.7502
G1 X64.2 Y74.25 E8.7528
G1 X63.54 Y73.67 E8.7666
G1 X63.4 Y73.59 E8.7692
G1 X63.2 Y73.58 E8.7724
G1 X64.37 Y73.5 E8.7908
G1 X65.12 Y73.46 E8.8027
G1 X65.09 Y73.43 E8.8034
G1 X64.34 Y72.77 E8.8191
G1 X64.25 Y72.63 E8.8217
G1 X64.21 Y72.44 E8.8248
G1 X64.13 Y71.2 E8.8444
G1 X64.09 Y71 E8.8475
G1 X64 Y70.86 E8.8501
G1 X63.34 Y70.28 E8.864
G1 X63.19 Y70.2 E8.8666
G1 X62.99 Y70.19 E8.8697
G1 X62.65 Y70.21 E8.8751
G1 X65.48 Y70.04 E8.9198
G1 X65.14 Y70.06 E8.9252
G1 X64.94 Y70.04 E8.9283
G1 X64.79 Y69.97 E8.9309
G1 X64.13 Y69.38 E8.9448
G1 X64.04 Y69.25 E8.9474
G1 X64 Y69.05 E8.9505
G1 X63.92 Y67.81 E8.9701
G1 X63.88 Y67.61 E8.9732
G1 X63.79 Y67.48 E8.9758
G1 X63.13 Y66.89 E8.9896
G1 X62.99 Y66.82 E8.9922
G1 X62.79 Y66.8 E8.9954
G1 X62.44 Y66.82 E9.0008
G1 X65.28 Y66.65 E9.0454
G1 X64.93 Y66.67 E9.0508
G1 X64.73 Y66.65 E9.054
G1 X64.59 Y66.58 E9.0566
G1 X63.93 Y65.99 E9.0704
G1 X63.84 Y65.86 E9.073
G1 X63.8 Y65.66 E9.0761
G1 X63.72 Y64.42 E9.0957
G1 X63.68 Y64.22 E9.0989
G1 X63.59 Y64.09 E9.1014
G1 X62.84 Y63.42 E9.1172
G1 X62.8 Y63.4 E9.1179
G1 X65.07 Y63.26 E9.1536
G1 X64.73 Y63.28 E9.159
G1 X64.53 Y63.27 E9.1622
G1 X64.38 Y63.19 E9.1648
G1 X63.72 Y62.61 E9.1786
G1 X63.63 Y62.47 E9.1812
G1 X63.59 Y62.27 E9.1843
G1 X63.51 Y61.03 E9.2039
G1 X63.47 Y60.84 E9.207
G1 X63.38 Y60.7 E9.2096
G1 X62.63 Y60.04 E9.2254
G1 X62.6 Y60.01 E9.226
G1 X65.43 Y59.84 E9.2707
G1 X64.52 Y59.89 E9.285
G1 X64.32 Y59.88 E9.2881
G1 X64.18 Y59.8 E9.2907
G1 X63.52 Y59.22 E9.3046
G1 X63.43 Y59.08 E9.3072
G1 X63.39 Y58.89 E9.3103
G1 X63.31 Y57.64 E9.3299
G1 X63.27 Y57.45 E9.333
G1 X63.18 Y57.31 E9.3356
G1 X62.69 Y56.88 E9.3457
G1 X65.23 Y56.45 E9.3861
G1 X64.32 Y56.51 E9.4004
G1 X64.12 Y56.49 E9.4036
G1 X63.97 Y56.41 E9.4062
G1 X63.31 Y55.83 E9.42
G1 X63.22 Y55.69 E9.4226
G1 X63.18 Y55.5 E9.4257
G1 X63.1 Y54.26 E9.4453
G1 X63.06 Y54.06 E9.4484
G1 X62.97 Y53.92 E9.451
G1 X62.49 Y53.5 E9.4612
G1 X63.29 Y52.6 E9.48
G1 X63.77 Y53.03 E9.4901
G1 X63.91 Y53.1 E9.4927
G1 X64.11 Y53.12 E9.4959
G1 X65.36 Y53.04 E9.5154
G1 X65.55 Y53.06 E9.5186
G1 X65.7 Y53.14 E9.5212
G1 X66.36 Y53.72 E9.535
G1 X66.45 Y53.85 E9.5376
G1 X66.49 Y54.05 E9.5407
G1 X66.58 Y55.46 E9.563
G1 X66.58 Y55.52 E9.5639
G1 X66.97 Y52.66 E9.6093
G1 X67.16 Y52.82 E9.6131
G1 X67.3 Y52.9 E9.6157
G1 X67.5 Y52.91 E9.6189
G1 X68.74 Y52.84 E9.6384
G1 X68.94 Y52.85 E9.6416
G1 X69.09 Y52.93 E9.6442
G1 X69.75 Y53.51 E9.658
G1 X69.84 Y53.65 E9.6606
G1 X69.88 Y53.85 E9.6638
G1 X69.96 Y55.09 E9.6833
G1 X69.98 Y55.27 E9.6861
G1 X70.06 Y55.4 E9.6886
G1 X70.36 Y52.45 E9.7351
G1 X70.54 Y52.62 E9.7389
G1 X70.69 Y52.69 E9.7415
G1 X70.89 Y52.71 E9.7447
G1 X72.13 Y52.63 E9.7642
G1 X72.33 Y52.65 E9.7674
G1 X72.48 Y52.73 E9.77
G1 X73.14 Y53.31 E9.7838
G1 X73.23 Y53.44 E9.7864
G1 X73.27 Y53.64 E9.7895
G1 X73.34 Y54.88 E9.8091
G1 X73.38 Y55.08 E9.8122
G1 X73.48 Y55.21 E9.8148
G1 X73.66 Y55.38 E9.8187
G1 X74.05 Y52.51 E9.8641
G1 X74.11 Y52.51 E9.865
G1 X75.29 Y52.44 E9.8837
G1 X75.64 Y52.5 E9.8892
G1 X75.98 Y52.63 E9.895
G1 X76.52 Y53.1 E9.9063
G1 X76.62 Y53.24 E9.9089
G1 X76.66 Y53.44 E9.912
G1 X76.73 Y54.68 E9.9316
G1 X76.77 Y54.87 E9.9348
G1 X76.87 Y55.01 E9.9373
G1 X77.35 Y55.44 E9.9475
G1 X79.43 Y52.47 E10.0044
G1 X79.91 Y52.9 E10.0145
G1 X80 Y53.03 E10.0171
G1 X80.04 Y53.23 E10.0203
G1 X80.12 Y54.47 E10.0398
G1 X80.16 Y54.67 E10.043
G1 X80.25 Y54.8 E10.0456
G1 X80.91 Y55.39 E10.0594
G1 X81.06 Y55.46 E10.062
G1 X81.26 Y55.48 E10.0651
G1 X82.67 Y55.4 E10.0874
G1 X82.73 Y55.39 E10.0883
G1 X83.12 Y52.53 E10.1337
G1 X83.3 Y52.69 E10.1376
G1 X83.39 Y52.83 E10.1401
G1 X83.43 Y53.03 E10.1433
G1 X83.51 Y54.27 E10.1629
G1 X83.55 Y54.46 E10.166
G1 X83.64 Y54.6 E10.1686
G1 X84.3 Y55.18 E10.1824
G1 X84.45 Y55.26 E10.185
G1 X84.65 Y55.28 E10.1882
G1 X85.89 Y55.2 E10.2077
G1 X86.09 Y55.22 E10.2109
G1 X86.23 Y55.29 E10.2135
G1 X86.89 Y55.88 E10.2273
G1 X86.99 Y56.01 E10.2299
G1 X87.03 Y56.21 E10.233
G1 X87.1 Y57.45 E10.2526
G1 X87.14 Y57.65 E10.2557
G1 X87.23 Y57.78 E10.2583
G1 X87.89 Y58.37 E10.2722
G1 X88.04 Y58.44 E10.2747
G1 X88.24 Y58.46 E10.2779
G1 X89.15 Y58.4 E10.2922
G1 X89.23 Y57.64 E10.3042
G1 X89.19 Y57.27 E10.3101
G1 X89.26 Y56.89 E10.3162
G1 X89.24 Y56.51 E10.3221
G1 X89.39 Y56.12 E10.3286
G1 X89.39 Y55.37 E10.3405
G1 X89.5 Y54.98 E10.3468
G1 X88.03 Y55.07 E10.3699
G1 X87.83 Y55.05 E10.3731
G1 X87.69 Y54.98 E10.3757
G1 X87.03 Y54.39 E10.3895
G1 X86.94 Y54.26 E10.3921
G1 X86.9 Y54.06 E10.3952
G1 X86.81 Y52.65 E10.4175
G1 X86.8 Y52.59 E10.4184
;
; 'Stacked Sparse Infill', 39.6 [RPM], 52.5 [mm/s]
G1 F30000
G1 X86.61 Y58.84 E10.4184
G1 F3150
G1 X87.1 Y59.26 E10.4285
G1 X87.19 Y59.4 E10.4311
G1 X87.23 Y59.6 E10.4343
G1 X87.31 Y60.84 E10.4538
G1 X87.35 Y61.03 E10.457
G1 X87.44 Y61.17 E10.4596
G1 X88.1 Y61.75 E10.4734
G1 X88.24 Y61.83 E10.476
G1 X88.44 Y61.85 E10.4791
G1 X89.01 Y61.81 E10.488
G1 X86.52 Y61.96 E10.5272
G1 X86.55 Y61.99 E10.5279
G1 X87.3 Y62.65 E10.5437
G1 X87.4 Y62.79 E10.5462
G1 X87.44 Y62.98 E10.5494
G1 X87.51 Y64.23 E10.569
G1 X87.55 Y64.42 E10.5721
G1 X87.64 Y64.56 E10.5747
G1 X88.3 Y65.14 E10.5885
G1 X88.45 Y65.22 E10.5911
G1 X88.65 Y65.23 E10.5943
G1 X89.56 Y65.18 E10.6086
G1 X89.43 Y65.56 E10.6149
G1 X89.43 Y65.91 E10.6203
G1 X89.21 Y66.33 E10.6279
G1 X89.29 Y66.71 E10.6339
G1 X89.31 Y67.08 E10.6398
G1 X89.25 Y67.47 E10.6459
G1 X89.28 Y67.84 E10.6518
G1 X89.2 Y68.6 E10.6638
G1 X88.85 Y68.62 E10.6693
G1 X88.65 Y68.61 E10.6724
G1 X88.51 Y68.53 E10.675
G1 X87.85 Y67.95 E10.6888
G1 X87.76 Y67.81 E10.6914
G1 X87.72 Y67.61 E10.6946
G1 X87.64 Y66.37 E10.7141
G1 X87.6 Y66.18 E10.7173
G1 X87.51 Y66.04 E10.7199
G1 X86.85 Y65.46 E10.7337
G1 X86.7 Y65.38 E10.7363
G1 X86.5 Y65.36 E10.7394
G1 X85.26 Y65.44 E10.759
G1 X85.06 Y65.42 E10.7621
G1 X84.91 Y65.35 E10.7647
G1 X84.26 Y64.76 E10.7786
G1 X84.16 Y64.63 E10.7812
G1 X84.12 Y64.43 E10.7843
G1 X84.05 Y63.19 E10.8039
G1 X84.01 Y62.99 E10.807
G1 X83.91 Y62.86 E10.8096
G1 X83.26 Y62.27 E10.8234
G1 X83.11 Y62.2 E10.826
G1 X82.91 Y62.18 E10.8292
G1 X82.57 Y62.2 E10.8346
G1 X83.93 Y61.27 E10.8606
G1 X83.92 Y61.06 E10.864
;
; 'Wipe', 0.0 [RPM], 37.5 [mm/s]
G1 F900
G1 E7.864
G1 F2250
G1 X83.93 Y61.27 E7.864
G1 X82.57 Y62.2 E7.864
G1 X82.91 Y62.18 E7.864
G1 X83.11 Y62.2 E7.864
G1 X83.26 Y62.27 E7.864
G1 X83.91 Y62.86 E7.864
G1 X84.01 Y62.99 E7.864
G1 X84.05 Y63.19 E7.864
G1 X84.12 Y64.43 E7.864
G1 X84.16 Y64.63 E7.864
G1 X84.26 Y64.76 E7.864
G1 X84.91 Y65.35 E7.864
G1 X85.06 Y65.42 E7.864
G1 X85.26 Y65.44 E7.864
G1 X86.5 Y65.36 E7.864
G1 X86.7 Y65.38 E7.864
G1 X86.85 Y65.46 E7.864
G1 X87.51 Y66.04 E7.864
G1 X87.6 Y66.18 E7.864
G1 X87.64 Y66.37 E7.864
G1 X87.67 Y66.94 E7.864
;
; 'Stacked Sparse Infill', 39.6 [RPM], 52.5 [mm/s]
G1 F30000
G1 X84.85 Y76.51 E7.864
G1 F900
G1 E10.744
G1 F3150
G1 X84.86 Y76.57 E10.745
G1 X84.94 Y77.98 E10.7672
G1 X84.98 Y78.18 E10.7703
G1 X85.08 Y78.32 E10.7729
G1 X85.73 Y78.9 E10.7868
G1 X85.88 Y78.98 E10.7894
G1 X86.08 Y78.99 E10.7925
G1 X87.32 Y78.92 E10.8121
G1 X87.52 Y78.93 E10.8152
G1 X87.67 Y79.01 E10.8178
G1 X88.15 Y79.44 E10.8279
G1 X87.78 Y79.33 E10.8341
G1 X87.04 Y79.42 E10.8456
G1 X86.67 Y79.36 E10.8515
G1 X86.31 Y79.41 E10.8573
G1 X85.94 Y79.4 E10.8631
G1 X85.19 Y79.22 E10.8752
G1 X84.82 Y79.23 E10.881
G1 X84.46 Y79.38 E10.8871
G1 X84.28 Y79.21 E10.8909
G1 X84.13 Y79.14 E10.8935
G1 X83.93 Y79.12 E10.8967
G1 X82.69 Y79.2 E10.9162
G1 X82.49 Y79.18 E10.9194
G1 X82.35 Y79.1 E10.922
G1 X81.69 Y78.52 E10.9358
G1 X81.59 Y78.38 E10.9384
G1 X81.55 Y78.19 E10.9415
G1 X81.48 Y76.95 E10.9611
G1 X81.44 Y76.75 E10.9642
G1 X81.35 Y76.61 E10.9668
G1 X81.16 Y76.45 E10.9707
G1 X80.88 Y79.41 E11.0173
G1 X80.81 Y79.35 E11.0186
G1 X80.55 Y79.33 E11.0229
G1 X79.3 Y79.4 E11.0424
G1 X79.11 Y79.39 E11.0456
G1 X78.96 Y79.31 E11.0482
G1 X78.3 Y78.73 E11.062
G1 X78.21 Y78.59 E11.0646
G1 X78.17 Y78.39 E11.0677
G1 X78.09 Y77.15 E11.0873
G1 X78.05 Y76.96 E11.0904
G1 X77.96 Y76.82 E11.093
G1 X77.3 Y76.24 E11.1069
G1 X77.15 Y76.16 E11.1094
G1 X76.95 Y76.14 E11.1126
G1 X75.71 Y76.22 E11.1322
G1 X75.51 Y76.2 E11.1353
G1 X75.37 Y76.13 E11.1379
G1 X74.71 Y75.54 E11.1517
G1 X74.61 Y75.41 E11.1543
G1 X74.57 Y75.21 E11.1575
G1 X74.5 Y73.97 E11.177
G1 X74.46 Y73.77 E11.1802
G1 X74.37 Y73.64 E11.1828
G1 X73.71 Y73.05 E11.1966
G1 X73.56 Y72.98 E11.1992
G1 X73.36 Y72.96 E11.2023
G1 X72.12 Y73.04 E11.2219
G1 X71.94 Y73.04 E11.2247
G1 X71.8 Y72.96 E11.2273
G1 X71.1 Y73.95 E11.2463
G1 X70.79 Y73.68 E11.2527
;
; 'Wipe', 0.0 [RPM], 37.5 [mm/s]
G1 F900
G1 E8.2527
G1 F2250
G1 X71.1 Y73.95 E8.2527
G1 X71.8 Y72.96 E8.2527
G1 X71.85 Y73.01 E8.2527
G1 X72.12 Y73.04 E8.2527
G1 X73.36 Y72.96 E8.2527
G1 X73.56 Y72.98 E8.2527
G1 X73.71 Y73.05 E8.2527
G1 X74.37 Y73.64 E8.2527
G1 X74.46 Y73.77 E8.2527
G1 X74.5 Y73.97 E8.2527
G1 X74.57 Y75.21 E8.2527
G1 X74.61 Y75.41 E8.2527
G1 X74.71 Y75.54 E8.2527
G1 X75.37 Y76.13 E8.2527
G1 X75.51 Y76.2 E8.2527
G1 X75.71 Y76.22 E8.2527
G1 X76.95 Y76.14 E8.2527
G1 X77.15 Y76.16 E8.2527
G1 X77.3 Y76.24 E8.2527
G1 X77.9 Y76.77 E8.2527
;
; 'Stacked Sparse Infill', 39.6 [RPM], 52.5 [mm/s]
G1 F30000
G1 X64.63 Y79.44 E8.2527
G1 F900
G1 E11.1327
G1 F3150
G1 X64.63 Y79.38 E11.1336
G1 X64.54 Y77.97 E11.1559
G1 X64.5 Y77.78 E11.159
G1 X64.41 Y77.64 E11.1616
G1 X63.75 Y77.06 E11.1754
G1 X63.6 Y76.98 E11.178
G1 X63.4 Y76.96 E11.1812
G1 X62.49 Y77.02 E11.1955
;
; 'Wipe', 0.0 [RPM], 37.5 [mm/s]
G1 F900
G1 E8.1955
G1 F2250
G1 X63.4 Y76.96 E8.1955
G1 X63.6 Y76.98 E8.1955
G1 X63.75 Y77.06 E8.1955
G1 X64.41 Y77.64 E8.1955
G1 X64.5 Y77.78 E8.1955
G1 X64.54 Y77.97 E8.1955
G1 X64.63 Y79.38 E8.1955
G1 X64.63 Y79.44 E8.1955
; fan off
M107
G1 F210
G1 X64.63 Y79.44 Z1.15 E8.1955
; END_LAYER_OBJECT z=0.60
; Reset extruder pos
G92 E0
; BEGIN_LAYER_OBJECT z=0.90
; fan on
M106
;
; 'Perimeter', 9.6 [RPM], 9.5 [mm/s]
G1 F30000
G1 X86.36 Y76.12 E0
G1 F210
G1 X86.36 Y76.12 Z0.9 E0
G1 F900
G1 E2.88
G1 F570
G1 X86.17 Y76.08 E2.8841
G1 X85.93 Y76.22 E2.89
G1 X84.93 Y76.23 E2.9109
G1 X84.4 Y76.23 E2.9221
G1 X79.05 Y76.23 E3.0341
G1 X78.92 Y76.17 E3.0371
G1 X78.78 Y75.94 E3.0429
G1 X78.77 Y74.51 E3.0727
G1 X78.83 Y74.38 E3.0757
G1 X78.97 Y74.31 E3.0791
G1 X79.18 Y74.27 E3.0835
G1 X81.32 Y74.27 E3.1283
G1 X81.49 Y74.25 E3.1319
G1 X81.49 Y73.68 E3.1438
G1 X81.43 Y73.54 E3.1469
G1 X78.6 Y70.7 E3.2309
G1 X78.45 Y70.68 E3.2343
G1 X74.53 Y70.68 E3.3163
G1 X73.44 Y70.68 E3.3391
G1 X73.34 Y70.77 E3.342
G1 X70.51 Y73.61 E3.4259
G1 X70.51 Y74.21 E3.4386
G1 X70.63 Y74.27 E3.4415
G1 X72.95 Y74.27 E3.49
G1 X73.08 Y74.33 E3.493
G1 X73.23 Y74.59 E3.4993
G1 X73.23 Y76.01 E3.5291
G1 X73.17 Y76.14 E3.5321
G1 X72.86 Y76.23 E3.5387
G1 X72.46 Y76.23 E3.5472
G1 X71.93 Y76.23 E3.5584
G1 X66.23 Y76.23 E3.6779
G1 X65.92 Y76.17 E3.6844
G1 X65.78 Y75.93 E3.6903
G1 X65.77 Y74.93 E3.7113
G1 X65.77 Y74.4 E3.7224
G1 X65.77 Y73.32 E3.7449
G1 X65.77 Y72.79 E3.756
G1 X65.77 Y71.9 E3.7748
G1 X65.77 Y56.22 E4.1033
G1 X65.83 Y55.92 E4.1098
G1 X66.07 Y55.78 E4.1157
G1 X67.07 Y55.77 E4.1367
G1 X67.6 Y55.77 E4.1478
G1 X70.1 Y55.77 E4.2002
G1 X70.81 Y55.77 E4.215
G1 X71.7 Y55.77 E4.2338
G1 X85.77 Y55.77 E4.5287
G1 X86.08 Y55.83 E4.5352
G1 X86.22 Y56.07 E4.5411
G1 X86.23 Y56.89 E4.5583
G1 X86.22 Y57.6 E4.5731
G1 X86.23 Y62.95 E4.6852
G1 X86.17 Y63.08 E4.6881
G1 X85.94 Y63.22 E4.6939
G1 X84.51 Y63.23 E4.7238
G1 X84.38 Y63.17 E4.7267
G1 X84.31 Y63.03 E4.7301
G1 X84.27 Y62.82 E4.7346
G1 X84.27 Y60.69 E4.7793
G1 X84.25 Y60.51 E4.783
G1 X83.68 Y60.51 E4.795
G1 X83.54 Y60.57 E4.7981
G1 X80.7 Y63.4 E4.8821
G1 X80.68 Y63.55 E4.8854
G1 X80.68 Y67.47 E4.9675
G1 X80.68 Y68.56 E4.9903
G1 X80.77 Y68.66 E4.9931
G1 X83.51 Y71.4 E5.0743
G1 X83.61 Y71.49 E5.0771
G1 X84.21 Y71.49 E5.0897
G1 X84.27 Y71.37 E5.0925
G1 X84.27 Y69.05 E5.1411
G1 X84.33 Y68.92 E5.144
G1 X84.59 Y68.77 E5.1503
G1 X86.01 Y68.77 E5.1802
G1 X86.14 Y68.83 E5.1831
G1 X86.23 Y69.14 E5.1898
G1 X86.23 Y69.54 E5.1983
G1 X86.23 Y70.07 E5.2094
G1 X86.23 Y75.77 E5.3289
G1 X86.17 Y76.08 E5.3355
G1 X86.24 Y76.27 E5.3396
;
; 'Perimeter', 9.6 [RPM], 9.5 [mm/s]
G1 F30000
G1 X89.64 Y79.52 E5.3396
G1 F570
G1 X89.74 Y79.77 E5.3453
G1 X83.03 Y79.77 E5.4858
G1 X82.5 Y79.77 E5.4969
G1 X81.61 Y79.77 E5.5156
G1 X80.9 Y79.77 E5.5305
G1 X80.01 Y79.77 E5.5492
G1 X79.3 Y79.77 E5.5641
G1 X78.4 Y79.77 E5.5828
G1 X62.73 Y79.77 E5.9114
G1 X62.23 Y79.74 E5.9219
G1 X62.23 Y73.03 E6.0624
G1 X62.23 Y72.5 E6.0735
G1 X62.23 Y71.61 E6.0923
G1 X62.23 Y70.9 E6.1071
G1 X62.23 Y70.01 E6.1259
G1 X62.23 Y69.3 E6.1407
G1 X62.23 Y68.4 E6.1595
G1 X62.23 Y52.73 E6.488
G1 X62.26 Y52.23 E6.4986
G1 X68.97 Y52.23 E6.639
G1 X69.5 Y52.23 E6.6502
G1 X70.39 Y52.23 E6.6689
G1 X71.1 Y52.23 E6.6838
G1 X71.99 Y52.23 E6.7025
G1 X72.7 Y52.23 E6.7174
G1 X73.6 Y52.23 E6.7361
G1 X89.27 Y52.23 E7.0646
G1 X89.77 Y52.26 E7.0752
G1 X89.77 Y58.96 E7.2156
G1 X89.77 Y59.49 E7.2267
G1 X89.77 Y60.39 E7.2454
G1 X89.77 Y61.1 E7.2603
G1 X89.77 Y61.99 E7.279
G1 X89.77 Y62.7 E7.2939
G1 X89.77 Y63.6 E7.3126
G1 X89.77 Y79.27 E7.6412
G1 X89.74 Y79.77 E7.6517
G1 X89.51 Y79.62 E7.6575
;
; 'Stacked Sparse Infill', 39.6 [RPM], 52.5 [mm/s]
G1 F30000
G1 X88.71 Y79.4 E7.6575
G1 F3150
G1 X89.22 Y78.83 E7.6695
G1 X89.25 Y78.8 E7.6702
G1 X89.04 Y75.41 E7.7235
G1 X89.01 Y75.44 E7.7242
G1 X88.35 Y76.19 E7.7399
G1 X88.27 Y76.34 E7.7425
G1 X88.26 Y76.54 E7.7457
G1 X88.33 Y77.78 E7.7652
G1 X88.31 Y77.98 E7.7684
G1 X88.24 Y78.12 E7.771
G1 X87.65 Y78.78 E7.7848
G1 X87.52 Y78.88 E7.7874
G1 X87.32 Y78.92 E7.7905
G1 X86.08 Y78.99 E7.8101
G1 X85.88 Y79.03 E7.8132
G1 X85.75 Y79.12 E7.8158
G1 X85.59 Y79.31 E7.8197
G1 X84.86 Y76.51 E7.8651
G1 X84.86 Y76.57 E7.866
G1 X84.94 Y77.98 E7.8882
G1 X84.93 Y78.18 E7.8914
G1 X84.85 Y78.33 E7.894
G1 X84.27 Y78.99 E7.9078
G1 X84.13 Y79.08 E7.9104
G1 X83.93 Y79.12 E7.9135
G1 X82.69 Y79.2 E7.9331
G1 X82.5 Y79.24 E7.9363
G1 X82.36 Y79.33 E7.9388
G1 X82.2 Y79.51 E7.9427
G1 X81.55 Y76.63 E7.9892
G1 X81.48 Y76.77 E7.9917
G1 X81.48 Y76.95 E7.9945
G1 X81.55 Y78.19 E8.014
G1 X81.54 Y78.39 E8.0172
G1 X81.46 Y78.53 E8.0198
G1 X80.88 Y79.19 E8.0336
G1 X80.74 Y79.29 E8.0362
G1 X80.55 Y79.33 E8.0393
G1 X79.08 Y79.42 E8.0625
G1 X78.67 Y79.34 E8.0689
G1 X78.28 Y79.36 E8.0751
G1 X77.89 Y79.48 E8.0815
G1 X77.1 Y79.47 E8.094
G1 X76.71 Y79.56 E8.1003
G1 X77.16 Y79.53 E8.1075
G1 X77.35 Y79.49 E8.1106
G1 X77.49 Y79.4 E8.1132
G1 X78.07 Y78.74 E8.127
G1 X78.15 Y78.59 E8.1296
G1 X78.17 Y78.39 E8.1328
G1 X78.09 Y77.15 E8.1523
G1 X78.11 Y76.95 E8.1555
G1 X78.18 Y76.81 E8.1581
G1 X78.61 Y76.32 E8.1682
;
; 'Wipe', 0.0 [RPM], 37.5 [mm/s]
G1 F900
G1 E5.1682
G1 F2250
G1 X78.18 Y76.81 E5.1682
G1 X78.11 Y76.95 E5.1682
G1 X78.09 Y77.15 E5.1682
G1 X78.17 Y78.39 E5.1682
G1 X78.15 Y78.59 E5.1682
G1 X78.07 Y78.74 E5.1682
G1 X77.49 Y79.4 E5.1682
G1 X77.35 Y79.49 E5.1682
G1 X77.16 Y79.53 E5.1682
G1 X76.71 Y79.56 E5.1682
G1 X77.1 Y79.47 E5.1682
G1 X77.89 Y79.48 E5.1682
G1 X78.28 Y79.36 E5.1682
G1 X78.67 Y79.34 E5.1682
G1 X79.08 Y79.42 E5.1682
G1 X80.55 Y79.33 E5.1682
G1 X80.74 Y79.29 E5.1682
G1 X80.88 Y79.19 E5.1682
G1 X81.46 Y78.53 E5.1682
G1 X81.54 Y78.39 E5.1682
G1 X81.55 Y78.19 E5.1682
G1 X81.53 Y77.85 E5.1682
;
; 'Stacked Sparse Infill', 39.6 [RPM], 52.5 [mm/s]
G1 F30000
G1 X79.8 Y72.57 E5.1682
G1 F900
G1 E8.0482
G1 F3150
G1 X78.89 Y72.63 E8.0625
G1 X78.7 Y72.67 E8.0656
G1 X78.56 Y72.76 E8.0682
G1 X77.98 Y73.42 E8.0821
G1 X77.9 Y73.56 E8.0847
G1 X77.89 Y73.76 E8.0878
G1 X77.96 Y75.01 E8.1074
G1 X77.95 Y75.2 E8.1105
G1 X77.87 Y75.35 E8.1131
G1 X77.29 Y76.01 E8.1269
G1 X77.15 Y76.1 E8.1295
G1 X76.95 Y76.14 E8.1327
G1 X75.71 Y76.22 E8.1522
G1 X75.52 Y76.26 E8.1554
G1 X75.38 Y76.35 E8.158
G1 X74.8 Y77.01 E8.1718
G1 X74.72 Y77.16 E8.1744
G1 X74.7 Y77.36 E8.1775
G1 X74.78 Y78.6 E8.1971
G1 X74.76 Y78.8 E8.2002
G1 X74.69 Y78.94 E8.2028
G1 X74.26 Y79.43 E8.213
G1 X73.86 Y79.33 E8.2194
G1 X73.47 Y79.33 E8.2255
G1 X73.09 Y79.39 E8.2316
G1 X72.31 Y79.35 E8.2439
G1 X71.14 Y79.33 E8.2623
G1 X71.3 Y79.15 E8.2662
G1 X71.37 Y79 E8.2688
G1 X71.39 Y78.8 E8.2719
G1 X71.32 Y77.56 E8.2915
G1 X71.33 Y77.36 E8.2946
G1 X71.41 Y77.22 E8.2972
G1 X72.08 Y76.47 E8.313
G1 X72.17 Y76.43 E8.3145
G1 X72.5 Y76.49 E8.3197
G1 X72.84 Y76.46 E8.3251
G1 X73.15 Y76.37 E8.3303
G1 X73.57 Y76.35 E8.3368
G1 X73.76 Y76.31 E8.3399
G1 X73.9 Y76.21 E8.3425
G1 X74.48 Y75.56 E8.3563
G1 X74.56 Y75.41 E8.3589
G1 X74.57 Y75.21 E8.3621
G1 X74.5 Y73.97 E8.3816
G1 X74.51 Y73.77 E8.3848
G1 X74.59 Y73.62 E8.3874
G1 X75.17 Y72.96 E8.4012
G1 X75.31 Y72.87 E8.4038
G1 X75.51 Y72.83 E8.4069
G1 X76.75 Y72.76 E8.4265
G1 X76.94 Y72.72 E8.4296
G1 X77.08 Y72.62 E8.4322
G1 X77.66 Y71.96 E8.4461
G1 X77.74 Y71.82 E8.4487
G1 X77.76 Y71.62 E8.4518
G1 X77.74 Y71.27 E8.4572
;
; 'Wipe', 0.0 [RPM], 37.5 [mm/s]
G1 F900
G1 E5.4572
G1 F2250
G1 X77.76 Y71.62 E5.4572
G1 X77.74 Y71.82 E5.4572
G1 X77.66 Y71.96 E5.4572
G1 X77.08 Y72.62 E5.4572
G1 X76.94 Y72.72 E5.4572
G1 X76.75 Y72.76 E5.4572
G1 X75.51 Y72.83 E5.4572
G1 X75.31 Y72.87 E5.4572
G1 X75.17 Y72.96 E5.4572
G1 X74.59 Y73.62 E5.4572
G1 X74.51 Y73.77 E5.4572
G1 X74.5 Y73.97 E5.4572
G1 X74.57 Y75.21 E5.4572
G1 X74.56 Y75.41 E5.4572
G1 X74.48 Y75.56 E5.4572
G1 X73.9 Y76.21 E5.4572
G1 X73.76 Y76.31 E5.4572
G1 X73.57 Y76.35 E5.4572
G1 X73.15 Y76.37 E5.4572
G1 X72.84 Y76.46 E5.4572
G1 X72.5 Y76.49 E5.4572
G1 X72.13 Y76.44 E5.4572
G1 X71.99 Y76.56 E5.4572
G1 X71.46 Y77.16 E5.4572
;
; 'Stacked Sparse Infill', 39.6 [RPM], 52.5 [mm/s]
G1 F30000
G1 X80.95 Y68.25 E5.4572
G1 F900
G1 E8.3372
G1 F3150
G1 X80.95 Y68.19 E8.3382
G1 X80.88 Y67.05 E8.3561
G1 X81.08 Y66.29 E8.3685
G1 X81.54 Y65.78 E8.3793
G1 X81.68 Y65.68 E8.3819
G1 X81.87 Y65.64 E8.385
G1 X83.11 Y65.57 E8.4046
G1 X83.31 Y65.53 E8.4078
G1 X83.45 Y65.44 E8.4103
G1 X84.03 Y64.78 E8.4242
G1 X84.11 Y64.63 E8.4268
G1 X84.12 Y64.43 E8.4299
G1 X84.04 Y63.02 E8.4521
G1 X84.04 Y62.96 E8.4531
G1 X82.57 Y62.2 E8.4791
G1 X82.91 Y62.18 E8.4845
G1 X83.11 Y62.14 E8.4877
G1 X83.24 Y62.05 E8.4903
G1 X83.83 Y61.39 E8.5041
G1 X83.9 Y61.28 E8.5062
G1 X83.92 Y61.06 E8.5097
;
; 'Wipe', 0.0 [RPM], 37.5 [mm/s]
G1 F900
G1 E5.5097
G1 F2250
G1 X83.9 Y61.28 E5.5097
G1 X83.83 Y61.39 E5.5097
G1 X83.24 Y62.05 E5.5097
G1 X83.11 Y62.14 E5.5097
G1 X82.91 Y62.18 E5.5097
G1 X82.57 Y62.2 E5.5097
G1 X84.04 Y62.96 E5.5097
G1 X84.04 Y63.02 E5.5097
G1 X84.12 Y64.43 E5.5097
G1 X84.11 Y64.63 E5.5097
G1 X84.03 Y64.78 E5.5097
G1 X83.45 Y65.44 E5.5097
G1 X83.31 Y65.53 E5.5097
G1 X83.11 Y65.57 E5.5097
G1 X81.87 Y65.64 E5.5097
G1 X81.68 Y65.68 E5.5097
G1 X81.54 Y65.78 E5.5097
G1 X81.08 Y66.29 E5.5097
G1 X80.88 Y67.05 E5.5097
G1 X80.9 Y67.35 E5.5097
;
; 'Stacked Sparse Infill', 39.6 [RPM], 52.5 [mm/s]
G1 F30000
G1 X86.52 Y61.96 E5.5097
G1 F900
G1 E8.3897
G1 F3150
G1 X86.55 Y61.93 E8.3904
G1 X87.21 Y61.18 E8.4061
G1 X87.29 Y61.04 E8.4087
G1 X87.31 Y60.84 E8.4119
G1 X87.23 Y59.6 E8.4314
G1 X87.25 Y59.4 E8.4346
G1 X87.32 Y59.25 E8.4372
G1 X87.91 Y58.59 E8.451
G1 X88.04 Y58.5 E8.4536
G1 X88.24 Y58.46 E8.4567
G1 X89.15 Y58.4 E8.4711
G1 X89.29 Y60.66 E8.5066
G1 X89.31 Y61.04 E8.5126
G1 X89.21 Y61.42 E8.5188
G1 X89.35 Y61.79 E8.525
G1 X88.44 Y61.85 E8.5393
G1 X88.25 Y61.89 E8.5425
G1 X88.11 Y61.98 E8.5451
G1 X87.53 Y62.64 E8.5589
G1 X87.45 Y62.79 E8.5615
G1 X87.44 Y62.98 E8.5646
G1 X87.51 Y64.23 E8.5842
G1 X87.49 Y64.43 E8.5874
G1 X87.42 Y64.57 E8.5899
G1 X86.83 Y65.23 E8.6038
G1 X86.7 Y65.32 E8.6064
G1 X86.5 Y65.36 E8.6095
G1 X85.26 Y65.44 E8.6291
G1 X85.06 Y65.48 E8.6322
G1 X84.93 Y65.57 E8.6348
G1 X84.34 Y66.23 E8.6486
G1 X84.27 Y66.38 E8.6512
G1 X84.25 Y66.58 E8.6544
G1 X84.33 Y67.82 E8.6739
G1 X84.31 Y68.02 E8.6771
G1 X84.24 Y68.17 E8.6797
G1 X83.65 Y68.82 E8.6935
G1 X83.52 Y68.92 E8.6961
G1 X83.32 Y68.96 E8.6993
G1 X81.91 Y69.04 E8.7215
G1 X81.85 Y69.05 E8.7224
G1 X84.09 Y68.91 E8.7578
G1 X84.29 Y68.71 E8.7622
G1 X84.84 Y68.51 E8.7713
G1 X85.21 Y68.41 E8.7774
G1 X86.16 Y68.6 E8.7927
G1 X86.36 Y68.77 E8.7969
G1 X86.71 Y68.75 E8.8023
G1 X86.9 Y68.71 E8.8054
G1 X87.04 Y68.62 E8.808
G1 X87.62 Y67.96 E8.8219
G1 X87.7 Y67.81 E8.8245
G1 X87.72 Y67.61 E8.8276
G1 X87.64 Y66.37 E8.8472
G1 X87.66 Y66.17 E8.8503
G1 X87.73 Y66.03 E8.8529
G1 X88.32 Y65.37 E8.8667
G1 X88.45 Y65.27 E8.8693
G1 X88.65 Y65.23 E8.8725
G1 X89.56 Y65.18 E8.8868
G1 X89.43 Y65.56 E8.8931
G1 X89.43 Y65.91 E8.8985
G1 X89.21 Y66.33 E8.9061
G1 X89.29 Y66.71 E8.9121
G1 X89.31 Y67.08 E8.918
G1 X89.25 Y67.47 E8.9241
G1 X89.28 Y67.84 E8.93
G1 X89.2 Y68.6 E8.9421
G1 X88.85 Y68.62 E8.9475
G1 X88.66 Y68.66 E8.9506
G1 X88.52 Y68.76 E8.9532
G1 X87.94 Y69.41 E8.9671
G1 X87.86 Y69.56 E8.9696
G1 X87.85 Y69.76 E8.9728
G1 X87.92 Y71 E8.9924
G1 X87.9 Y71.2 E8.9955
G1 X87.83 Y71.35 E8.9981
G1 X87.24 Y72.01 E9.0119
G1 X87.11 Y72.1 E9.0145
G1 X86.91 Y72.14 E9.0177
G1 X88.69 Y72.03 E9.0457
G1 X89.4 Y71.99 E9.0568
G1 X89.06 Y72.01 E9.0622
G1 X88.86 Y72.05 E9.0653
G1 X88.73 Y72.14 E9.0679
G1 X88.14 Y72.8 E9.0818
G1 X88.07 Y72.95 E9.0843
G1 X88.05 Y73.15 E9.0875
G1 X88.13 Y74.39 E9.1071
G1 X88.11 Y74.59 E9.1102
G1 X88.03 Y74.74 E9.1128
G1 X87.45 Y75.39 E9.1266
G1 X87.31 Y75.49 E9.1292
G1 X87.12 Y75.53 E9.1324
G1 X86.77 Y75.55 E9.1378
;
; 'Wipe', 0.0 [RPM], 37.5 [mm/s]
G1 F900
G1 E6.1378
G1 F2250
G1 X87.12 Y75.53 E6.1378
G1 X87.31 Y75.49 E6.1378
G1 X87.45 Y75.39 E6.1378
G1 X88.03 Y74.74 E6.1378
G1 X88.11 Y74.59 E6.1378
G1 X88.13 Y74.39 E6.1378
G1 X88.05 Y73.15 E6.1378
G1 X88.07 Y72.95 E6.1378
G1 X88.14 Y72.8 E6.1378
G1 X88.73 Y72.14 E6.1378
G1 X88.86 Y72.05 E6.1378
G1 X89.06 Y72.01 E6.1378
G1 X89.4 Y71.99 E6.1378
G1 X87.28 Y72.12 E6.1378
G1 X86.57 Y72.16 E6.1378
G1 X87.11 Y72.1 E6.1378
G1 X87.24 Y72.01 E6.1378
G1 X87.83 Y71.35 E6.1378
G1 X87.9 Y71.2 E6.1378
G1 X87.91 Y70.89 E6.1378
;
; 'Stacked Sparse Infill', 39.6 [RPM], 52.5 [mm/s]
G1 F30000
G1 X74.31 Y70.91 E6.1378
G1 F900
G1 E9.0178
G1 F3150
G1 X74.37 Y71.82 E9.0321
G1 X74.35 Y72.02 E9.0352
G1 X74.28 Y72.17 E9.0378
G1 X73.69 Y72.83 E9.0517
G1 X73.56 Y72.92 E9.0543
G1 X73.36 Y72.96 E9.0574
G1 X72.12 Y73.04 E9.077
G1 X71.92 Y73.08 E9.0801
G1 X71.79 Y73.17 E9.0827
G1 X71.12 Y73.92 E9.0984
G1 X71.1 Y73.95 E9.0991
;
; 'Wipe', 0.0 [RPM], 37.5 [mm/s]
G1 F900
G1 E6.0991
G1 F2250
G1 X71.12 Y73.92 E6.0991
G1 X71.79 Y73.17 E6.0991
G1 X71.92 Y73.08 E6.0991
G1 X72.12 Y73.04 E6.0991
G1 X73.36 Y72.96 E6.0991
G1 X73.56 Y72.92 E6.0991
G1 X73.69 Y72.83 E6.0991
G1 X74.28 Y72.17 E6.0991
G1 X74.35 Y72.02 E6.0991
G1 X74.37 Y71.82 E6.0991
G1 X74.31 Y70.91 E6.0991
;
; 'Stacked Sparse Infill', 39.6 [RPM], 52.5 [mm/s]
G1 F30000
G1 X70.41 Y76.54 E6.0991
G1 F900
G1 E8.9791
G1 F3150
G1 X70.35 Y76.54 E8.98
G1 X68.94 Y76.63 E9.0023
G1 X68.74 Y76.67 E9.0054
G1 X68.6 Y76.76 E9.008
G1 X68.02 Y77.42 E9.0218
G1 X67.94 Y77.57 E9.0244
G1 X67.93 Y77.77 E9.0276
G1 X68 Y79.01 E9.0471
G1 X67.99 Y79.21 E9.0503
G1 X67.91 Y79.35 E9.0529
G1 X67.75 Y79.54 E9.0567
G1 X67.28 Y76.44 E9.1059
G1 X67.12 Y76.62 E9.1097
G1 X66.99 Y76.72 E9.1123
G1 X66.79 Y76.76 E9.1155
G1 X65.55 Y76.83 E9.135
G1 X65.35 Y76.87 E9.1382
G1 X65.22 Y76.97 E9.1408
G1 X64.63 Y77.63 E9.1546
G1 X64.56 Y77.77 E9.1572
G1 X64.54 Y77.97 E9.1603
G1 X64.63 Y79.38 E9.1826
G1 X64.63 Y79.44 E9.1835
G1 X62.49 Y77.02 E9.2343
G1 X63.4 Y76.96 E9.2486
G1 X63.6 Y76.92 E9.2517
G1 X63.73 Y76.83 E9.2543
G1 X64.32 Y76.17 E9.2681
G1 X64.39 Y76.02 E9.2707
G1 X64.41 Y75.83 E9.2739
G1 X64.33 Y74.58 E9.2934
G1 X64.35 Y74.38 E9.2966
G1 X64.43 Y74.24 E9.2992
G1 X65.09 Y73.49 E9.3149
G1 X65.12 Y73.46 E9.3156
G1 X63.23 Y73.57 E9.3454
G1 X62.85 Y73.6 E9.3513
G1 X63.39 Y73.54 E9.3599
G1 X63.53 Y73.44 E9.3625
G1 X64.11 Y72.78 E9.3763
G1 X64.19 Y72.64 E9.3789
G1 X64.21 Y72.44 E9.382
G1 X64.13 Y71.2 E9.4016
G1 X64.15 Y71 E9.4048
G1 X64.22 Y70.85 E9.4073
G1 X64.81 Y70.19 E9.4212
G1 X64.94 Y70.1 E9.4238
G1 X65.14 Y70.06 E9.4269
G1 X65.48 Y70.04 E9.4323
G1 X62.65 Y70.21 E9.477
G1 X62.99 Y70.19 E9.4824
G1 X63.19 Y70.15 E9.4855
G1 X63.32 Y70.05 E9.4881
G1 X63.91 Y69.4 E9.502
G1 X63.98 Y69.25 E9.5046
G1 X64 Y69.05 E9.5077
G1 X63.92 Y67.81 E9.5273
G1 X63.94 Y67.61 E9.5304
G1 X64.02 Y67.46 E9.533
G1 X64.6 Y66.8 E9.5468
G1 X64.74 Y66.71 E9.5494
G1 X64.93 Y66.67 E9.5526
G1 X65.28 Y66.65 E9.558
G1 X62.44 Y66.82 E9.6026
G1 X62.79 Y66.8 E9.6081
G1 X62.98 Y66.76 E9.6112
G1 X63.12 Y66.67 E9.6138
G1 X63.7 Y66.01 E9.6276
G1 X63.78 Y65.86 E9.6302
G1 X63.8 Y65.66 E9.6334
G1 X63.72 Y64.42 E9.6529
G1 X63.74 Y64.22 E9.6561
G1 X63.81 Y64.07 E9.6587
G1 X64.4 Y63.42 E9.6725
G1 X64.53 Y63.32 E9.6751
G1 X64.73 Y63.28 E9.6782
G1 X63.18 Y63.38 E9.7026
G1 X62.8 Y63.4 E9.7085
G1 X62.83 Y63.37 E9.7092
G1 X63.5 Y62.62 E9.725
G1 X63.57 Y62.47 E9.7275
G1 X63.59 Y62.27 E9.7307
G1 X63.51 Y61.03 E9.7503
G1 X63.53 Y60.83 E9.7534
G1 X63.61 Y60.69 E9.756
G1 X64.19 Y60.03 E9.7698
G1 X64.33 Y59.93 E9.7724
G1 X64.52 Y59.89 E9.7756
G1 X65.37 Y59.84 E9.7889
G1 X62.6 Y60.01 E9.8326
G1 X62.63 Y59.98 E9.8333
G1 X63.29 Y59.23 E9.849
G1 X63.37 Y59.09 E9.8516
G1 X63.39 Y58.89 E9.8547
G1 X63.31 Y57.64 E9.8743
G1 X63.33 Y57.44 E9.8774
G1 X63.4 Y57.3 E9.88
G1 X63.99 Y56.64 E9.8939
G1 X64.12 Y56.55 E9.8964
G1 X64.32 Y56.51 E9.8996
G1 X65.23 Y56.45 E9.9139
G1 X62.66 Y56.33 E9.9543
G1 X63.09 Y55.84 E9.9644
G1 X63.16 Y55.7 E9.967
G1 X63.18 Y55.5 E9.9702
G1 X63.1 Y54.26 E9.9897
G1 X63.12 Y54.06 E9.9929
G1 X63.2 Y53.91 E9.9955
G1 X63.78 Y53.25 E10.0093
G1 X63.92 Y53.16 E10.0119
G1 X64.11 Y53.12 E10.015
G1 X65.36 Y53.04 E10.0346
G1 X65.55 Y53 E10.0377
G1 X65.69 Y52.91 E10.0403
G1 X66.11 Y52.43 E10.0504
G1 X65.74 Y52.57 E10.0566
G1 X65.37 Y52.59 E10.0625
G1 X64.98 Y52.5 E10.0688
G1 X64.61 Y52.64 E10.075
G1 X64.24 Y52.66 E10.0809
G1 X63.85 Y52.56 E10.0871
G1 X63.49 Y52.71 E10.0934
G1 X63.11 Y52.73 E10.0993
G1 X62.73 Y52.63 E10.1055
G1 X62.46 Y52.94 E10.1119
;
; 'Wipe', 0.0 [RPM], 37.5 [mm/s]
G1 F900
G1 E7.1119
G1 F2250
G1 X62.73 Y52.63 E7.1119
G1 X63.11 Y52.73 E7.1119
G1 X63.49 Y52.71 E7.1119
G1 X63.85 Y52.56 E7.1119
G1 X64.24 Y52.66 E7.1119
G1 X64.61 Y52.64 E7.1119
G1 X64.98 Y52.5 E7.1119
G1 X65.37 Y52.59 E7.1119
G1 X65.74 Y52.57 E7.1119
G1 X66.11 Y52.43 E7.1119
G1 X65.69 Y52.91 E7.1119
G1 X65.55 Y53 E7.1119
G1 X65.36 Y53.04 E7.1119
G1 X64.11 Y53.12 E7.1119
G1 X63.92 Y53.16 E7.1119
G1 X63.78 Y53.25 E7.1119
G1 X63.2 Y53.91 E7.1119
G1 X63.12 Y54.06 E7.1119
G1 X63.1 Y54.26 E7.1119
G1 X63.18 Y55.5 E7.1119
G1 X63.16 Y55.7 E7.1119
G1 X63.09 Y55.84 E7.1119
G1 X62.66 Y56.32 E7.1119
;
; 'Stacked Sparse Infill', 39.6 [RPM], 52.5 [mm/s]
G1 F30000
G1 X66.58 Y55.52 E7.1119
G1 F900
G1 E9.9919
G1 F3150
G1 X66.58 Y55.46 E9.9929
G1 X66.49 Y54.05 E10.0151
G1 X66.51 Y53.85 E10.0182
G1 X66.59 Y53.71 E10.0208
G1 X67.17 Y53.05 E10.0347
G1 X67.3 Y52.95 E10.0373
G1 X67.5 Y52.91 E10.0404
G1 X68.74 Y52.84 E10.06
G1 X68.94 Y52.8 E10.0631
G1 X69.07 Y52.7 E10.0657
G1 X69.24 Y52.52 E10.0695
G1 X69.97 Y55.32 E10.1149
G1 X69.97 Y55.26 E10.1159
G1 X69.88 Y53.85 E10.1381
G1 X69.9 Y53.65 E10.1413
G1 X69.97 Y53.5 E10.1438
G1 X70.56 Y52.84 E10.1577
G1 X70.69 Y52.75 E10.1603
G1 X70.89 Y52.71 E10.1634
G1 X72.3 Y52.62 E10.1857
G1 X72.36 Y52.62 E10.1866
G1 X73.09 Y55.41 E10.232
G1 X73.25 Y55.23 E10.2358
G1 X73.33 Y55.08 E10.2384
G1 X73.34 Y54.88 E10.2416
G1 X73.27 Y53.64 E10.2611
G1 X73.28 Y53.44 E10.2643
G1 X73.36 Y53.3 E10.2669
G1 X73.94 Y52.64 E10.2807
G1 X74.08 Y52.54 E10.2833
G1 X74.28 Y52.5 E10.2864
G1 X75.67 Y52.44 E10.3084
G1 X75.99 Y52.58 E10.3138
G1 X76.43 Y52.73 E10.3213
G1 X76.81 Y52.73 E10.3271
G1 X77.18 Y52.61 E10.3332
G1 X76.75 Y53.09 E10.3433
G1 X76.67 Y53.24 E10.3459
G1 X76.66 Y53.44 E10.3491
G1 X76.73 Y54.68 E10.3686
G1 X76.72 Y54.88 E10.3718
G1 X76.64 Y55.02 E10.3744
G1 X76.21 Y55.51 E10.3845
G1 X76.58 Y55.36 E10.3907
G1 X76.95 Y55.34 E10.3966
G1 X77.33 Y55.43 E10.4027
G1 X77.7 Y55.29 E10.4088
G1 X78.07 Y55.28 E10.4147
G1 X78.45 Y55.35 E10.4207
G1 X78.81 Y55.22 E10.4268
G1 X79.2 Y55.35 E10.4332
G1 X79.57 Y55.34 E10.439
G1 X80.03 Y54.82 E10.4499
G1 X80.1 Y54.67 E10.4525
G1 X80.12 Y54.47 E10.4556
G1 X80.04 Y53.23 E10.4752
G1 X80.06 Y53.03 E10.4784
G1 X80.14 Y52.89 E10.4809
G1 X80.33 Y52.66 E10.4856
G1 X81.03 Y55.5 E10.5315
G1 X81.09 Y55.49 E10.5324
G1 X82.5 Y55.41 E10.5547
G1 X82.7 Y55.37 E10.5578
G1 X82.83 Y55.27 E10.5604
G1 X83.42 Y54.61 E10.5742
G1 X83.49 Y54.47 E10.5768
G1 X83.51 Y54.27 E10.58
G1 X83.43 Y53.03 E10.5995
G1 X83.45 Y52.83 E10.6027
G1 X83.52 Y52.68 E10.6053
G1 X83.69 Y52.5 E10.6091
G1 X84.37 Y55.34 E10.6551
G1 X84.47 Y55.29 E10.6568
G1 X85.89 Y55.2 E10.6791
G1 X86.08 Y55.16 E10.6823
G1 X86.22 Y55.07 E10.6849
G1 X86.8 Y54.41 E10.6987
G1 X86.88 Y54.26 E10.7013
G1 X86.9 Y54.06 E10.7044
G1 X86.81 Y52.65 E10.7267
G1 X87.08 Y52.82 E10.7317
G1 X89.5 Y54.98 E10.7827
G1 X89.45 Y54.99 E10.7836
G1 X88.03 Y55.07 E10.8059
G1 X87.84 Y55.11 E10.809
G1 X87.7 Y55.2 E10.8116
G1 X87.12 Y55.86 E10.8254
G1 X87.04 Y56.01 E10.828
G1 X87.03 Y56.21 E10.8312
G1 X87.1 Y57.45 E10.8507
G1 X87.08 Y57.65 E10.8539
G1 X87.01 Y57.8 E10.8565
G1 X86.58 Y58.28 E10.8666
;
; 'Wipe', 0.0 [RPM], 37.5 [mm/s]
G1 F900
G1 E7.8666
G1 F2250
G1 X87.01 Y57.8 E7.8666
G1 X87.08 Y57.65 E7.8666
G1 X87.1 Y57.45 E7.8666
G1 X87.03 Y56.21 E7.8666
G1 X87.04 Y56.01 E7.8666
G1 X87.12 Y55.86 E7.8666
G1 X87.7 Y55.2 E7.8666
G1 X87.84 Y55.11 E7.8666
G1 X88.03 Y55.07 E7.8666
G1 X89.45 Y54.99 E7.8666
G1 X89.24 Y54.74 E7.8666
G1 X86.81 Y52.59 E7.8666
G1 X86.81 Y52.65 E7.8666
G1 X86.87 Y53.72 E7.8666
; fan off
M107
G1 F210
G1 X86.87 Y53.72 Z1.45 E7.8666
; END_LAYER_OBJECT z=0.90
; Reset extruder pos
G92 E0
; BEGIN_LAYER_OBJECT z=1.20
; fan on
M106
;
; 'Perimeter', 9.6 [RPM], 9.5 [mm/s]
G1 F30000
G1 X86.36 Y76.12 E0
G1 F210
G1 X86.36 Y76.12 Z1.2 E0
G1 F900
G1 E2.88
G1 F570
G1 X86.17 Y76.08 E2.8841
G1 X85.93 Y76.22 E2.89
G1 X84.93 Y76.23 E2.9109
G1 X84.4 Y76.23 E2.9221
G1 X79.05 Y76.23 E3.0341
G1 X78.92 Y76.17 E3.0371
G1 X78.78 Y75.94 E3.0429
G1 X78.77 Y74.51 E3.0727
G1 X78.83 Y74.38 E3.0757
G1 X78.97 Y74.31 E3.0791
G1 X79.18 Y74.27 E3.0835
G1 X81.32 Y74.27 E3.1283
G1 X81.49 Y74.25 E3.1319
G1 X81.49 Y73.68 E3.1438
G1 X81.43 Y73.54 E3.1469
G1 X78.6 Y70.7 E3.2309
G1 X78.45 Y70.68 E3.2343
G1 X74.53 Y70.68 E3.3163
G1 X73.44 Y70.68 E3.3391
G1 X73.34 Y70.77 E3.342
G1 X70.51 Y73.61 E3.4259
G1 X70.51 Y74.21 E3.4386
G1 X70.63 Y74.27 E3.4415
G1 X72.95 Y74.27 E3.49
G1 X73.08 Y74.33 E3.493
G1 X73.23 Y74.59 E3.4993
G1 X73.23 Y76.01 E3.5291
G1 X73.17 Y76.14 E3.5321
G1 X72.86 Y76.23 E3.5387
G1 X72.46 Y76.23 E3.5472
G1 X71.93 Y76.23 E3.5584
G1 X66.23 Y76.23 E3.6779
G1 X65.92 Y76.17 E3.6844
G1 X65.78 Y75.93 E3.6903
G1 X65.77 Y74.93 E3.7113
G1 X65.77 Y74.4 E3.7224
G1 X65.77 Y73.32 E3.7449
G1 X65.77 Y72.79 E3.756
G1 X65.77 Y71.9 E3.7748
G1 X65.77 Y56.22 E4.1033
G1 X65.83 Y55.92 E4.1098
G1 X66.07 Y55.78 E4.1157
G1 X67.07 Y55.77 E4.1367
G1 X67.6 Y55.77 E4.1478
G1 X70.1 Y55.77 E4.2002
G1 X70.81 Y55.77 E4.215
G1 X71.7 Y55.77 E4.2338
G1 X85.77 Y55.77 E4.5287
G1 X86.08 Y55.83 E4.5352
G1 X86.22 Y56.07 E4.5411
G1 X86.23 Y56.89 E4.5583
G1 X86.22 Y57.6 E4.5731
G1 X86.23 Y62.95 E4.6852
G1 X86.17 Y63.08 E4.6881
G1 X85.94 Y63.22 E4.6939
G1 X84.51 Y63.23 E4.7238
G1 X84.38 Y63.17 E4.7267
G1 X84.31 Y63.03 E4.7301
G1 X84.27 Y62.82 E4.7346
G1 X84.27 Y60.69 E4.7793
G1 X84.25 Y60.51 E4.783
G1 X83.68 Y60.51 E4.795
G1 X83.54 Y60.57 E4.7981
G1 X80.7 Y63.4 E4.8821
G1 X80.68 Y63.55 E4.8854
G1 X80.68 Y67.47 E4.9675
G1 X80.68 Y68.56 E4.9903
G1 X80.77 Y68.66 E4.9931
G1 X83.51 Y71.4 E5.0743
G1 X83.61 Y71.49 E5.0771
G1 X84.21 Y71.49 E5.0897
G1 X84.27 Y71.37 E5.0925
G1 X84.27 Y69.05 E5.1411
G1 X84.33 Y68.92 E5.144
G1 X84.59 Y68.77 E5.1503
G1 X86.01 Y68.77 E5.1802
G1 X86.14 Y68.83 E5.1831
G1 X86.23 Y69.14 E5.1898
G1 X86.23 Y69.54 E5.1983
G1 X86.23 Y70.07 E5.2094
G1 X86.23 Y75.77 E5.3289
G1 X86.17 Y76.08 E5.3355
G1 X86.24 Y76.27 E5.3396
;
; 'Perimeter', 9.6 [RPM], 9.5 [mm/s]
G1 F30000
G1 X89.64 Y79.52 E5.3396
G1 F570
G1 X89.74 Y79.77 E5.3453
G1 X83.03 Y79.77 E5.4858
G1 X82.5 Y79.77 E5.4969
G1 X81.61 Y79.77 E5.5156
G1 X80.9 Y79.77 E5.5305
G1 X80.01 Y79.77 E5.5492
G1 X79.3 Y79.77 E5.5641
G1 X78.4 Y79.77 E5.5828
G1 X62.73 Y79.77 E5.9114
G1 X62.23 Y79.74 E5.9219
G1 X62.23 Y73.03 E6.0624
G1 X62.23 Y72.5 E6.0735
G1 X62.23 Y71.61 E6.0923
G1 X62.23 Y70.9 E6.1071
G1 X62.23 Y70.01 E6.1259
G1 X62.23 Y69.3 E6.1407
G1 X62.23 Y68.4 E6.1595
G1 X62.23 Y52.73 E6.488
G1 X62.26 Y52.23 E6.4986
G1 X68.97 Y52.23 E6.639
G1 X69.5 Y52.23 E6.6502
G1 X70.39 Y52.23 E6.6689
G1 X71.1 Y52.23 E6.6838
G1 X71.99 Y52.23 E6.7025
G1 X72.7 Y52.23 E6.7174
G1 X73.6 Y52.23 E6.7361
G1 X89.27 Y52.23 E7.0646
G1 X89.77 Y52.26 E7.0752
G1 X89.77 Y58.96 E7.2156
G1 X89.77 Y59.49 E7.2267
G1 X89.77 Y60.39 E7.2454
G1 X89.77 Y61.1 E7.2603
G1 X89.77 Y61.99 E7.279
G1 X89.77 Y62.7 E7.2939
G1 X89.77 Y63.6 E7.3126
G1 X89.77 Y79.27 E7.6412
G1 X89.74 Y79.77 E7.6517
G1 X89.51 Y79.62 E7.6575
;
; 'Stacked Sparse Infill', 39.6 [RPM], 52.5 [mm/s]
G1 F30000
G1 X89.25 Y78.8 E7.6575
G1 F3150
G1 X89.21 Y78.77 E7.6582
G1 X88.46 Y78.11 E7.6739
G1 X88.37 Y77.97 E7.6765
G1 X88.33 Y77.78 E7.6796
G1 X88.26 Y76.54 E7.6992
G1 X88.22 Y76.34 E7.7023
G1 X88.12 Y76.2 E7.7049
G1 X87.46 Y75.62 E7.7187
G1 X87.32 Y75.54 E7.7213
G1 X87.12 Y75.53 E7.7245
G1 X86.78 Y75.55 E7.7299
G1 X89.04 Y75.41 E7.7655
G1 X89.01 Y75.39 E7.7662
G1 X88.26 Y74.72 E7.782
G1 X88.17 Y74.59 E7.7845
G1 X88.13 Y74.39 E7.7877
G1 X88.05 Y73.15 E7.8073
G1 X88.01 Y72.95 E7.8104
G1 X87.92 Y72.82 E7.813
G1 X87.26 Y72.23 E7.8268
G1 X87.11 Y72.16 E7.8294
G1 X86.91 Y72.14 E7.8326
G1 X88.69 Y72.03 E7.8606
G1 X89.4 Y71.99 E7.8717
G1 X89.06 Y72.01 E7.8771
G1 X88.86 Y71.99 E7.8802
G1 X88.71 Y71.92 E7.8828
G1 X88.05 Y71.33 E7.8967
G1 X87.96 Y71.2 E7.8993
G1 X87.92 Y71 E7.9024
G1 X87.85 Y69.76 E7.922
G1 X87.81 Y69.56 E7.9251
G1 X87.71 Y69.43 E7.9277
G1 X87.05 Y68.84 E7.9415
G1 X86.91 Y68.77 E7.9441
G1 X86.71 Y68.75 E7.9473
G1 X86.36 Y68.77 E7.9527
G1 X86.15 Y68.58 E7.9572
G1 X85.71 Y68.41 E7.9646
G1 X85.4 Y68.48 E7.9696
G1 X84.77 Y68.42 E7.9796
G1 X84.46 Y68.15 E7.986
G1 X84.37 Y68.02 E7.9886
G1 X84.33 Y67.82 E7.9917
G1 X84.25 Y66.58 E8.0113
G1 X84.21 Y66.38 E8.0144
G1 X84.12 Y66.25 E8.017
G1 X83.46 Y65.66 E8.0309
G1 X83.31 Y65.59 E8.0335
G1 X83.11 Y65.57 E8.0366
G1 X81.87 Y65.64 E8.0562
G1 X81.67 Y65.63 E8.0593
G1 X81.53 Y65.55 E8.0619
G1 X81.04 Y65.13 E8.072
G1 X81.17 Y65.5 E8.0783
G1 X81.19 Y65.88 E8.0843
G1 X81.02 Y66.34 E8.0919
G1 X80.93 Y66.67 E8.0972
G1 X80.88 Y67.05 E8.1033
G1 X80.94 Y68.02 E8.1186
G1 X80.98 Y68.22 E8.1218
G1 X81.07 Y68.36 E8.1244
G1 X81.73 Y68.94 E8.1382
G1 X81.88 Y69.02 E8.1408
G1 X82.08 Y69.03 E8.1439
G1 X83.32 Y68.96 E8.1635
G1 X83.52 Y68.97 E8.1667
G1 X83.67 Y69.05 E8.1692
G1 X83.85 Y69.21 E8.1731
;
; 'Wipe', 0.0 [RPM], 37.5 [mm/s]
G1 F900
G1 E5.1731
G1 F2250
G1 X83.67 Y69.05 E5.1731
G1 X83.52 Y68.97 E5.1731
G1 X83.32 Y68.96 E5.1731
G1 X82.08 Y69.03 E5.1731
G1 X81.88 Y69.02 E5.1731
G1 X81.73 Y68.94 E5.1731
G1 X81.07 Y68.36 E5.1731
G1 X80.98 Y68.22 E5.1731
G1 X80.94 Y68.02 E5.1731
G1 X80.88 Y67.05 E5.1731
G1 X80.93 Y66.67 E5.1731
G1 X81.02 Y66.34 E5.1731
G1 X81.19 Y65.88 E5.1731
G1 X81.17 Y65.5 E5.1731
G1 X81.04 Y65.13 E5.1731
G1 X81.53 Y65.55 E5.1731
G1 X81.67 Y65.63 E5.1731
G1 X81.87 Y65.64 E5.1731
G1 X83.11 Y65.57 E5.1731
G1 X83.31 Y65.59 E5.1731
G1 X83.46 Y65.66 E5.1731
G1 X84.12 Y66.25 E5.1731
G1 X84.21 Y66.38 E5.1731
;
; 'Stacked Sparse Infill', 39.6 [RPM], 52.5 [mm/s]
G1 F30000
G1 X79.8 Y72.57 E5.1731
G1 F900
G1 E8.0531
G1 F3150
G1 X78.89 Y72.63 E8.0674
G1 X78.7 Y72.61 E8.0705
G1 X78.55 Y72.53 E8.0731
G1 X77.89 Y71.95 E8.087
G1 X77.8 Y71.81 E8.0896
G1 X77.76 Y71.62 E8.0927
G1 X77.74 Y71.27 E8.0981
G1 X76.98 Y71.19 E8.1101
G1 X76.6 Y71.22 E8.1161
G1 X76.22 Y71.16 E8.1221
G1 X75.84 Y71.18 E8.1281
G1 X75.46 Y71.05 E8.1344
G1 X74.7 Y71.02 E8.1464
G1 X74.31 Y70.91 E8.1526
G1 X74.37 Y71.82 E8.1669
G1 X74.41 Y72.02 E8.1701
G1 X74.5 Y72.15 E8.1727
G1 X75.16 Y72.74 E8.1865
G1 X75.31 Y72.81 E8.1891
G1 X75.51 Y72.83 E8.1923
G1 X76.75 Y72.76 E8.2118
G1 X76.95 Y72.77 E8.215
G1 X77.09 Y72.85 E8.2176
G1 X77.75 Y73.43 E8.2314
G1 X77.85 Y73.57 E8.234
G1 X77.89 Y73.76 E8.2371
G1 X77.96 Y75.01 E8.2567
G1 X78 Y75.2 E8.2598
G1 X78.1 Y75.34 E8.2624
G1 X78.43 Y75.63 E8.2695
G1 X77.39 Y79.52 E8.3327
G1 X76.71 Y79.56 E8.3434
G1 X76.38 Y79.53 E8.3486
G1 X76.06 Y79.45 E8.3538
G1 X75.71 Y79.23 E8.3602
G1 X75.39 Y79.36 E8.3656
G1 X74.91 Y78.93 E8.3757
G1 X74.82 Y78.79 E8.3783
G1 X74.78 Y78.6 E8.3814
G1 X74.7 Y77.36 E8.401
G1 X74.66 Y77.16 E8.4041
G1 X74.57 Y77.02 E8.4067
G1 X73.91 Y76.44 E8.4206
G1 X73.77 Y76.36 E8.4231
G1 X73.57 Y76.35 E8.4263
G1 X73.15 Y76.37 E8.4328
G1 X72.84 Y76.46 E8.438
G1 X72.5 Y76.49 E8.4433
G1 X72.17 Y76.43 E8.4485
G1 X72.09 Y76.43 E8.4497
G1 X72.01 Y79.56 E8.4989
G1 X71.52 Y79.14 E8.509
G1 X71.43 Y79 E8.5116
G1 X71.39 Y78.8 E8.5148
G1 X71.32 Y77.56 E8.5343
G1 X71.28 Y77.37 E8.5375
G1 X71.18 Y77.23 E8.5401
G1 X70.52 Y76.65 E8.5539
G1 X70.38 Y76.57 E8.5565
G1 X70.18 Y76.55 E8.5596
G1 X68.77 Y76.64 E8.5819
G1 X68.71 Y76.64 E8.5828
G1 X68.32 Y79.5 E8.6282
G1 X68.14 Y79.34 E8.632
G1 X68.04 Y79.2 E8.6346
G1 X68 Y79.01 E8.6378
G1 X67.93 Y77.77 E8.6573
G1 X67.89 Y77.57 E8.6605
G1 X67.79 Y77.43 E8.6631
G1 X67.14 Y76.85 E8.6769
G1 X66.99 Y76.77 E8.6795
G1 X66.79 Y76.76 E8.6826
G1 X65.55 Y76.83 E8.7022
G1 X65.35 Y76.82 E8.7053
G1 X65.2 Y76.74 E8.7079
G1 X64.54 Y76.16 E8.7218
G1 X64.45 Y76.02 E8.7244
G1 X64.41 Y75.83 E8.7275
G1 X64.33 Y74.58 E8.7471
G1 X64.29 Y74.39 E8.7502
G1 X64.2 Y74.25 E8.7528
G1 X63.54 Y73.67 E8.7666
G1 X63.4 Y73.59 E8.7692
G1 X63.2 Y73.58 E8.7724
G1 X64.37 Y73.5 E8.7908
G1 X65.12 Y73.46 E8.8027
G1 X65.09 Y73.43 E8.8034
G1 X64.34 Y72.77 E8.8191
G1 X64.25 Y72.63 E8.8217
G1 X64.21 Y72.44 E8.8248
G1 X64.13 Y71.2 E8.8444
G1 X64.09 Y71 E8.8475
G1 X64 Y70.86 E8.8501
G1 X63.34 Y70.28 E8.864
G1 X63.19 Y70.2 E8.8666
G1 X62.99 Y70.19 E8.8697
G1 X62.65 Y70.21 E8.8751
G1 X65.48 Y70.04 E8.9198
G1 X65.14 Y70.06 E8.9252
G1 X64.94 Y70.04 E8.9283
G1 X64.79 Y69.97 E8.9309
G1 X64.13 Y69.38 E8.9448
G1 X64.04 Y69.25 E8.9474
G1 X64 Y69.05 E8.9505
G1 X63.92 Y67.81 E8.9701
G1 X63.88 Y67.61 E8.9732
G1 X63.79 Y67.48 E8.9758
G1 X63.13 Y66.89 E8.9896
G1 X62.99 Y66.82 E8.9922
G1 X62.79 Y66.8 E8.9954
G1 X62.44 Y66.82 E9.0008
G1 X65.28 Y66.65 E9.0454
G1 X64.93 Y66.67 E9.0508
G1 X64.73 Y66.65 E9.054
G1 X64.59 Y66.58 E9.0566
G1 X63.93 Y65.99 E9.0704
G1 X63.84 Y65.86 E9.073
G1 X63.8 Y65.66 E9.0761
G1 X63.72 Y64.42 E9.0957
G1 X63.68 Y64.22 E9.0989
G1 X63.59 Y64.09 E9.1014
G1 X62.84 Y63.42 E9.1172
G1 X62.8 Y63.4 E9.1179
G1 X65.07 Y63.26 E9.1536
G1 X64.73 Y63.28 E9.159
G1 X64.53 Y63.27 E9.1622
G1 X64.38 Y63.19 E9.1648
G1 X63.72 Y62.61 E9.1786
G1 X63.63 Y62.47 E9.1812
G1 X63.59 Y62.27 E9.1843
G1 X63.51 Y61.03 E9.2039
G1 X63.47 Y60.84 E9.207
G1 X63.38 Y60.7 E9.2096
G1 X62.63 Y60.04 E9.2254
G1 X62.6 Y60.01 E9.226
G1 X65.43 Y59.84 E9.2707
G1 X64.52 Y59.89 E9.285
G1 X64.32 Y59.88 E9.2881
G1 X64.18 Y59.8 E9.2907
G1 X63.52 Y59.22 E9.3046
G1 X63.43 Y59.08 E9.3072
G1 X63.39 Y58.89 E9.3103
G1 X63.31 Y57.64 E9.3299
G1 X63.27 Y57.45 E9.333
G1 X63.18 Y57.31 E9.3356
G1 X62.69 Y56.88 E9.3457
G1 X65.23 Y56.45 E9.3861
G1 X64.32 Y56.51 E9.4004
G1 X64.12 Y56.49 E9.4036
G1 X63.97 Y56.41 E9.4062
G1 X63.31 Y55.83 E9.42
G1 X63.22 Y55.69 E9.4226
G1 X63.18 Y55.5 E9.4257
G1 X63.1 Y54.26 E9.4453
G1 X63.06 Y54.06 E9.4484
G1 X62.97 Y53.92 E9.451
G1 X62.49 Y53.5 E9.4612
G1 X63.29 Y52.6 E9.48
G1 X63.77 Y53.03 E9.4901
G1 X63.91 Y53.1 E9.4927
G1 X64.11 Y53.12 E9.4959
G1 X65.36 Y53.04 E9.5154
G1 X65.55 Y53.06 E9.5186
G1 X65.7 Y53.14 E9.5212
G1 X66.36 Y53.72 E9.535
G1 X66.45 Y53.85 E9.5376
G1 X66.49 Y54.05 E9.5407
G1 X66.58 Y55.46 E9.563
G1 X66.58 Y55.52 E9.5639
G1 X66.97 Y52.66 E9.6093
G1 X67.16 Y52.82 E9.6131
G1 X67.3 Y52.9 E9.6157
G1 X67.5 Y52.91 E9.6189
G1 X68.74 Y52.84 E9.6384
G1 X68.94 Y52.85 E9.6416
G1 X69.09 Y52.93 E9.6442
G1 X69.75 Y53.51 E9.658
G1 X69.84 Y53.65 E9.6606
G1 X69.88 Y53.85 E9.6638
G1 X69.96 Y55.09 E9.6833
G1 X69.98 Y55.27 E9.6861
G1 X70.06 Y55.4 E9.6886
G1 X70.36 Y52.45 E9.7351
G1 X70.54 Y52.62 E9.7389
G1 X70.69 Y52.69 E9.7415
G1 X70.89 Y52.71 E9.7447
G1 X72.13 Y52.63 E9.7642
G1 X72.33 Y52.65 E9.7674
G1 X72.48 Y52.73 E9.77
G1 X73.14 Y53.31 E9.7838
G1 X73.23 Y53.44 E9.7864
G1 X73.27 Y53.64 E9.7895
G1 X73.34 Y54.88 E9.8091
G1 X73.38 Y55.08 E9.8122
G1 X73.48 Y55.21 E9.8148
G1 X73.66 Y55.38 E9.8187
G1 X74.05 Y52.51 E9.8641
G1 X74.11 Y52.51 E9.865
G1 X75.29 Y52.44 E9.8837
G1 X75.64 Y52.5 E9.8892
G1 X75.98 Y52.63 E9.895
G1 X76.52 Y53.1 E9.9063
G1 X76.62 Y53.24 E9.9089
G1 X76.66 Y53.44 E9.912
G1 X76.73 Y54.68 E9.9316
G1 X76.77 Y54.87 E9.9348
G1 X76.87 Y55.01 E9.9373
G1 X77.35 Y55.44 E9.9475
G1 X79.43 Y52.47 E10.0044
G1 X79.91 Y52.9 E10.0145
G1 X80 Y53.03 E10.0171
G1 X80.04 Y53.23 E10.0203
G1 X80.12 Y54.47 E10.0398
G1 X80.16 Y54.67 E10.043
G1 X80.25 Y54.8 E10.0456
G1 X80.91 Y55.39 E10.0594
G1 X81.06 Y55.46 E10.062
G1 X81.26 Y55.48 E10.0651
G1 X82.67 Y55.4 E10.0874
G1 X82.73 Y55.39 E10.0883
G1 X83.12 Y52.53 E10.1337
G1 X83.3 Y52.69 E10.1376
G1 X83.39 Y52.83 E10.1401
G1 X83.43 Y53.03 E10.1433
G1 X83.51 Y54.27 E10.1629
G1 X83.55 Y54.46 E10.166
G1 X83.64 Y54.6 E10.1686
G1 X84.3 Y55.18 E10.1824
G1 X84.45 Y55.26 E10.185
G1 X84.65 Y55.28 E10.1882
G1 X85.89 Y55.2 E10.2077
G1 X86.09 Y55.22 E10.2109
G1 X86.23 Y55.29 E10.2135
G1 X86.89 Y55.88 E10.2273
G1 X86.99 Y56.01 E10.2299
G1 X87.03 Y56.21 E10.233
G1 X87.1 Y57.45 E10.2526
G1 X87.14 Y57.65 E10.2557
G1 X87.23 Y57.78 E10.2583
G1 X87.89 Y58.37 E10.2722
G1 X88.04 Y58.44 E10.2747
G1 X88.24 Y58.46 E10.2779
G1 X89.15 Y58.4 E10.2922
G1 X89.23 Y57.64 E10.3042
G1 X89.19 Y57.27 E10.3101
G1 X89.26 Y56.89 E10.3162
G1 X89.24 Y56.51 E10.3221
G1 X89.39 Y56.12 E10.3286
G1 X89.39 Y55.37 E10.3405
G1 X89.5 Y54.98 E10.3468
G1 X88.03 Y55.07 E10.3699
G1 X87.83 Y55.05 E10.3731
G1 X87.69 Y54.98 E10.3757
G1 X87.03 Y54.39 E10.3895
G1 X86.94 Y54.26 E10.3921
G1 X86.9 Y54.06 E10.3952
G1 X86.81 Y52.65 E10.4175
G1 X86.8 Y52.59 E10.4184
;
; 'Stacked Sparse Infill', 39.6 [RPM], 52.5 [mm/s]
G1 F30000
G1 X86.61 Y58.84 E10.4184
G1 F3150
G1 X87.1 Y59.26 E10.4285
G1 X87.19 Y59.4 E10.4311
G1 X87.23 Y59.6 E10.4343
G1 X87.31 Y60.84 E10.4538
G1 X87.35 Y61.03 E10.457
G1 X87.44 Y61.17 E10.4596
G1 X88.1 Y61.75 E10.4734
G1 X88.24 Y61.83 E10.476
G1 X88.44 Y61.85 E10.4791
G1 X89.01 Y61.81 E10.488
G1 X86.52 Y61.96 E10.5272
G1 X86.55 Y61.99 E10.5279
G1 X87.3 Y62.65 E10.5437
G1 X87.4 Y62.79 E10.5462
G1 X87.44 Y62.98 E10.5494
G1 X87.51 Y64.23 E10.569
G1 X87.55 Y64.42 E10.5721
G1 X87.64 Y64.56 E10.5747
G1 X88.3 Y65.14 E10.5885
G1 X88.45 Y65.22 E10.5911
G1 X88.65 Y65.23 E10.5943
G1 X89.56 Y65.18 E10.6086
G1 X89.43 Y65.56 E10.6149
G1 X89.43 Y65.91 E10.6203
G1 X89.21 Y66.33 E10.6279
G1 X89.29 Y66.71 E10.6339
G1 X89.31 Y67.08 E10.6398
G1 X89.25 Y67.47 E10.6459
G1 X89.28 Y67.84 E10.6518
G1 X89.2 Y68.6 E10.6638
G1 X88.85 Y68.62 E10.6693
G1 X88.65 Y68.61 E10.6724
G1 X88.51 Y68.53 E10.675
G1 X87.85 Y67.95 E10.6888
G1 X87.76 Y67.81 E10.6914
G1 X87.72 Y67.61 E10.6946
G1 X87.64 Y66.37 E10.7141
G1 X87.6 Y66.18 E10.7173
G1 X87.51 Y66.04 E10.7199
G1 X86.85 Y65.46 E10.7337
G1 X86.7 Y65.38 E10.7363
G1 X86.5 Y65.36 E10.7394
G1 X85.26 Y65.44 E10.759
G1 X85.06 Y65.42 E10.7621
G1 X84.91 Y65.35 E10.7647
G1 X84.26 Y64.76 E10.7786
G1 X84.16 Y64.63 E10.7812
G1 X84.12 Y64.43 E10.7843
G1 X84.05 Y63.19 E10.8039
G1 X84.01 Y62.99 E10.807
G1 X83.91 Y62.86 E10.8096
G1 X83.26 Y62.27 E10.8234
G1 X83.11 Y62.2 E10.826
G1 X82.91 Y62.18 E10.8292
G1 X82.57 Y62.2 E10.8346
G1 X83.93 Y61.27 E10.8606
G1 X83.92 Y61.06 E10.864
;
; 'Wipe', 0.0 [RPM], 37.5 [mm/s]
G1 F900
G1 E7.864
G1 F2250
G1 X83.93 Y61.27 E7.864
G1 X82.57 Y62.2 E7.864
G1 X82.91 Y62.18 E7.864
G1 X83.11 Y62.2 E7.864
G1 X83.26 Y62.27 E7.864
G1 X83.91 Y62.86 E7.864
G1 X84.01 Y62.99 E7.864
G1 X84.05 Y63.19 E7.864
G1 X84.12 Y64.43 E7.864
G1 X84.16 Y64.63 E7.864
G1 X84.26 Y64.76 E7.864
G1 X84.91 Y65.35 E7.864
G1 X85.06 Y65.42 E7.864
G1 X85.26 Y65.44 E7.864
G1 X86.5 Y65.36 E7.864
G1 X86.7 Y65.38 E7.864
G1 X86.85 Y65.46 E7.864
G1 X87.51 Y66.04 E7.864
G1 X87.6 Y66.18 E7.864
G1 X87.64 Y66.37 E7.864
G1 X87.67 Y66.94 E7.864
;
; 'Stacked Sparse Infill', 39.6 [RPM], 52.5 [mm/s]
G1 F30000
G1 X84.85 Y76.51 E7.864
G1 F900
G1 E10.744
G1 F3150
G1 X84.86 Y76.57 E10.745
G1 X84.94 Y77.98 E10.7672
G1 X84.98 Y78.18 E10.7703
G1 X85.08 Y78.32 E10.7729
G1 X85.73 Y78.9 E10.7868
G1 X85.88 Y78.98 E10.7894
G1 X86.08 Y78.99 E10.7925
G1 X87.32 Y78.92 E10.8121
G1 X87.52 Y78.93 E10.8152
G1 X87.67 Y79.01 E10.8178
G1 X88.15 Y79.44 E10.8279
G1 X87.78 Y79.33 E10.8341
G1 X87.04 Y79.42 E10.8456
G1 X86.67 Y79.36 E10.8515
G1 X86.31 Y79.41 E10.8573
G1 X85.94 Y79.4 E10.8631
G1 X85.19 Y79.22 E10.8752
G1 X84.82 Y79.23 E10.881
G1 X84.46 Y79.38 E10.8871
G1 X84.28 Y79.21 E10.8909
G1 X84.13 Y79.14 E10.8935
G1 X83.93 Y79.12 E10.8967
G1 X82.69 Y79.2 E10.9162
G1 X82.49 Y79.18 E10.9194
G1 X82.35 Y79.1 E10.922
G1 X81.69 Y78.52 E10.9358
G1 X81.59 Y78.38 E10.9384
G1 X81.55 Y78.19 E10.9415
G1 X81.48 Y76.95 E10.9611
G1 X81.44 Y76.75 E10.9642
G1 X81.35 Y76.61 E10.9668
G1 X81.16 Y76.45 E10.9707
G1 X80.88 Y79.41 E11.0173
G1 X80.81 Y79.35 E11.0186
G1 X80.55 Y79.33 E11.0229
G1 X79.3 Y79.4 E11.0424
G1 X79.11 Y79.39 E11.0456
G1 X78.96 Y79.31 E11.0482
G1 X78.3 Y78.73 E11.062
G1 X78.21 Y78.59 E11.0646
G1 X78.17 Y78.39 E11.0677
G1 X78.09 Y77.15 E11.0873
G1 X78.05 Y76.96 E11.0904
G1 X77.96 Y76.82 E11.093
G1 X77.3 Y76.24 E11.1069
G1 X77.15 Y76.16 E11.1094
G1 X76.95 Y76.14 E11.1126
G1 X75.71 Y76.22 E11.1322
G1 X75.51 Y76.2 E11.1353
G1 X75.37 Y76.13 E11.1379
G1 X74.71 Y75.54 E11.1517
G1 X74.61 Y75.41 E11.1543
G1 X74.57 Y75.21 E11.1575
G1 X74.5 Y73.97 E11.177
G1 X74.46 Y73.77 E11.1802
G1 X74.37 Y73.64 E11.1828
G1 X73.71 Y73.05 E11.1966
G1 X73.56 Y72.98 E11.1992
G1 X73.36 Y72.96 E11.2023
G1 X72.12 Y73.04 E11.2219
G1 X71.94 Y73.04 E11.2247
G1 X71.8 Y72.96 E11.2273
G1 X71.1 Y73.95 E11.2463
G1 X70.79 Y73.68 E11.2527
;
; 'Wipe', 0.0 [RPM], 37.5 [mm/s]
G1 F900
G1 E8.2527
G1 F2250
G1 X71.1 Y73.95 E8.2527
G1 X71.8 Y72.96 E8.2527
G1 X71.85 Y73.01 E8.2527
G1 X72.12 Y73.04 E8.2527
G1 X73.36 Y72.96 E8.2527
G1 X73.56 Y72.98 E8.2527
G1 X73.71 Y73.05 E8.2527
G1 X74.37 Y73.64 E8.2527
G1 X74.46 Y73.77 E8.2527
G1 X74.5 Y73.97 E8.2527
G1 X74.57 Y75.21 E8.2527
G1 X74.61 Y75.41 E8.2527
G1 X74.71 Y75.54 E8.2527
G1 X75.37 Y76.13 E8.2527
G1 X75.51 Y76.2 E8.2527
G1 X75.71 Y76.22 E8.2527
G1 X76.95 Y76.14 E8.2527
G1 X77.15 Y76.16 E8.2527
G1 X77.3 Y76.24 E8.2527
G1 X77.9 Y76.77 E8.2527
;
; 'Stacked Sparse Infill', 39.6 [RPM], 52.5 [mm/s]
G1 F30000
G1 X64.63 Y79.44 E8.2527
G1 F900
G1 E11.1327
G1 F3150
G1 X64.63 Y79.38 E11.1336
G1 X64.54 Y77.97 E11.1559
G1 X64.5 Y77.78 E11.159
G1 X64.41 Y77.64 E11.1616
G1 X63.75 Y77.06 E11.1754
G1 X63.6 Y76.98 E11.178
G1 X63.4 Y76.96 E11.1812
G1 X62.49 Y77.02 E11.1955
;
; 'Wipe', 0.0 [RPM], 37.5 [mm/s]
G1 F900
G1 E8.1955
G1 F2250
G1 X63.4 Y76.96 E8.1955
G1 X63.6 Y76.98 E8.1955
G1 X63.75 Y77.06 E8.1955
G1 X64.41 Y77.64 E8.1955
G1 X64.5 Y77.78 E8.1955
G1 X64.54 Y77.97 E8.1955
G1 X64.63 Y79.38 E8.1955
G1 X64.63 Y79.44 E8.1955
; fan off
M107
G1 F210
G1 X64.63 Y79.44 Z1.75 E8.1955
; END_LAYER_OBJECT z=1.20
; Reset extruder pos
G92 E0
; BEGIN_LAYER_OBJECT z=1.50
; fan on
M106
;
; 'Perimeter', 9.6 [RPM], 9.5 [mm/s]
G1 F30000
G1 X86.36 Y76.12 E0
G1 F210
G1 X86.36 Y76.12 Z1.5 E0
G1 F900
G1 E2.88
G1 F570
G1 X86.17 Y76.08 E2.8841
G1 X85.93 Y76.22 E2.89
G1 X84.93 Y76.23 E2.9109
G1 X84.4 Y76.23 E2.9221
G1 X79.05 Y76.23 E3.0341
G1 X78.92 Y76.17 E3.0371
G1 X78.78 Y75.94 E3.0429
G1 X78.77 Y74.51 E3.0727
G1 X78.83 Y74.38 E3.0757
G1 X78.97 Y74.31 E3.0791
G1 X79.18 Y74.27 E3.0835
G1 X81.32 Y74.27 E3.1283
G1 X81.49 Y74.25 E3.1319
G1 X81.49 Y73.68 E3.1438
G1 X81.43 Y73.54 E3.1469
G1 X78.6 Y70.7 E3.2309
G1 X78.45 Y70.68 E3.2343
G1 X74.53 Y70.68 E3.3163
G1 X73.44 Y70.68 E3.3391
G1 X73.34 Y70.77 E3.342
G1 X70.51 Y73.61 E3.4259
G1 X70.51 Y74.21 E3.4386
G1 X70.63 Y74.27 E3.4415
G1 X72.95 Y74.27 E3.49
G1 X73.08 Y74.33 E3.493
G1 X73.23 Y74.59 E3.4993
G1 X73.23 Y76.01 E3.5291
G1 X73.17 Y76.14 E3.5321
G1 X72.86 Y76.23 E3.5387
G1 X72.46 Y76.23 E3.5472
G1 X71.93 Y76.23 E3.5584
G1 X66.23 Y76.23 E3.6779
G1 X65.92 Y76.17 E3.6844
G1 X65.78 Y75.93 E3.6903
G1 X65.77 Y74.93 E3.7113
G1 X65.77 Y74.4 E3.7224
G1 X65.77 Y73.32 E3.7449
G1 X65.77 Y72.79 E3.756
G1 X65.77 Y71.9 E3.7748
G1 X65.77 Y56.22 E4.1033
G1 X65.83 Y55.92 E4.1098
G1 X66.07 Y55.78 E4.1157
G1 X67.07 Y55.77 E4.1367
G1 X67.6 Y55.77 E4.1478
G1 X70.1 Y55.77 E4.2002
G1 X70.81 Y55.77 E4.215
G1 X71.7 Y55.77 E4.2338
G1 X85.77 Y55.77 E4.5287
G1 X86.08 Y55.83 E4.5352
G1 X86.22 Y56.07 E4.5411
G1 X86.23 Y56.89 E4.5583
G1 X86.22 Y57.6 E4.5731
G1 X86.23 Y62.95 E4.6852
G1 X86.17 Y63.08 E4.6881
G1 X85.94 Y63.22 E4.6939
G1 X84.51 Y63.23 E4.7238
G1 X84.38 Y63.17 E4.7267
G1 X84.31 Y63.03 E4.7301
G1 X84.27 Y62.82 E4.7346
G1 X84.27 Y60.69 E4.7793
G1 X84.25 Y60.51 E4.783
G1 X83.68 Y60.51 E4.795
G1 X83.54 Y60.57 E4.7981
G1 X80.7 Y63.4 E4.8821
G1 X80.68 Y63.55 E4.8854
G1 X80.68 Y67.47 E4.9675
G1 X80.68 Y68.56 E4.9903
G1 X80.77 Y68.66 E4.9931
G1 X83.51 Y71.4 E5.0743
G1 X83.61 Y71.49 E5.0771
G1 X84.21 Y71.49 E5.0897
G1 X84.27 Y71.37 E5.0925
G1 X84.27 Y69.05 E5.1411
G1 X84.33 Y68.92 E5.144
G1 X84.59 Y68.77 E5.1503
G1 X86.01 Y68.77 E5.1802
G1 X86.14 Y68.83 E5.1831
G1 X86.23 Y69.14 E5.1898
G1 X86.23 Y69.54 E5.1983
G1 X86.23 Y70.07 E5.2094
G1 X86.23 Y75.77 E5.3289
G1 X86.17 Y76.08 E5.3355
G1 X86.24 Y76.27 E5.3396
;
; 'Perimeter', 9.6 [RPM], 9.5 [mm/s]
G1 F30000
G1 X89.64 Y79.52 E5.3396
G1 F570
G1 X89.74 Y79.77 E5.3453
G1 X83.03 Y79.77 E5.4858
G1 X82.5 Y79.77 E5.4969
G1 X81.61 Y79.77 E5.5156
G1 X80.9 Y79.77 E5.5305
G1 X80.01 Y79.77 E5.5492
G1 X79.3 Y79.77 E5.5641
G1 X78.4 Y79.77 E5.5828
G1 X62.73 Y79.77 E5.9114
G1 X62.23 Y79.74 E5.9219
G1 X62.23 Y73.03 E6.0624
G1 X62.23 Y72.5 E6.0735
G1 X62.23 Y71.61 E6.0923
G1 X62.23 Y70.9 E6.1071
G1 X62.23 Y70.01 E6.1259
G1 X62.23 Y69.3 E6.1407
G1 X62.23 Y68.4 E6.1595
G1 X62.23 Y52.73 E6.488
G1 X62.26 Y52.23 E6.4986
G1 X68.97 Y52.23 E6.639
G1 X69.5 Y52.23 E6.6502
G1 X70.39 Y52.23 E6.6689
G1 X71.1 Y52.23 E6.6838
G1 X71.99 Y52.23 E6.7025
G1 X72.7 Y52.23 E6.7174
G1 X73.6 Y52.23 E6.7361
G1 X89.27 Y52.23 E7.0646
G1 X89.77 Y52.26 E7.0752
G1 X89.77 Y58.96 E7.2156
G1 X89.77 Y59.49 E7.2267
G1 X89.77 Y60.39 E7.2454
G1 X89.77 Y61.1 E7.2603
G1 X89.77 Y61.99 E7.279
G1 X89.77 Y62.7 E7.2939
G1 X89.77 Y63.6 E7.3126
G1 X89.77 Y79.27 E7.6412
G1 X89.74 Y79.77 E7.6517
G1 X89.51 Y79.62 E7.6575
;
; 'Stacked Sparse Infill', 39.6 [RPM], 52.5 [mm/s]
G1 F30000
G1 X88.71 Y79.4 E7.6575
G1 F3150
G1 X89.22 Y78.83 E7.6695
G1 X89.25 Y78.8 E7.6702
G1 X89.04 Y75.41 E7.7235
G1 X89.01 Y75.44 E7.7242
G1 X88.35 Y76.19 E7.7399
G1 X88.27 Y76.34 E7.7425
G1 X88.26 Y76.54 E7.7457
G1 X88.33 Y77.78 E7.7652
G1 X88.31 Y77.98 E7.7684
G1 X88.24 Y78.12 E7.771
G1 X87.65 Y78.78 E7.7848
G1 X87.52 Y78.88 E7.7874
G1 X87.32 Y78.92 E7.7905
G1 X86.08 Y78.99 E7.8101
G1 X85.88 Y79.03 E7.8132
G1 X85.75 Y79.12 E7.8158
G1 X85.59 Y79.31 E7.8197
G1 X84.86 Y76.51 E7.8651
G1 X84.86 Y76.57 E7.866
G1 X84.94 Y77.98 E7.8882
G1 X84.93 Y78.18 E7.8914
G1 X84.85 Y78.33 E7.894
G1 X84.27 Y78.99 E7.9078
G1 X84.13 Y79.08 E7.9104
G1 X83.93 Y79.12 E7.9135
G1 X82.69 Y79.2 E7.9331
G1 X82.5 Y79.24 E7.9363
G1 X82.36 Y79.33 E7.9388
G1 X82.2 Y79.51 E7.9427
G1 X81.55 Y76.63 E7.9892
G1 X81.48 Y76.77 E7.9917
G1 X81.48 Y76.95 E7.9945
G1 X81.55 Y78.19 E8.014
G1 X81.54 Y78.39 E8.0172
G1 X81.46 Y78.53 E8.0198
G1 X80.88 Y79.19 E8.0336
G1 X80.74 Y79.29 E8.0362
G1 X80.55 Y79.33 E8.0393
G1 X79.08 Y79.42 E8.0625
G1 X78.67 Y79.34 E8.0689
G1 X78.28 Y79.36 E8.0751
G1 X77.89 Y79.48 E8.0815
G1 X77.1 Y79.47 E8.094
G1 X76.71 Y79.56 E8.1003
G1 X77.16 Y79.53 E8.1075
G1 X77.35 Y79.49 E8.1106
G1 X77.49 Y79.4 E8.1132
G1 X78.07 Y78.74 E8.127
G1 X78.15 Y78.59 E8.1296
G1 X78.17 Y78.39 E8.1328
G1 X78.09 Y77.15 E8.1523
G1 X78.11 Y76.95 E8.1555
G1 X78.18 Y76.81 E8.1581
G1 X78.61 Y76.32 E8.1682
;
; 'Wipe', 0.0 [RPM], 37.5 [mm/s]
G1 F900
G1 E5.1682
G1 F2250
G1 X78.18 Y76.81 E5.1682
G1 X78.11 Y76.95 E5.1682
G1 X78.09 Y77.15 E5.1682
G1 X78.17 Y78.39 E5.1682
G1 X78.15 Y78.59 E5.1682
G1 X78.07 Y78.74 E5.1682
G1 X77.49 Y79.4 E5.1682
G1 X77.35 Y79.49 E5.1682
G1 X77.16 Y79.53 E5.1682
G1 X76.71 Y79.56 E5.1682
G1 X77.1 Y79.47 E5.1682
G1 X77.89 Y79.48 E5.1682
G1 X78.28 Y79.36 E5.1682
G1 X78.67 Y79.34 E5.1682
G1 X79.08 Y79.42 E5.1682
G1 X80.55 Y79.33 E5.1682
G1 X80.74 Y79.29 E5.1682
G1 X80.88 Y79.19 E5.1682
G1 X81.46 Y78.53 E5.1682
G1 X81.54 Y78.39 E5.1682
G1 X81.55 Y78.19 E5.1682
G1 X81.53 Y77.85 E5.1682
;
; 'Stacked Sparse Infill', 39.6 [RPM], 52.5 [mm/s]
G1 F30000
G1 X79.8 Y72.57 E5.1682
G1 F900
G1 E8.0482
G1 F3150
G1 X78.89 Y72.63 E8.0625
G1 X78.7 Y72.67 E8.0656
G1 X78.56 Y72.76 E8.0682
G1 X77.98 Y73.42 E8.0821
G1 X77.9 Y73.56 E8.0847
G1 X77.89 Y73.76 E8.0878
G1 X77.96 Y75.01 E8.1074
G1 X77.95 Y75.2 E8.1105
G1 X77.87 Y75.35 E8.1131
G1 X77.29 Y76.01 E8.1269
G1 X77.15 Y76.1 E8.1295
G1 X76.95 Y76.14 E8.1327
G1 X75.71 Y76.22 E8.1522
G1 X75.52 Y76.26 E8.1554
G1 X75.38 Y76.35 E8.158
G1 X74.8 Y77.01 E8.1718
G1 X74.72 Y77.16 E8.1744
G1 X74.7 Y77.36 E8.1775
G1 X74.78 Y78.6 E8.1971
G1 X74.76 Y78.8 E8.2002
G1 X74.69 Y78.94 E8.2028
G1 X74.26 Y79.43 E8.213
G1 X73.86 Y79.33 E8.2194
G1 X73.47 Y79.33 E8.2255
G1 X73.09 Y79.39 E8.2316
G1 X72.31 Y79.35 E8.2439
G1 X71.14 Y79.33 E8.2623
G1 X71.3 Y79.15 E8.2662
G1 X71.37 Y79 E8.2688
G1 X71.39 Y78.8 E8.2719
G1 X71.32 Y77.56 E8.2915
G1 X71.33 Y77.36 E8.2946
G1 X71.41 Y77.22 E8.2972
G1 X72.08 Y76.47 E8.313
G1 X72.17 Y76.43 E8.3145
G1 X72.5 Y76.49 E8.3197
G1 X72.84 Y76.46 E8.3251
G1 X73.15 Y76.37 E8.3303
G1 X73.57 Y76.35 E8.3368
G1 X73.76 Y76.31 E8.3399
G1 X73.9 Y76.21 E8.3425
G1 X74.48 Y75.56 E8.3563
G1 X74.56 Y75.41 E8.3589
G1 X74.57 Y75.21 E8.3621
G1 X74.5 Y73.97 E8.3816
G1 X74.51 Y73.77 E8.3848
G1 X74.59 Y73.62 E8.3874
G1 X75.17 Y72.96 E8.4012
G1 X75.31 Y72.87 E8.4038
G1 X75.51 Y72.83 E8.4069
G1 X76.75 Y72.76 E8.4265
G1 X76.94 Y72.72 E8.4296
G1 X77.08 Y72.62 E8.4322
G1 X77.66 Y71.96 E8.4461
G1 X77.74 Y71.82 E8.4487
G1 X77.76 Y71.62 E8.4518
G1 X77.74 Y71.27 E8.4572
;
; 'Wipe', 0.0 [RPM], 37.5 [mm/s]
G1 F900
G1 E5.4572
G1 F2250
G1 X77.76 Y71.62 E5.4572
G1 X77.74 Y71.82 E5.4572
G1 X77.66 Y71.96 E5.4572
G1 X77.08 Y72.62 E5.4572
G1 X76.94 Y72.72 E5.4572
G1 X76.75 Y72.76 E5.4572
G1 X75.51 Y72.83 E5.4572
G1 X75.31 Y72.87 E5.4572
G1 X75.17 Y72.96 E5.4572
G1 X74.59 Y73.62 E5.4572
G1 X74.51 Y73.77 E5.4572
G1 X74.5 Y73.97 E5.4572
G1 X74.57 Y75.21 E5.4572
G1 X74.56 Y75.41 E5.4572
G1 X74.48 Y75.56 E5.4572
G1 X73.9 Y76.21 E5.4572
G1 X73.76 Y76.31 E5.4572
G1 X73.57 Y76.35 E5.4572
G1 X73.15 Y76.37 E5.4572
G1 X72.84 Y76.46 E5.4572
G1 X72.5 Y76.49 E5.4572
G1 X72.13 Y76.44 E5.4572
G1 X71.99 Y76.56 E5.4572
G1 X71.46 Y77.16 E5.4572
;
; 'Stacked Sparse Infill', 39.6 [RPM], 52.5 [mm/s]
G1 F30000
G1 X80.95 Y68.25 E5.4572
G1 F900
G1 E8.3372
G1 F3150
G1 X80.95 Y68.19 E8.3382
G1 X80.88 Y67.05 E8.3561
G1 X81.08 Y66.29 E8.3685
G1 X81.54 Y65.78 E8.3793
G1 X81.68 Y65.68 E8.3819
G1 X81.87 Y65.64 E8.385
G1 X83.11 Y65.57 E8.4046
G1 X83.31 Y65.53 E8.4078
G1 X83.45 Y65.44 E8.4103
G1 X84.03 Y64.78 E8.4242
G1 X84.11 Y64.63 E8.4268
G1 X84.12 Y64.43 E8.4299
G1 X84.04 Y63.02 E8.4521
G1 X84.04 Y62.96 E8.4531
G1 X82.57 Y62.2 E8.4791
G1 X82.91 Y62.18 E8.4845
G1 X83.11 Y62.14 E8.4877
G1 X83.24 Y62.05 E8.4903
G1 X83.83 Y61.39 E8.5041
G1 X83.9 Y61.28 E8.5062
G1 X83.92 Y61.06 E8.5097
;
; 'Wipe', 0.0 [RPM], 37.5 [mm/s]
G1 F900
G1 E5.5097
G1 F2250
G1 X83.9 Y61.28 E5.5097
G1 X83.83 Y61.39 E5.5097
G1 X83.24 Y62.05 E5.5097
G1 X83.11 Y62.14 E5.5097
G1 X82.91 Y62.18 E5.5097
G1 X82.57 Y62.2 E5.5097
G1 X84.04 Y62.96 E5.5097
G1 X84.04 Y63.02 E5.5097
G1 X84.12 Y64.43 E5.5097
G1 X84.11 Y64.63 E5.5097
G1 X84.03 Y64.78 E5.5097
G1 X83.45 Y65.44 E5.5097
G1 X83.31 Y65.53 E5.5097
G1 X83.11 Y65.57 E5.5097
G1 X81.87 Y65.64 E5.5097
G1 X81.68 Y65.68 E5.5097
G1 X81.54 Y65.78 E5.5097
G1 X81.08 Y66.29 E5.5097
G1 X80.88 Y67.05 E5.5097
G1 X80.9 Y67.35 E5.5097
;
; 'Stacked Sparse Infill', 39.6 [RPM], 52.5 [mm/s]
G1 F30000
G1 X86.52 Y61.96 E5.5097
G1 F900
G1 E8.3897
G1 F3150
G1 X86.55 Y61.93 E8.3904
G1 X87.21 Y61.18 E8.4061
G1 X87.29 Y61.04 E8.4087
G1 X87.31 Y60.84 E8.4119
G1 X87.23 Y59.6 E8.4314
G1 X87.25 Y59.4 E8.4346
G1 X87.32 Y59.25 E8.4372
G1 X87.91 Y58.59 E8.451
G1 X88.04 Y58.5 E8.4536
G1 X88.24 Y58.46 E8.4567
G1 X89.15 Y58.4 E8.4711
G1 X89.29 Y60.66 E8.5066
G1 X89.31 Y61.04 E8.5126
G1 X89.21 Y61.42 E8.5188
G1 X89.35 Y61.79 E8.525
G1 X88.44 Y61.85 E8.5393
G1 X88.25 Y61.89 E8.5425
G1 X88.11 Y61.98 E8.5451
G1 X87.53 Y62.64 E8.5589
G1 X87.45 Y62.79 E8.5615
G1 X87.44 Y62.98 E8.5646
G1 X87.51 Y64.23 E8.5842
G1 X87.49 Y64.43 E8.5874
G1 X87.42 Y64.57 E8.5899
G1 X86.83 Y65.23 E8.6038
G1 X86.7 Y65.32 E8.6064
G1 X86.5 Y65.36 E8.6095
G1 X85.26 Y65.44 E8.6291
G1 X85.06 Y65.48 E8.6322
G1 X84.93 Y65.57 E8.6348
G1 X84.34 Y66.23 E8.6486
G1 X84.27 Y66.38 E8.6512
G1 X84.25 Y66.58 E8.6544
G1 X84.33 Y67.82 E8.6739
G1 X84.31 Y68.02 E8.6771
G1 X84.24 Y68.17 E8.6797
G1 X83.65 Y68.82 E8.6935
G1 X83.52 Y68.92 E8.6961
G1 X83.32 Y68.96 E8.6992
G1 X81.91 Y69.04 E8.7215
G1 X81.85 Y69.05 E8.7224
G1 X84.09 Y68.91 E8.7578
G1 X84.29 Y68.71 E8.7622
G1 X84.84 Y68.51 E8.7713
G1 X85.21 Y68.41 E8.7774
G1 X86.16 Y68.6 E8.7927
G1 X86.36 Y68.77 E8.7969
G1 X86.71 Y68.75 E8.8023
G1 X86.9 Y68.71 E8.8054
G1 X87.04 Y68.62 E8.808
G1 X87.62 Y67.96 E8.8219
G1 X87.7 Y67.81 E8.8245
G1 X87.72 Y67.61 E8.8276
G1 X87.64 Y66.37 E8.8472
G1 X87.66 Y66.17 E8.8503
G1 X87.73 Y66.03 E8.8529
G1 X88.32 Y65.37 E8.8667
G1 X88.45 Y65.27 E8.8693
G1 X88.65 Y65.23 E8.8725
G1 X89.56 Y65.18 E8.8868
G1 X89.43 Y65.56 E8.8931
G1 X89.43 Y65.91 E8.8985
G1 X89.21 Y66.33 E8.9061
G1 X89.29 Y66.71 E8.9121
G1 X89.31 Y67.08 E8.918
G1 X89.25 Y67.47 E8.9241
G1 X89.28 Y67.84 E8.93
G1 X89.2 Y68.6 E8.9421
G1 X88.85 Y68.62 E8.9475
G1 X88.66 Y68.66 E8.9506
G1 X88.52 Y68.76 E8.9532
G1 X87.94 Y69.41 E8.9671
G1 X87.86 Y69.56 E8.9696
G1 X87.85 Y69.76 E8.9728
G1 X87.92 Y71 E8.9924
G1 X87.9 Y71.2 E8.9955
G1 X87.83 Y71.35 E8.9981
G1 X87.24 Y72.01 E9.0119
G1 X87.11 Y72.1 E9.0145
G1 X86.91 Y72.14 E9.0177
G1 X88.69 Y72.03 E9.0457
G1 X89.4 Y71.99 E9.0568
G1 X89.06 Y72.01 E9.0622
G1 X88.86 Y72.05 E9.0653
G1 X88.73 Y72.14 E9.0679
G1 X88.14 Y72.8 E9.0818
G1 X88.07 Y72.95 E9.0843
G1 X88.05 Y73.15 E9.0875
G1 X88.13 Y74.39 E9.1071
G1 X88.11 Y74.59 E9.1102
G1 X88.03 Y74.74 E9.1128
G1 X87.45 Y75.39 E9.1266
G1 X87.31 Y75.49 E9.1292
G1 X87.12 Y75.53 E9.1324
G1 X86.77 Y75.55 E9.1378
;
; 'Wipe', 0.0 [RPM], 37.5 [mm/s]
G1 F900
G1 E6.1378
G1 F2250
G1 X87.12 Y75.53 E6.1378
G1 X87.31 Y75.49 E6.1378
G1 X87.45 Y75.39 E6.1378
G1 X88.03 Y74.74 E6.1378
G1 X88.11 Y74.59 E6.1378
G1 X88.13 Y74.39 E6.1378
G1 X88.05 Y73.15 E6.1378
G1 X88.07 Y72.95 E6.1378
G1 X88.14 Y72.8 E6.1378
G1 X88.73 Y72.14 E6.1378
G1 X88.86 Y72.05 E6.1378
G1 X89.06 Y72.01 E6.1378
G1 X89.4 Y71.99 E6.1378
G1 X87.28 Y72.12 E6.1378
G1 X86.57 Y72.16 E6.1378
G1 X87.11 Y72.1 E6.1378
G1 X87.24 Y72.01 E6.1378
G1 X87.83 Y71.35 E6.1378
G1 X87.9 Y71.2 E6.1378
G1 X87.91 Y70.89 E6.1378
;
; 'Stacked Sparse Infill', 39.6 [RPM], 52.5 [mm/s]
G1 F30000
G1 X74.31 Y70.91 E6.1378
G1 F900
G1 E9.0178
G1 F3150
G1 X74.37 Y71.82 E9.0321
G1 X74.35 Y72.02 E9.0352
G1 X74.28 Y72.17 E9.0378
G1 X73.69 Y72.83 E9.0517
G1 X73.56 Y72.92 E9.0543
G1 X73.36 Y72.96 E9.0574
G1 X72.12 Y73.04 E9.077
G1 X71.92 Y73.08 E9.0801
G1 X71.79 Y73.17 E9.0827
G1 X71.12 Y73.92 E9.0984
G1 X71.1 Y73.95 E9.0991
;
; 'Wipe', 0.0 [RPM], 37.5 [mm/s]
G1 F900
G1 E6.0991
G1 F2250
G1 X71.12 Y73.92 E6.0991
G1 X71.79 Y73.17 E6.0991
G1 X71.92 Y73.08 E6.0991
G1 X72.12 Y73.04 E6.0991
G1 X73.36 Y72.96 E6.0991
G1 X73.56 Y72.92 E6.0991
G1 X73.69 Y72.83 E6.0991
G1 X74.28 Y72.17 E6.0991
G1 X74.35 Y72.02 E6.0991
G1 X74.37 Y71.82 E6.0991
G1 X74.31 Y70.91 E6.0991
;
; 'Stacked Sparse Infill', 39.6 [RPM], 52.5 [mm/s]
G1 F30000
G1 X70.41 Y76.54 E6.0991
G1 F900
G1 E8.9791
G1 F3150
G1 X70.35 Y76.54 E8.98
G1 X68.94 Y76.63 E9.0023
G1 X68.74 Y76.67 E9.0054
G1 X68.6 Y76.76 E9.008
G1 X68.02 Y77.42 E9.0218
G1 X67.94 Y77.57 E9.0244
G1 X67.93 Y77.77 E9.0276
G1 X68 Y79.01 E9.0471
G1 X67.99 Y79.21 E9.0503
G1 X67.91 Y79.35 E9.0529
G1 X67.75 Y79.54 E9.0567
G1 X67.28 Y76.44 E9.1059
G1 X67.12 Y76.62 E9.1097
G1 X66.99 Y76.72 E9.1123
G1 X66.79 Y76.76 E9.1155
G1 X65.55 Y76.83 E9.135
G1 X65.35 Y76.87 E9.1382
G1 X65.22 Y76.97 E9.1408
G1 X64.63 Y77.63 E9.1546
G1 X64.56 Y77.77 E9.1572
G1 X64.54 Y77.97 E9.1603
G1 X64.63 Y79.38 E9.1826
G1 X64.63 Y79.44 E9.1835
G1 X62.49 Y77.02 E9.2343
G1 X63.4 Y76.96 E9.2486
G1 X63.6 Y76.92 E9.2517
G1 X63.73 Y76.83 E9.2543
G1 X64.32 Y76.17 E9.2681
G1 X64.39 Y76.02 E9.2707
G1 X64.41 Y75.83 E9.2739
G1 X64.33 Y74.58 E9.2934
G1 X64.35 Y74.38 E9.2966
G1 X64.43 Y74.24 E9.2992
G1 X65.09 Y73.49 E9.3149
G1 X65.12 Y73.46 E9.3156
G1 X63.23 Y73.57 E9.3454
G1 X62.85 Y73.6 E9.3513
G1 X63.39 Y73.54 E9.3599
G1 X63.53 Y73.44 E9.3625
G1 X64.11 Y72.78 E9.3763
G1 X64.19 Y72.64 E9.3789
G1 X64.21 Y72.44 E9.382
G1 X64.13 Y71.2 E9.4016
G1 X64.15 Y71 E9.4048
G1 X64.22 Y70.85 E9.4073
G1 X64.81 Y70.19 E9.4212
G1 X64.94 Y70.1 E9.4238
G1 X65.14 Y70.06 E9.4269
G1 X65.48 Y70.04 E9.4323
G1 X62.65 Y70.21 E9.477
G1 X62.99 Y70.19 E9.4824
G1 X63.19 Y70.15 E9.4855
G1 X63.32 Y70.05 E9.4881
G1 X63.91 Y69.4 E9.502
G1 X63.98 Y69.25 E9.5046
G1 X64 Y69.05 E9.5077
G1 X63.92 Y67.81 E9.5273
G1 X63.94 Y67.61 E9.5304
G1 X64.02 Y67.46 E9.533
G1 X64.6 Y66.8 E9.5468
G1 X64.74 Y66.71 E9.5494
G1 X64.93 Y66.67 E9.5526
G1 X65.28 Y66.65 E9.558
G1 X62.44 Y66.82 E9.6026
G1 X62.79 Y66.8 E9.6081
G1 X62.98 Y66.76 E9.6112
G1 X63.12 Y66.67 E9.6138
G1 X63.7 Y66.01 E9.6276
G1 X63.78 Y65.86 E9.6302
G1 X63.8 Y65.66 E9.6334
G1 X63.72 Y64.42 E9.6529
G1 X63.74 Y64.22 E9.6561
G1 X63.81 Y64.07 E9.6587
G1 X64.4 Y63.42 E9.6725
G1 X64.53 Y63.32 E9.6751
G1 X64.73 Y63.28 E9.6782
G1 X63.18 Y63.38 E9.7026
G1 X62.8 Y63.4 E9.7085
G1 X62.83 Y63.37 E9.7092
G1 X63.5 Y62.62 E9.725
G1 X63.57 Y62.47 E9.7275
G1 X63.59 Y62.27 E9.7307
G1 X63.51 Y61.03 E9.7503
G1 X63.53 Y60.83 E9.7534
G1 X63.61 Y60.69 E9.756
G1 X64.19 Y60.03 E9.7698
G1 X64.33 Y59.93 E9.7724
G1 X64.52 Y59.89 E9.7756
G1 X65.37 Y59.84 E9.7889
G1 X62.6 Y60.01 E9.8326
G1 X62.63 Y59.98 E9.8333
G1 X63.29 Y59.23 E9.849
G1 X63.37 Y59.09 E9.8516
G1 X63.39 Y58.89 E9.8547
G1 X63.31 Y57.64 E9.8743
G1 X63.33 Y57.44 E9.8774
G1 X63.4 Y57.3 E9.88
G1 X63.99 Y56.64 E9.8939
G1 X64.12 Y56.55 E9.8964
G1 X64.32 Y56.51 E9.8996
G1 X65.23 Y56.45 E9.9139
G1 X62.66 Y56.33 E9.9543
G1 X63.09 Y55.84 E9.9644
G1 X63.16 Y55.7 E9.967
G1 X63.18 Y55.5 E9.9702
G1 X63.1 Y54.26 E9.9897
G1 X63.12 Y54.06 E9.9929
G1 X63.2 Y53.91 E9.9955
G1 X63.78 Y53.25 E10.0093
G1 X63.92 Y53.16 E10.0119
G1 X64.11 Y53.12 E10.015
G1 X65.36 Y53.04 E10.0346
G1 X65.55 Y53 E10.0377
G1 X65.69 Y52.91 E10.0403
G1 X66.11 Y52.43 E10.0504
G1 X65.74 Y52.57 E10.0566
G1 X65.37 Y52.59 E10.0625
G1 X64.98 Y52.5 E10.0688
G1 X64.61 Y52.64 E10.075
G1 X64.24 Y52.66 E10.0809
G1 X63.85 Y52.56 E10.0871
G1 X63.49 Y52.71 E10.0934
G1 X63.11 Y52.73 E10.0993
G1 X62.73 Y52.63 E10.1055
G1 X62.46 Y52.94 E10.1119
;
; 'Wipe', 0.0 [RPM], 37.5 [mm/s]
G1 F900
G1 E7.1119
G1 F2250
G1 X62.73 Y52.63 E7.1119
G1 X63.11 Y52.73 E7.1119
G1 X63.49 Y52.71 E7.1119
G1 X63.85 Y52.56 E7.1119
G1 X64.24 Y52.66 E7.1119
G1 X64.61 Y52.64 E7.1119
G1 X64.98 Y52.5 E7.1119
G1 X65.37 Y52.59 E7.1119
G1 X65.74 Y52.57 E7.1119
G1 X66.11 Y52.43 E7.1119
G1 X65.69 Y52.91 E7.1119
G1 X65.55 Y53 E7.1119
G1 X65.36 Y53.04 E7.1119
G1 X64.11 Y53.12 E7.1119
G1 X63.92 Y53.16 E7.1119
G1 X63.78 Y53.25 E7.1119
G1 X63.2 Y53.91 E7.1119
G1 X63.12 Y54.06 E7.1119
G1 X63.1 Y54.26 E7.1119
G1 X63.18 Y55.5 E7.1119
G1 X63.16 Y55.7 E7.1119
G1 X63.09 Y55.84 E7.1119
G1 X62.66 Y56.32 E7.1119
;
; 'Stacked Sparse Infill', 39.6 [RPM], 52.5 [mm/s]
G1 F30000
G1 X66.58 Y55.52 E7.1119
G1 F900
G1 E9.9919
G1 F3150
G1 X66.58 Y55.46 E9.9929
G1 X66.49 Y54.05 E10.0151
G1 X66.51 Y53.85 E10.0182
G1 X66.59 Y53.71 E10.0208
G1 X67.17 Y53.05 E10.0347
G1 X67.3 Y52.95 E10.0373
G1 X67.5 Y52.91 E10.0404
G1 X68.74 Y52.84 E10.06
G1 X68.94 Y52.8 E10.0631
G1 X69.07 Y52.7 E10.0657
G1 X69.24 Y52.52 E10.0695
G1 X69.97 Y55.32 E10.1149
G1 X69.97 Y55.26 E10.1159
G1 X69.88 Y53.85 E10.1381
G1 X69.9 Y53.65 E10.1413
G1 X69.97 Y53.5 E10.1438
G1 X70.56 Y52.84 E10.1577
G1 X70.69 Y52.75 E10.1603
G1 X70.89 Y52.71 E10.1634
G1 X72.3 Y52.62 E10.1857
G1 X72.36 Y52.62 E10.1866
G1 X73.09 Y55.41 E10.232
G1 X73.25 Y55.23 E10.2358
G1 X73.33 Y55.08 E10.2384
G1 X73.34 Y54.88 E10.2416
G1 X73.27 Y53.64 E10.2611
G1 X73.28 Y53.44 E10.2643
G1 X73.36 Y53.3 E10.2669
G1 X73.94 Y52.64 E10.2807
G1 X74.08 Y52.54 E10.2833
G1 X74.28 Y52.5 E10.2864
G1 X75.67 Y52.44 E10.3084
G1 X75.99 Y52.58 E10.3138
G1 X76.43 Y52.73 E10.3213
G1 X76.81 Y52.73 E10.3271
G1 X77.18 Y52.61 E10.3332
G1 X76.75 Y53.09 E10.3433
G1 X76.67 Y53.24 E10.3459
G1 X76.66 Y53.44 E10.3491
G1 X76.73 Y54.68 E10.3686
G1 X76.72 Y54.88 E10.3718
G1 X76.64 Y55.02 E10.3744
G1 X76.21 Y55.51 E10.3845
G1 X76.58 Y55.36 E10.3907
G1 X76.95 Y55.34 E10.3965
G1 X77.33 Y55.43 E10.4027
G1 X77.7 Y55.29 E10.4088
G1 X78.07 Y55.28 E10.4147
G1 X78.45 Y55.35 E10.4207
G1 X78.81 Y55.22 E10.4268
G1 X79.2 Y55.35 E10.4332
G1 X79.57 Y55.34 E10.439
G1 X80.03 Y54.82 E10.4499
G1 X80.1 Y54.67 E10.4525
G1 X80.12 Y54.47 E10.4556
G1 X80.04 Y53.23 E10.4752
G1 X80.06 Y53.03 E10.4784
G1 X80.14 Y52.89 E10.4809
G1 X80.33 Y52.66 E10.4856
G1 X81.03 Y55.5 E10.5315
G1 X81.09 Y55.49 E10.5324
G1 X82.5 Y55.41 E10.5547
G1 X82.7 Y55.37 E10.5578
G1 X82.83 Y55.27 E10.5604
G1 X83.42 Y54.61 E10.5742
G1 X83.49 Y54.47 E10.5768
G1 X83.51 Y54.27 E10.58
G1 X83.43 Y53.03 E10.5995
G1 X83.45 Y52.83 E10.6027
G1 X83.52 Y52.68 E10.6053
G1 X83.69 Y52.5 E10.6091
G1 X84.37 Y55.34 E10.6551
G1 X84.47 Y55.29 E10.6568
G1 X85.89 Y55.2 E10.6791
G1 X86.08 Y55.16 E10.6823
G1 X86.22 Y55.07 E10.6849
G1 X86.8 Y54.41 E10.6987
G1 X86.88 Y54.26 E10.7013
G1 X86.9 Y54.06 E10.7044
G1 X86.81 Y52.65 E10.7267
G1 X87.08 Y52.82 E10.7317
G1 X89.5 Y54.98 E10.7827
G1 X89.45 Y54.99 E10.7836
G1 X88.03 Y55.07 E10.8059
G1 X87.84 Y55.11 E10.809
G1 X87.7 Y55.2 E10.8116
G1 X87.12 Y55.86 E10.8254
G1 X87.04 Y56.01 E10.828
G1 X87.03 Y56.21 E10.8312
G1 X87.1 Y57.45 E10.8507
G1 X87.08 Y57.65 E10.8539
G1 X87.01 Y57.8 E10.8565
G1 X86.58 Y58.28 E10.8666
;
; 'Wipe', 0.0 [RPM], 37.5 [mm/s]
G1 F900
G1 E7.8666
G1 F2250
G1 X87.01 Y57.8 E7.8666
G1 X87.08 Y57.65 E7.8666
G1 X87.1 Y57.45 E7.8666
G1 X87.03 Y56.21 E7.8666
G1 X87.04 Y56.01 E7.8666
G1 X87.12 Y55.86 E7.8666
G1 X87.7 Y55.2 E7.8666
G1 X87.84 Y55.11 E7.8666
G1 X88.03 Y55.07 E7.8666
G1 X89.45 Y54.99 E7.8666
G1 X89.24 Y54.74 E7.8666
G1 X86.81 Y52.59 E7.8666
G1 X86.81 Y52.65 E7.8666
G1 X86.87 Y53.72 E7.8666
; fan off
M107
G1 F210
G1 X86.87 Y53.72 Z2.05 E7.8666
; END_LAYER_OBJECT z=1.50
; Reset extruder pos
G92 E0
; BEGIN_LAYER_OBJECT z=1.80
; fan on
M106
;
; 'Perimeter', 9.6 [RPM], 9.5 [mm/s]
G1 F30000
G1 X86.36 Y76.12 E0
G1 F210
G1 X86.36 Y76.12 Z1.8 E0
G1 F900
G1 E2.88
G1 F570
G1 X86.17 Y76.08 E2.8841
G1 X85.93 Y76.22 E2.89
G1 X84.93 Y76.23 E2.9109
G1 X84.4 Y76.23 E2.9221
G1 X79.05 Y76.23 E3.0341
G1 X78.92 Y76.17 E3.0371
G1 X78.78 Y75.94 E3.0429
G1 X78.77 Y74.51 E3.0727
G1 X78.83 Y74.38 E3.0757
G1 X78.97 Y74.31 E3.0791
G1 X79.18 Y74.27 E3.0835
G1 X81.32 Y74.27 E3.1283
G1 X81.49 Y74.25 E3.1319
G1 X81.49 Y73.68 E3.1438
G1 X81.43 Y73.54 E3.1469
G1 X78.6 Y70.7 E3.2309
G1 X78.45 Y70.68 E3.2343
G1 X74.53 Y70.68 E3.3163
G1 X73.44 Y70.68 E3.3391
G1 X73.34 Y70.77 E3.342
G1 X70.51 Y73.61 E3.4259
G1 X70.51 Y74.21 E3.4386
G1 X70.63 Y74.27 E3.4415
G1 X72.95 Y74.27 E3.49
G1 X73.08 Y74.33 E3.493
G1 X73.23 Y74.59 E3.4993
G1 X73.23 Y76.01 E3.5291
G1 X73.17 Y76.14 E3.5321
G1 X72.86 Y76.23 E3.5387
G1 X72.46 Y76.23 E3.5472
G1 X71.93 Y76.23 E3.5584
G1 X66.23 Y76.23 E3.6779
G1 X65.92 Y76.17 E3.6844
G1 X65.78 Y75.93 E3.6903
G1 X65.77 Y74.93 E3.7113
G1 X65.77 Y74.4 E3.7224
G1 X65.77 Y73.32 E3.7449
G1 X65.77 Y72.79 E3.756
G1 X65.77 Y71.9 E3.7748
G1 X65.77 Y56.22 E4.1033
G1 X65.83 Y55.92 E4.1098
G1 X66.07 Y55.78 E4.1157
G1 X67.07 Y55.77 E4.1367
G1 X67.6 Y55.77 E4.1478
G1 X70.1 Y55.77 E4.2002
G1 X70.81 Y55.77 E4.215
G1 X71.7 Y55.77 E4.2338
G1 X85.77 Y55.77 E4.5287
G1 X86.08 Y55.83 E4.5352
G1 X86.22 Y56.07 E4.5411
G1 X86.23 Y56.89 E4.5583
G1 X86.22 Y57.6 E4.5731
G1 X86.23 Y62.95 E4.6852
G1 X86.17 Y63.08 E4.6881
G1 X85.94 Y63.22 E4.6939
G1 X84.51 Y63.23 E4.7238
G1 X84.38 Y63.17 E4.7267
G1 X84.31 Y63.03 E4.7301
G1 X84.27 Y62.82 E4.7346
G1 X84.27 Y60.69 E4.7793
G1 X84.25 Y60.51 E4.783
G1 X83.68 Y60.51 E4.795
G1 X83.54 Y60.57 E4.7981
G1 X80.7 Y63.4 E4.8821
G1 X80.68 Y63.55 E4.8854
G1 X80.68 Y67.47 E4.9675
G1 X80.68 Y68.56 E4.9903
G1 X80.77 Y68.66 E4.9931
G1 X83.51 Y71.4 E5.0743
G1 X83.61 Y71.49 E5.0771
G1 X84.21 Y71.49 E5.0897
G1 X84.27 Y71.37 E5.0925
G1 X84.27 Y69.05 E5.1411
G1 X84.33 Y68.92 E5.144
G1 X84.59 Y68.77 E5.1503
G1 X86.01 Y68.77 E5.1802
G1 X86.14 Y68.83 E5.1831
G1 X86.23 Y69.14 E5.1898
G1 X86.23 Y69.54 E5.1983
G1 X86.23 Y70.07 E5.2094
G1 X86.23 Y75.77 E5.3289
G1 X86.17 Y76.08 E5.3355
G1 X86.24 Y76.27 E5.3396
;
; 'Perimeter', 9.6 [RPM], 9.5 [mm/s]
G1 F30000
G1 X89.64 Y79.52 E5.3396
G1 F570
G1 X89.74 Y79.77 E5.3453
G1 X83.03 Y79.77 E5.4858
G1 X82.5 Y79.77 E5.4969
G1 X81.61 Y79.77 E5.5156
G1 X80.9 Y79.77 E5.5305
G1 X80.01 Y79.77 E5.5492
G1 X79.3 Y79.77 E5.5641
G1 X78.4 Y79.77 E5.5828
G1 X62.73 Y79.77 E5.9114
G1 X62.23 Y79.74 E5.9219
G1 X62.23 Y73.03 E6.0624
G1 X62.23 Y72.5 E6.0735
G1 X62.23 Y71.61 E6.0923
G1 X62.23 Y70.9 E6.1071
G1 X62.23 Y70.01 E6.1259
G1 X62.23 Y69.3 E6.1407
G1 X62.23 Y68.4 E6.1595
G1 X62.23 Y52.73 E6.488
G1 X62.26 Y52.23 E6.4986
G1 X68.97 Y52.23 E6.639
G1 X69.5 Y52.23 E6.6502
G1 X70.39 Y52.23 E6.6689
G1 X71.1 Y52.23 E6.6838
G1 X71.99 Y52.23 E6.7025
G1 X72.7 Y52.23 E6.7174
G1 X73.6 Y52.23 E6.7361
G1 X89.27 Y52.23 E7.0646
G1 X89.77 Y52.26 E7.0752
G1 X89.77 Y58.96 E7.2156
G1 X89.77 Y59.49 E7.2267
G1 X89.77 Y60.39 E7.2454
G1 X89.77 Y61.1 E7.2603
G1 X89.77 Y61.99 E7.279
G1 X89.77 Y62.7 E7.2939
G1 X89.77 Y63.6 E7.3126
G1 X89.77 Y79.27 E7.6412
G1 X89.74 Y79.77 E7.6517
G1 X89.51 Y79.62 E7.6575
;
; 'Stacked Sparse Infill', 39.6 [RPM], 52.5 [mm/s]
G1 F30000
G1 X89.25 Y78.8 E7.6575
G1 F3150
G1 X89.21 Y78.77 E7.6582
G1 X88.46 Y78.11 E7.6739
G1 X88.37 Y77.97 E7.6765
G1 X88.33 Y77.78 E7.6796
G1 X88.26 Y76.54 E7.6992
G1 X88.22 Y76.34 E7.7023
G1 X88.12 Y76.2 E7.7049
G1 X87.46 Y75.62 E7.7187
G1 X87.32 Y75.54 E7.7213
G1 X87.12 Y75.53 E7.7245
G1 X86.78 Y75.55 E7.7299
G1 X89.04 Y75.41 E7.7655
G1 X89.01 Y75.39 E7.7662
G1 X88.26 Y74.72 E7.782
G1 X88.17 Y74.59 E7.7845
G1 X88.13 Y74.39 E7.7877
G1 X88.05 Y73.15 E7.8073
G1 X88.01 Y72.95 E7.8104
G1 X87.92 Y72.82 E7.813
G1 X87.26 Y72.23 E7.8268
G1 X87.11 Y72.16 E7.8294
G1 X86.91 Y72.14 E7.8326
G1 X88.69 Y72.03 E7.8606
G1 X89.4 Y71.99 E7.8717
G1 X89.06 Y72.01 E7.8771
G1 X88.86 Y71.99 E7.8802
G1 X88.71 Y71.92 E7.8828
G1 X88.05 Y71.33 E7.8967
G1 X87.96 Y71.2 E7.8993
G1 X87.92 Y71 E7.9024
G1 X87.85 Y69.76 E7.922
G1 X87.81 Y69.56 E7.9251
G1 X87.71 Y69.43 E7.9277
G1 X87.05 Y68.84 E7.9415
G1 X86.91 Y68.77 E7.9441
G1 X86.71 Y68.75 E7.9473
G1 X86.36 Y68.77 E7.9527
G1 X86.15 Y68.58 E7.9572
G1 X85.71 Y68.41 E7.9646
G1 X85.4 Y68.48 E7.9696
G1 X84.77 Y68.42 E7.9796
G1 X84.46 Y68.15 E7.986
G1 X84.37 Y68.02 E7.9886
G1 X84.33 Y67.82 E7.9917
G1 X84.25 Y66.58 E8.0113
G1 X84.21 Y66.38 E8.0144
G1 X84.12 Y66.25 E8.017
G1 X83.46 Y65.66 E8.0309
G1 X83.31 Y65.59 E8.0335
G1 X83.11 Y65.57 E8.0366
G1 X81.87 Y65.64 E8.0562
G1 X81.67 Y65.63 E8.0593
G1 X81.53 Y65.55 E8.0619
G1 X81.04 Y65.13 E8.072
G1 X81.17 Y65.5 E8.0783
G1 X81.19 Y65.88 E8.0843
G1 X81.02 Y66.34 E8.0919
G1 X80.93 Y66.67 E8.0972
G1 X80.88 Y67.05 E8.1033
G1 X80.94 Y68.02 E8.1186
G1 X80.98 Y68.22 E8.1218
G1 X81.07 Y68.36 E8.1244
G1 X81.73 Y68.94 E8.1382
G1 X81.88 Y69.02 E8.1408
G1 X82.08 Y69.03 E8.1439
G1 X83.32 Y68.96 E8.1635
G1 X83.52 Y68.97 E8.1667
G1 X83.67 Y69.05 E8.1692
G1 X83.85 Y69.21 E8.1731
;
; 'Wipe', 0.0 [RPM], 37.5 [mm/s]
G1 F900
G1 E5.1731
G1 F2250
G1 X83.67 Y69.05 E5.1731
G1 X83.52 Y68.97 E5.1731
G1 X83.32 Y68.96 E5.1731
G1 X82.08 Y69.03 E5.1731
G1 X81.88 Y69.02 E5.1731
G1 X81.73 Y68.94 E5.1731
G1 X81.07 Y68.36 E5.1731
G1 X80.98 Y68.22 E5.1731
G1 X80.94 Y68.02 E5.1731
G1 X80.88 Y67.05 E5.1731
G1 X80.93 Y66.67 E5.1731
G1 X81.02 Y66.34 E5.1731
G1 X81.19 Y65.88 E5.1731
G1 X81.17 Y65.5 E5.1731
G1 X81.04 Y65.13 E5.1731
G1 X81.53 Y65.55 E5.1731
G1 X81.67 Y65.63 E5.1731
G1 X81.87 Y65.64 E5.1731
G1 X83.11 Y65.57 E5.1731
G1 X83.31 Y65.59 E5.1731
G1 X83.46 Y65.66 E5.1731
G1 X84.12 Y66.25 E5.1731
G1 X84.21 Y66.38 E5.1731
;
; 'Stacked Sparse Infill', 39.6 [RPM], 52.5 [mm/s]
G1 F30000
G1 X79.8 Y72.57 E5.1731
G1 F900
G1 E8.0531
G1 F3150
G1 X78.89 Y72.63 E8.0674
G1 X78.7 Y72.61 E8.0705
G1 X78.55 Y72.53 E8.0731
G1 X77.89 Y71.95 E8.087
G1 X77.8 Y71.81 E8.0896
G1 X77.76 Y71.62 E8.0927
G1 X77.74 Y71.27 E8.0981
G1 X76.98 Y71.19 E8.1101
G1 X76.6 Y71.22 E8.1161
G1 X76.22 Y71.16 E8.1221
G1 X75.84 Y71.18 E8.1281
G1 X75.46 Y71.05 E8.1344
G1 X74.7 Y71.02 E8.1464
G1 X74.31 Y70.91 E8.1526
G1 X74.37 Y71.82 E8.1669
G1 X74.41 Y72.02 E8.1701
G1 X74.5 Y72.15 E8.1727
G1 X75.16 Y72.74 E8.1865
G1 X75.31 Y72.81 E8.1891
G1 X75.51 Y72.83 E8.1923
G1 X76.75 Y72.76 E8.2118
G1 X76.95 Y72.77 E8.215
G1 X77.09 Y72.85 E8.2176
G1 X77.75 Y73.43 E8.2314
G1 X77.85 Y73.57 E8.234
G1 X77.89 Y73.76 E8.2371
G1 X77.96 Y75.01 E8.2567
